M201 X800.00 Y800.00 Z300.00 E5000.00 ;Setup machine max acceleration
M203 X1500.00 Y1500.00 Z80.00 E50.00 ;Setup machine max feedrate
M204 P500.00 R1000.00 T500.00 ;Setup Print/Retract/Travel acceleration
M205 X8.00 Y8.00 Z0.40 E5.00 ;Setup Jerk
M220 S100 ;Reset Feedrate
M221 S100 ;Reset Flowrate
G28 ;Home
M420 S1 Z2 ;Enable ABL using saved Mesh and Fade Height
G92 E0 ;Reset Extruder
G0 X84.47 Y162.59 Z70.00 E0 F1200 
G0 X180.00 Y100.00 Z40.00 E0 F1200 
M0; stop and wait for user input
G0 X180.00 Y100.00 Z70.00 E0 F1200 
G1 X40.00 Y85.00 Z120.00 E0 F1200 
G1 X40.00 Y55.00 Z120.00 E0 F1200 
G1 X40.00 Y55.00 Z42.00 E0 F1200 
G1 X36.00 Y51.00 Z42.00 E0 F1200 
G1 X36.00 Y59.00 Z42.00 E0 F1200 
G1 X44.00 Y51.00 Z42.00 E0 F1200 
G1 X44.00 Y59.00 Z42.00 E0 F1200 
G1 X36.00 Y51.00 Z42.00 E0 F1200 
G1 X36.00 Y59.00 Z42.00 E0 F1200 
G1 X44.00 Y51.00 Z42.00 E0 F1200 
G1 X44.00 Y59.00 Z42.00 E0 F1200 
G1 X40.00 Y55.00 Z120.00 E0 F1200 
G1 X40.00 Y85.00 Z120.00 E0 F1200 
G1 X84.47 Y128.15 Z70.00 E0 F1200 
G1 X92.33 Y165.93 Z58.00 E0 F1200 
G1 X92.33 Y165.93 Z58.00 E0 F1200 
G0 X83.91 Y128.71 Z40.00 E0 F1200 
G0 X81.69 Y128.71 Z40.00 E0 F1200 
G0 X78.91 Y131.48 Z40.00 E0 F1200 
G0 X78.91 Y132.04 Z40.00 E0 F1200 
G0 X77.25 Y133.71 Z40.00 E0 F1200 
G0 X77.25 Y134.26 Z40.00 E0 F1200 
G0 X75.58 Y135.93 Z40.00 E0 F1200 
G0 X75.58 Y136.48 Z40.00 E0 F1200 
G0 X73.91 Y138.15 Z40.00 E0 F1200 
G0 X73.91 Y138.71 Z40.00 E0 F1200 
G0 X71.69 Y140.93 Z40.00 E0 F1200 
G0 X71.69 Y141.48 Z40.00 E0 F1200 
G0 X70.03 Y143.15 Z40.00 E0 F1200 
G0 X70.03 Y143.71 Z40.00 E0 F1200 
G0 X68.36 Y145.37 Z40.00 E0 F1200 
G0 X68.36 Y145.93 Z40.00 E0 F1200 
G0 X66.69 Y147.59 Z40.00 E0 F1200 
G0 X66.69 Y148.15 Z40.00 E0 F1200 
G0 X65.03 Y149.82 Z40.00 E0 F1200 
G0 X65.03 Y150.37 Z40.00 E0 F1200 
G0 X63.36 Y152.04 Z40.00 E0 F1200 
G0 X63.36 Y152.59 Z40.00 E0 F1200 
G0 X62.25 Y153.71 Z40.00 E0 F1200 
G0 X62.25 Y154.82 Z40.00 E0 F1200 
G0 X61.69 Y155.37 Z40.00 E0 F1200 
G0 X61.69 Y159.26 Z40.00 E0 F1200 
G0 X62.25 Y159.82 Z40.00 E0 F1200 
G0 X62.25 Y160.37 Z40.00 E0 F1200 
G0 X62.80 Y160.93 Z40.00 E0 F1200 
G0 X62.80 Y161.48 Z40.00 E0 F1200 
G0 X63.36 Y162.04 Z40.00 E0 F1200 
G0 X63.91 Y162.04 Z40.00 E0 F1200 
G0 X64.47 Y162.59 Z40.00 E0 F1200 
G0 X66.14 Y162.59 Z40.00 E0 F1200 
G0 X66.69 Y163.15 Z40.00 E0 F1200 
G0 X67.25 Y162.59 Z40.00 E0 F1200 
G0 X68.91 Y162.59 Z40.00 E0 F1200 
G0 X71.69 Y159.82 Z40.00 E0 F1200 
G0 X71.69 Y159.26 Z40.00 E0 F1200 
G0 X73.36 Y157.59 Z40.00 E0 F1200 
G0 X73.36 Y157.04 Z40.00 E0 F1200 
G0 X75.03 Y155.37 Z40.00 E0 F1200 
G0 X75.03 Y154.82 Z40.00 E0 F1200 
G0 X76.69 Y153.15 Z40.00 E0 F1200 
G0 X76.69 Y152.59 Z40.00 E0 F1200 
G0 X78.36 Y150.93 Z40.00 E0 F1200 
G0 X78.36 Y150.37 Z40.00 E0 F1200 
G0 X80.03 Y148.71 Z40.00 E0 F1200 
G0 X80.03 Y148.15 Z40.00 E0 F1200 
G0 X81.69 Y146.48 Z40.00 E0 F1200 
G0 X81.69 Y145.93 Z40.00 E0 F1200 
G0 X83.36 Y144.26 Z40.00 E0 F1200 
G0 X83.36 Y143.71 Z40.00 E0 F1200 
G0 X85.03 Y142.04 Z40.00 E0 F1200 
G0 X85.03 Y141.48 Z40.00 E0 F1200 
G0 X86.14 Y140.37 Z40.00 E0 F1200 
G0 X93.91 Y140.37 Z40.00 E0 F1200 
G0 X94.47 Y140.93 Z40.00 E0 F1200 
G0 X92.80 Y142.59 Z40.00 E0 F1200 
G0 X92.80 Y143.15 Z40.00 E0 F1200 
G0 X91.14 Y144.82 Z40.00 E0 F1200 
G0 X91.14 Y145.37 Z40.00 E0 F1200 
G0 X89.47 Y147.04 Z40.00 E0 F1200 
G0 X89.47 Y147.59 Z40.00 E0 F1200 
G0 X87.80 Y149.26 Z40.00 E0 F1200 
G0 X87.80 Y149.82 Z40.00 E0 F1200 
G0 X86.14 Y151.48 Z40.00 E0 F1200 
G0 X86.14 Y152.04 Z40.00 E0 F1200 
G0 X84.47 Y153.71 Z40.00 E0 F1200 
G1 X84.47 Y153.71 Z40.00 E0 F1200 
G1 X86.14 Y152.04 Z40.00 E0 F1200 
G1 X86.14 Y151.48 Z40.00 E0 F1200 
G1 X87.80 Y149.82 Z40.00 E0 F1200 
G1 X87.80 Y149.26 Z40.00 E0 F1200 
G1 X89.47 Y147.59 Z40.00 E0 F1200 
G1 X87.80 Y149.26 Z40.00 E0 F1200 
G1 X87.80 Y149.82 Z40.00 E0 F1200 
G1 X87.80 Y149.26 Z40.00 E0 F1200 
G1 X84.47 Y153.71 Z40.00 E0 F1200 
G0 X84.47 Y154.26 Z40.00 E0 F1200 
G0 X82.80 Y155.93 Z40.00 E0 F1200 
G0 X82.80 Y156.48 Z40.00 E0 F1200 
G0 X81.14 Y158.15 Z40.00 E0 F1200 
G0 X81.14 Y158.71 Z40.00 E0 F1200 
G0 X79.47 Y160.37 Z40.00 E0 F1200 
G0 X79.47 Y160.93 Z40.00 E0 F1200 
G0 X77.80 Y162.59 Z40.00 E0 F1200 
G0 X77.80 Y163.15 Z40.00 E0 F1200 
G0 X76.14 Y164.82 Z40.00 E0 F1200 
G0 X76.14 Y165.37 Z40.00 E0 F1200 
G0 X74.47 Y167.04 Z40.00 E0 F1200 
G0 X74.47 Y167.59 Z40.00 E0 F1200 
G0 X72.80 Y169.26 Z40.00 E0 F1200 
G0 X72.80 Y169.82 Z40.00 E0 F1200 
G0 X71.14 Y171.48 Z40.00 E0 F1200 
G0 X71.14 Y172.04 Z40.00 E0 F1200 
G0 X69.47 Y173.71 Z40.00 E0 F1200 
G0 X69.47 Y174.26 Z40.00 E0 F1200 
G0 X67.80 Y175.93 Z40.00 E0 F1200 
G0 X67.80 Y176.48 Z40.00 E0 F1200 
G0 X66.14 Y178.15 Z40.00 E0 F1200 
G0 X66.14 Y178.71 Z40.00 E0 F1200 
G0 X64.47 Y180.37 Z40.00 E0 F1200 
G0 X64.47 Y180.93 Z40.00 E0 F1200 
G0 X62.80 Y182.59 Z40.00 E0 F1200 
G0 X62.80 Y183.15 Z40.00 E0 F1200 
G0 X60.03 Y185.93 Z40.00 E0 F1200 
G0 X35.58 Y185.93 Z40.00 E0 F1200 
G1 X35.58 Y185.93 Z40.00 E0 F1200 
G1 X60.03 Y185.93 Z40.00 E0 F1200 
G1 X62.80 Y183.15 Z40.00 E0 F1200 
G1 X62.80 Y182.59 Z40.00 E0 F1200 
G1 X64.47 Y180.93 Z40.00 E0 F1200 
G1 X64.47 Y180.37 Z40.00 E0 F1200 
G1 X64.47 Y180.93 Z40.00 E0 F1200 
G1 X62.80 Y182.59 Z40.00 E0 F1200 
G1 X64.47 Y180.93 Z40.00 E0 F1200 
G1 X35.58 Y185.93 Z40.00 E0 F1200 
G0 X35.03 Y186.48 Z40.00 E0 F1200 
G0 X34.47 Y186.48 Z40.00 E0 F1200 
G0 X33.91 Y187.04 Z40.00 E0 F1200 
G0 X33.36 Y187.04 Z40.00 E0 F1200 
G0 X32.25 Y188.15 Z40.00 E0 F1200 
G0 X32.25 Y188.71 Z40.00 E0 F1200 
G0 X31.14 Y189.82 Z40.00 E0 F1200 
G0 X31.14 Y191.48 Z40.00 E0 F1200 
G0 X31.14 Y190.93 Z40.00 E0 F1200 
G0 X31.69 Y190.37 Z40.00 E0 F1200 
G0 X31.69 Y189.82 Z40.00 E0 F1200 
G0 X32.25 Y189.26 Z40.00 E0 F1200 
G0 X32.25 Y188.71 Z40.00 E0 F1200 
G0 X33.91 Y187.04 Z40.00 E0 F1200 
G0 X34.47 Y187.04 Z40.00 E0 F1200 
G0 X35.58 Y185.93 Z40.00 E0 F1200 
G0 X60.58 Y185.93 Z40.00 E0 F1200 
G0 X62.80 Y183.71 Z40.00 E0 F1200 
G0 X62.80 Y183.15 Z40.00 E0 F1200 
G0 X64.47 Y181.48 Z40.00 E0 F1200 
G0 X64.47 Y180.93 Z40.00 E0 F1200 
G0 X66.14 Y179.26 Z40.00 E0 F1200 
G0 X66.14 Y178.71 Z40.00 E0 F1200 
G0 X67.80 Y177.04 Z40.00 E0 F1200 
G0 X67.80 Y176.48 Z40.00 E0 F1200 
G0 X69.47 Y174.82 Z40.00 E0 F1200 
G0 X69.47 Y174.26 Z40.00 E0 F1200 
G0 X71.14 Y172.59 Z40.00 E0 F1200 
G0 X71.14 Y172.04 Z40.00 E0 F1200 
G0 X72.80 Y170.37 Z40.00 E0 F1200 
G0 X72.80 Y169.82 Z40.00 E0 F1200 
G0 X74.47 Y168.15 Z40.00 E0 F1200 
G0 X74.47 Y167.59 Z40.00 E0 F1200 
G0 X76.14 Y165.93 Z40.00 E0 F1200 
G0 X76.14 Y165.37 Z40.00 E0 F1200 
G0 X77.80 Y163.71 Z40.00 E0 F1200 
G0 X77.80 Y163.15 Z40.00 E0 F1200 
G0 X79.47 Y161.48 Z40.00 E0 F1200 
G0 X79.47 Y160.93 Z40.00 E0 F1200 
G0 X81.14 Y159.26 Z40.00 E0 F1200 
G0 X81.14 Y158.71 Z40.00 E0 F1200 
G0 X82.80 Y157.04 Z40.00 E0 F1200 
G0 X82.80 Y156.48 Z40.00 E0 F1200 
G0 X84.47 Y154.82 Z40.00 E0 F1200 
G1 X84.47 Y154.82 Z40.00 E0 F1200 
G1 X82.80 Y156.48 Z40.00 E0 F1200 
G1 X82.80 Y157.04 Z40.00 E0 F1200 
G1 X81.14 Y158.71 Z40.00 E0 F1200 
G1 X81.14 Y159.26 Z40.00 E0 F1200 
G1 X79.47 Y160.93 Z40.00 E0 F1200 
G1 X81.14 Y159.26 Z40.00 E0 F1200 
G1 X81.14 Y158.71 Z40.00 E0 F1200 
G1 X81.14 Y159.26 Z40.00 E0 F1200 
G1 X84.47 Y154.82 Z40.00 E0 F1200 
G0 X84.47 Y154.26 Z40.00 E0 F1200 
G0 X86.14 Y152.59 Z40.00 E0 F1200 
G0 X86.14 Y152.04 Z40.00 E0 F1200 
G0 X87.80 Y150.37 Z40.00 E0 F1200 
G0 X87.80 Y149.82 Z40.00 E0 F1200 
G0 X89.47 Y148.15 Z40.00 E0 F1200 
G0 X89.47 Y147.59 Z40.00 E0 F1200 
G0 X91.14 Y145.93 Z40.00 E0 F1200 
G0 X91.14 Y145.37 Z40.00 E0 F1200 
G0 X92.80 Y143.71 Z40.00 E0 F1200 
G0 X92.80 Y143.15 Z40.00 E0 F1200 
G0 X94.47 Y141.48 Z40.00 E0 F1200 
G0 X94.47 Y140.37 Z40.00 E0 F1200 
G0 X85.58 Y140.37 Z40.00 E0 F1200 
G0 X85.03 Y140.93 Z40.00 E0 F1200 
G0 X85.03 Y141.48 Z40.00 E0 F1200 
G0 X83.36 Y143.15 Z40.00 E0 F1200 
G0 X83.36 Y143.71 Z40.00 E0 F1200 
G0 X81.69 Y145.37 Z40.00 E0 F1200 
G0 X81.69 Y145.93 Z40.00 E0 F1200 
G0 X80.03 Y147.59 Z40.00 E0 F1200 
G0 X80.03 Y148.15 Z40.00 E0 F1200 
G0 X78.36 Y149.82 Z40.00 E0 F1200 
G0 X78.36 Y150.37 Z40.00 E0 F1200 
G0 X76.69 Y152.04 Z40.00 E0 F1200 
G0 X76.69 Y152.59 Z40.00 E0 F1200 
G0 X75.03 Y154.26 Z40.00 E0 F1200 
G0 X75.03 Y154.82 Z40.00 E0 F1200 
G0 X73.36 Y156.48 Z40.00 E0 F1200 
G0 X73.36 Y157.04 Z40.00 E0 F1200 
G0 X71.69 Y158.71 Z40.00 E0 F1200 
G0 X71.69 Y159.26 Z40.00 E0 F1200 
G0 X68.36 Y162.59 Z40.00 E0 F1200 
G0 X67.25 Y162.59 Z40.00 E0 F1200 
G0 X66.69 Y163.15 Z40.00 E0 F1200 
G0 X66.14 Y162.59 Z40.00 E0 F1200 
G0 X65.03 Y162.59 Z40.00 E0 F1200 
G0 X64.47 Y162.04 Z40.00 E0 F1200 
G0 X63.91 Y162.04 Z40.00 E0 F1200 
G0 X62.80 Y160.93 Z40.00 E0 F1200 
G0 X62.80 Y160.37 Z40.00 E0 F1200 
G0 X61.69 Y159.26 Z40.00 E0 F1200 
G0 X61.69 Y155.37 Z40.00 E0 F1200 
G0 X62.25 Y154.82 Z40.00 E0 F1200 
G0 X62.25 Y154.26 Z40.00 E0 F1200 
G0 X63.36 Y153.15 Z40.00 E0 F1200 
G0 X63.36 Y152.59 Z40.00 E0 F1200 
G0 X65.03 Y150.93 Z40.00 E0 F1200 
G0 X65.03 Y150.37 Z40.00 E0 F1200 
G0 X66.69 Y148.71 Z40.00 E0 F1200 
G0 X66.69 Y148.15 Z40.00 E0 F1200 
G0 X68.36 Y146.48 Z40.00 E0 F1200 
G0 X68.36 Y145.93 Z40.00 E0 F1200 
G0 X70.03 Y144.26 Z40.00 E0 F1200 
G0 X70.03 Y143.71 Z40.00 E0 F1200 
G0 X71.69 Y142.04 Z40.00 E0 F1200 
G0 X71.69 Y141.48 Z40.00 E0 F1200 
G0 X73.91 Y139.26 Z40.00 E0 F1200 
G0 X73.91 Y138.71 Z40.00 E0 F1200 
G0 X75.58 Y137.04 Z40.00 E0 F1200 
G0 X75.58 Y136.48 Z40.00 E0 F1200 
G0 X77.25 Y134.82 Z40.00 E0 F1200 
G1 X70.00 Y85.00 Z120.00 E0 F1200 
G1 X70.00 Y55.00 Z120.00 E0 F1200 
G1 X70.00 Y55.00 Z42.00 E0 F1200 
G1 X69.70 Y55.00 Z42.00 E0 F1200 
G1 X70.30 Y55.00 Z42.00 E0 F1200 
G1 X69.70 Y55.00 Z42.00 E0 F1200 
G1 X70.30 Y55.00 Z42.00 E0 F1200 
G1 X69.70 Y55.00 Z42.00 E0 F1200 
G1 X70.30 Y55.00 Z42.00 E0 F1200 
G1 X69.70 Y55.00 Z42.00 E0 F1200 
G1 X70.30 Y55.00 Z42.00 E0 F1200 
G1 X69.70 Y55.00 Z42.00 E0 F1200 
G1 X70.30 Y55.00 Z42.00 E0 F1200 
G1 X69.70 Y55.00 Z42.00 E0 F1200 
G1 X70.30 Y55.00 Z42.00 E0 F1200 
G1 X69.70 Y55.00 Z42.00 E0 F1200 
G1 X70.30 Y55.00 Z42.00 E0 F1200 
G1 X69.70 Y55.00 Z42.00 E0 F1200 
G1 X70.30 Y55.00 Z42.00 E0 F1200 
G1 X69.70 Y55.00 Z42.00 E0 F1200 
G1 X70.30 Y55.00 Z42.00 E0 F1200 
G1 X69.70 Y55.00 Z42.00 E0 F1200 
G1 X70.30 Y55.00 Z42.00 E0 F1200 
G1 X69.70 Y55.00 Z42.00 E0 F1200 
G1 X70.30 Y55.00 Z42.00 E0 F1200 
G1 X69.70 Y55.00 Z42.00 E0 F1200 
G1 X70.30 Y55.00 Z42.00 E0 F1200 
G1 X69.70 Y55.00 Z42.00 E0 F1200 
G1 X70.30 Y55.00 Z42.00 E0 F1200 
G1 X69.70 Y55.00 Z42.00 E0 F1200 
G1 X70.30 Y55.00 Z42.00 E0 F1200 
G1 X69.70 Y55.00 Z42.00 E0 F1200 
G1 X70.30 Y55.00 Z42.00 E0 F1200 
G1 X69.70 Y55.00 Z42.00 E0 F1200 
G1 X70.30 Y55.00 Z42.00 E0 F1200 
G1 X69.70 Y55.00 Z42.00 E0 F1200 
G1 X70.30 Y55.00 Z42.00 E0 F1200 
G1 X69.70 Y55.00 Z42.00 E0 F1200 
G1 X70.30 Y55.00 Z42.00 E0 F1200 
G1 X69.70 Y55.00 Z42.00 E0 F1200 
G1 X70.30 Y55.00 Z42.00 E0 F1200 
G1 X69.70 Y55.00 Z42.00 E0 F1200 
G1 X70.30 Y55.00 Z42.00 E0 F1200 
G1 X69.70 Y55.00 Z42.00 E0 F1200 
G1 X70.30 Y55.00 Z42.00 E0 F1200 
G1 X69.70 Y55.00 Z42.00 E0 F1200 
G1 X70.30 Y55.00 Z42.00 E0 F1200 
G1 X69.70 Y55.00 Z42.00 E0 F1200 
G1 X70.30 Y55.00 Z42.00 E0 F1200 
G1 X69.70 Y55.00 Z42.00 E0 F1200 
G1 X70.30 Y55.00 Z42.00 E0 F1200 
G1 X69.70 Y55.00 Z42.00 E0 F1200 
G1 X70.30 Y55.00 Z42.00 E0 F1200 
G1 X69.70 Y55.00 Z42.00 E0 F1200 
G1 X70.30 Y55.00 Z42.00 E0 F1200 
G1 X69.70 Y55.00 Z42.00 E0 F1200 
G1 X70.30 Y55.00 Z42.00 E0 F1200 
G1 X69.70 Y55.00 Z42.00 E0 F1200 
G1 X70.30 Y55.00 Z42.00 E0 F1200 
G1 X69.70 Y55.00 Z42.00 E0 F1200 
G1 X70.30 Y55.00 Z42.00 E0 F1200 
G1 X69.70 Y55.00 Z42.00 E0 F1200 
G1 X70.30 Y55.00 Z42.00 E0 F1200 
G1 X69.70 Y55.00 Z42.00 E0 F1200 
G1 X70.30 Y55.00 Z42.00 E0 F1200 
G1 X69.70 Y55.00 Z42.00 E0 F1200 
G1 X70.30 Y55.00 Z42.00 E0 F1200 
G1 X69.70 Y55.00 Z42.00 E0 F1200 
G1 X70.30 Y55.00 Z42.00 E0 F1200 
G1 X69.70 Y55.00 Z42.00 E0 F1200 
G1 X70.30 Y55.00 Z42.00 E0 F1200 
G1 X69.70 Y55.00 Z42.00 E0 F1200 
G1 X70.30 Y55.00 Z42.00 E0 F1200 
G1 X69.70 Y55.00 Z42.00 E0 F1200 
G1 X70.30 Y55.00 Z42.00 E0 F1200 
G1 X69.70 Y55.00 Z42.00 E0 F1200 
G1 X70.30 Y55.00 Z42.00 E0 F1200 
G1 X69.70 Y55.00 Z42.00 E0 F1200 
G1 X70.30 Y55.00 Z42.00 E0 F1200 
G1 X69.70 Y55.00 Z42.00 E0 F1200 
G1 X70.30 Y55.00 Z42.00 E0 F1200 
G1 X69.70 Y55.00 Z42.00 E0 F1200 
G1 X70.30 Y55.00 Z42.00 E0 F1200 
G1 X69.70 Y55.00 Z42.00 E0 F1200 
G1 X70.30 Y55.00 Z42.00 E0 F1200 
G1 X69.70 Y55.00 Z42.00 E0 F1200 
G1 X70.30 Y55.00 Z42.00 E0 F1200 
G1 X69.70 Y55.00 Z42.00 E0 F1200 
G1 X70.30 Y55.00 Z42.00 E0 F1200 
G1 X69.70 Y55.00 Z42.00 E0 F1200 
G1 X70.30 Y55.00 Z42.00 E0 F1200 
G1 X69.70 Y55.00 Z42.00 E0 F1200 
G1 X70.30 Y55.00 Z42.00 E0 F1200 
G1 X69.70 Y55.00 Z42.00 E0 F1200 
G1 X70.30 Y55.00 Z42.00 E0 F1200 
G1 X69.70 Y55.00 Z42.00 E0 F1200 
G1 X70.30 Y55.00 Z42.00 E0 F1200 
G1 X69.70 Y55.00 Z42.00 E0 F1200 
G1 X70.30 Y55.00 Z42.00 E0 F1200 
G1 X69.70 Y55.00 Z42.00 E0 F1200 
G1 X70.30 Y55.00 Z42.00 E0 F1200 
G1 X69.70 Y55.00 Z42.00 E0 F1200 
G1 X70.30 Y55.00 Z42.00 E0 F1200 
G1 X70.00 Y55.00 Z62.00 E0 F1200 
G1 X70.00 Y54.70 Z42.00 E0 F1200 
G1 X70.00 Y55.30 Z42.00 E0 F1200 
G1 X70.00 Y54.70 Z42.00 E0 F1200 
G1 X70.00 Y55.30 Z42.00 E0 F1200 
G1 X70.00 Y54.70 Z42.00 E0 F1200 
G1 X70.00 Y55.30 Z42.00 E0 F1200 
G1 X70.00 Y54.70 Z42.00 E0 F1200 
G1 X70.00 Y55.30 Z42.00 E0 F1200 
G1 X70.00 Y54.70 Z42.00 E0 F1200 
G1 X70.00 Y55.30 Z42.00 E0 F1200 
G1 X70.00 Y54.70 Z42.00 E0 F1200 
G1 X70.00 Y55.30 Z42.00 E0 F1200 
G1 X70.00 Y54.70 Z42.00 E0 F1200 
G1 X70.00 Y55.30 Z42.00 E0 F1200 
G1 X70.00 Y54.70 Z42.00 E0 F1200 
G1 X70.00 Y55.30 Z42.00 E0 F1200 
G1 X70.00 Y54.70 Z42.00 E0 F1200 
G1 X70.00 Y55.30 Z42.00 E0 F1200 
G1 X70.00 Y54.70 Z42.00 E0 F1200 
G1 X70.00 Y55.30 Z42.00 E0 F1200 
G1 X70.00 Y54.70 Z42.00 E0 F1200 
G1 X70.00 Y55.30 Z42.00 E0 F1200 
G1 X70.00 Y54.70 Z42.00 E0 F1200 
G1 X70.00 Y55.30 Z42.00 E0 F1200 
G1 X70.00 Y54.70 Z42.00 E0 F1200 
G1 X70.00 Y55.30 Z42.00 E0 F1200 
G1 X70.00 Y54.70 Z42.00 E0 F1200 
G1 X70.00 Y55.30 Z42.00 E0 F1200 
G1 X70.00 Y54.70 Z42.00 E0 F1200 
G1 X70.00 Y55.30 Z42.00 E0 F1200 
G1 X70.00 Y54.70 Z42.00 E0 F1200 
G1 X70.00 Y55.30 Z42.00 E0 F1200 
G1 X70.00 Y54.70 Z42.00 E0 F1200 
G1 X70.00 Y55.30 Z42.00 E0 F1200 
G1 X70.00 Y54.70 Z42.00 E0 F1200 
G1 X70.00 Y55.30 Z42.00 E0 F1200 
G1 X70.00 Y54.70 Z42.00 E0 F1200 
G1 X70.00 Y55.30 Z42.00 E0 F1200 
G1 X70.00 Y54.70 Z42.00 E0 F1200 
G1 X70.00 Y55.30 Z42.00 E0 F1200 
G1 X70.00 Y54.70 Z42.00 E0 F1200 
G1 X70.00 Y55.30 Z42.00 E0 F1200 
G1 X70.00 Y54.70 Z42.00 E0 F1200 
G1 X70.00 Y55.30 Z42.00 E0 F1200 
G1 X70.00 Y54.70 Z42.00 E0 F1200 
G1 X70.00 Y55.30 Z42.00 E0 F1200 
G1 X70.00 Y54.70 Z42.00 E0 F1200 
G1 X70.00 Y55.30 Z42.00 E0 F1200 
G1 X70.00 Y54.70 Z42.00 E0 F1200 
G1 X70.00 Y55.30 Z42.00 E0 F1200 
G1 X70.00 Y54.70 Z42.00 E0 F1200 
G1 X70.00 Y55.30 Z42.00 E0 F1200 
G1 X70.00 Y54.70 Z42.00 E0 F1200 
G1 X70.00 Y55.30 Z42.00 E0 F1200 
G1 X70.00 Y54.70 Z42.00 E0 F1200 
G1 X70.00 Y55.30 Z42.00 E0 F1200 
G1 X70.00 Y54.70 Z42.00 E0 F1200 
G1 X70.00 Y55.30 Z42.00 E0 F1200 
G1 X70.00 Y54.70 Z42.00 E0 F1200 
G1 X70.00 Y55.30 Z42.00 E0 F1200 
G1 X70.00 Y54.70 Z42.00 E0 F1200 
G1 X70.00 Y55.30 Z42.00 E0 F1200 
G1 X70.00 Y54.70 Z42.00 E0 F1200 
G1 X70.00 Y55.30 Z42.00 E0 F1200 
G1 X70.00 Y54.70 Z42.00 E0 F1200 
G1 X70.00 Y55.30 Z42.00 E0 F1200 
G1 X70.00 Y54.70 Z42.00 E0 F1200 
G1 X70.00 Y55.30 Z42.00 E0 F1200 
G1 X70.00 Y54.70 Z42.00 E0 F1200 
G1 X70.00 Y55.30 Z42.00 E0 F1200 
G1 X70.00 Y54.70 Z42.00 E0 F1200 
G1 X70.00 Y55.30 Z42.00 E0 F1200 
G1 X70.00 Y54.70 Z42.00 E0 F1200 
G1 X70.00 Y55.30 Z42.00 E0 F1200 
G1 X70.00 Y54.70 Z42.00 E0 F1200 
G1 X70.00 Y55.30 Z42.00 E0 F1200 
G1 X70.00 Y54.70 Z42.00 E0 F1200 
G1 X70.00 Y55.30 Z42.00 E0 F1200 
G1 X70.00 Y54.70 Z42.00 E0 F1200 
G1 X70.00 Y55.30 Z42.00 E0 F1200 
G1 X70.00 Y54.70 Z42.00 E0 F1200 
G1 X70.00 Y55.30 Z42.00 E0 F1200 
G1 X70.00 Y54.70 Z42.00 E0 F1200 
G1 X70.00 Y55.30 Z42.00 E0 F1200 
G1 X70.00 Y54.70 Z42.00 E0 F1200 
G1 X70.00 Y55.30 Z42.00 E0 F1200 
G1 X70.00 Y54.70 Z42.00 E0 F1200 
G1 X70.00 Y55.30 Z42.00 E0 F1200 
G1 X70.00 Y54.70 Z42.00 E0 F1200 
G1 X70.00 Y55.30 Z42.00 E0 F1200 
G1 X70.00 Y54.70 Z42.00 E0 F1200 
G1 X70.00 Y55.30 Z42.00 E0 F1200 
G1 X70.00 Y54.70 Z42.00 E0 F1200 
G1 X70.00 Y55.30 Z42.00 E0 F1200 
G1 X70.00 Y54.70 Z42.00 E0 F1200 
G1 X70.00 Y55.30 Z42.00 E0 F1200 
G1 X70.00 Y54.70 Z42.00 E0 F1200 
G1 X70.00 Y55.30 Z42.00 E0 F1200 
G1 X70.00 Y54.70 Z42.00 E0 F1200 
G1 X70.00 Y55.30 Z42.00 E0 F1200 
G1 X69.70 Y55.00 Z42.00 E0 F1200 
G1 X70.30 Y55.00 Z42.00 E0 F1200 
G1 X69.70 Y55.00 Z42.00 E0 F1200 
G1 X70.30 Y55.00 Z42.00 E0 F1200 
G1 X69.70 Y55.00 Z42.00 E0 F1200 
G1 X70.30 Y55.00 Z42.00 E0 F1200 
G1 X69.70 Y55.00 Z42.00 E0 F1200 
G1 X70.30 Y55.00 Z42.00 E0 F1200 
G1 X69.70 Y55.00 Z42.00 E0 F1200 
G1 X70.30 Y55.00 Z42.00 E0 F1200 
G1 X69.70 Y55.00 Z42.00 E0 F1200 
G1 X70.30 Y55.00 Z42.00 E0 F1200 
G1 X69.70 Y55.00 Z42.00 E0 F1200 
G1 X70.30 Y55.00 Z42.00 E0 F1200 
G1 X69.70 Y55.00 Z42.00 E0 F1200 
G1 X70.30 Y55.00 Z42.00 E0 F1200 
G1 X69.70 Y55.00 Z42.00 E0 F1200 
G1 X70.30 Y55.00 Z42.00 E0 F1200 
G1 X69.70 Y55.00 Z42.00 E0 F1200 
G1 X70.30 Y55.00 Z42.00 E0 F1200 
G1 X69.70 Y55.00 Z42.00 E0 F1200 
G1 X70.30 Y55.00 Z42.00 E0 F1200 
G1 X69.70 Y55.00 Z42.00 E0 F1200 
G1 X70.30 Y55.00 Z42.00 E0 F1200 
G1 X69.70 Y55.00 Z42.00 E0 F1200 
G1 X70.30 Y55.00 Z42.00 E0 F1200 
G1 X69.70 Y55.00 Z42.00 E0 F1200 
G1 X70.30 Y55.00 Z42.00 E0 F1200 
G1 X69.70 Y55.00 Z42.00 E0 F1200 
G1 X70.30 Y55.00 Z42.00 E0 F1200 
G1 X69.70 Y55.00 Z42.00 E0 F1200 
G1 X70.30 Y55.00 Z42.00 E0 F1200 
G1 X69.70 Y55.00 Z42.00 E0 F1200 
G1 X70.30 Y55.00 Z42.00 E0 F1200 
G1 X69.70 Y55.00 Z42.00 E0 F1200 
G1 X70.30 Y55.00 Z42.00 E0 F1200 
G1 X69.70 Y55.00 Z42.00 E0 F1200 
G1 X70.30 Y55.00 Z42.00 E0 F1200 
G1 X69.70 Y55.00 Z42.00 E0 F1200 
G1 X70.30 Y55.00 Z42.00 E0 F1200 
G1 X69.70 Y55.00 Z42.00 E0 F1200 
G1 X70.30 Y55.00 Z42.00 E0 F1200 
G1 X69.70 Y55.00 Z42.00 E0 F1200 
G1 X70.30 Y55.00 Z42.00 E0 F1200 
G1 X69.70 Y55.00 Z42.00 E0 F1200 
G1 X70.30 Y55.00 Z42.00 E0 F1200 
G1 X69.70 Y55.00 Z42.00 E0 F1200 
G1 X70.30 Y55.00 Z42.00 E0 F1200 
G1 X69.70 Y55.00 Z42.00 E0 F1200 
G1 X70.30 Y55.00 Z42.00 E0 F1200 
G1 X69.70 Y55.00 Z42.00 E0 F1200 
G1 X70.30 Y55.00 Z42.00 E0 F1200 
G1 X69.70 Y55.00 Z42.00 E0 F1200 
G1 X70.30 Y55.00 Z42.00 E0 F1200 
G1 X69.70 Y55.00 Z42.00 E0 F1200 
G1 X70.30 Y55.00 Z42.00 E0 F1200 
G1 X69.70 Y55.00 Z42.00 E0 F1200 
G1 X70.30 Y55.00 Z42.00 E0 F1200 
G1 X69.70 Y55.00 Z42.00 E0 F1200 
G1 X70.30 Y55.00 Z42.00 E0 F1200 
G1 X69.70 Y55.00 Z42.00 E0 F1200 
G1 X70.30 Y55.00 Z42.00 E0 F1200 
G1 X69.70 Y55.00 Z42.00 E0 F1200 
G1 X70.30 Y55.00 Z42.00 E0 F1200 
G1 X69.70 Y55.00 Z42.00 E0 F1200 
G1 X70.30 Y55.00 Z42.00 E0 F1200 
G1 X69.70 Y55.00 Z42.00 E0 F1200 
G1 X70.30 Y55.00 Z42.00 E0 F1200 
G1 X69.70 Y55.00 Z42.00 E0 F1200 
G1 X70.30 Y55.00 Z42.00 E0 F1200 
G1 X69.70 Y55.00 Z42.00 E0 F1200 
G1 X70.30 Y55.00 Z42.00 E0 F1200 
G1 X69.70 Y55.00 Z42.00 E0 F1200 
G1 X70.30 Y55.00 Z42.00 E0 F1200 
G1 X69.70 Y55.00 Z42.00 E0 F1200 
G1 X70.30 Y55.00 Z42.00 E0 F1200 
G1 X69.70 Y55.00 Z42.00 E0 F1200 
G1 X70.30 Y55.00 Z42.00 E0 F1200 
G1 X69.70 Y55.00 Z42.00 E0 F1200 
G1 X70.30 Y55.00 Z42.00 E0 F1200 
G1 X69.70 Y55.00 Z42.00 E0 F1200 
G1 X70.30 Y55.00 Z42.00 E0 F1200 
G1 X69.70 Y55.00 Z42.00 E0 F1200 
G1 X70.30 Y55.00 Z42.00 E0 F1200 
G1 X69.70 Y55.00 Z42.00 E0 F1200 
G1 X70.30 Y55.00 Z42.00 E0 F1200 
G1 X69.70 Y55.00 Z42.00 E0 F1200 
G1 X70.30 Y55.00 Z42.00 E0 F1200 
G1 X69.70 Y55.00 Z42.00 E0 F1200 
G1 X70.30 Y55.00 Z42.00 E0 F1200 
G1 X69.70 Y55.00 Z42.00 E0 F1200 
G1 X70.30 Y55.00 Z42.00 E0 F1200 
G1 X69.70 Y55.00 Z42.00 E0 F1200 
G1 X70.30 Y55.00 Z42.00 E0 F1200 
G1 X69.70 Y55.00 Z42.00 E0 F1200 
G1 X70.30 Y55.00 Z42.00 E0 F1200 
G1 X69.70 Y55.00 Z42.00 E0 F1200 
G1 X70.30 Y55.00 Z42.00 E0 F1200 
G1 X69.70 Y55.00 Z42.00 E0 F1200 
G1 X70.30 Y55.00 Z42.00 E0 F1200 
G1 X70.00 Y54.70 Z42.00 E0 F1200 
G1 X70.00 Y55.30 Z42.00 E0 F1200 
G1 X70.00 Y54.70 Z42.00 E0 F1200 
G1 X70.00 Y55.30 Z42.00 E0 F1200 
G1 X70.00 Y54.70 Z42.00 E0 F1200 
G1 X70.00 Y55.30 Z42.00 E0 F1200 
G1 X70.00 Y54.70 Z42.00 E0 F1200 
G1 X70.00 Y55.30 Z42.00 E0 F1200 
G1 X70.00 Y54.70 Z42.00 E0 F1200 
G1 X70.00 Y55.30 Z42.00 E0 F1200 
G1 X70.00 Y54.70 Z42.00 E0 F1200 
G1 X70.00 Y55.30 Z42.00 E0 F1200 
G1 X70.00 Y54.70 Z42.00 E0 F1200 
G1 X70.00 Y55.30 Z42.00 E0 F1200 
G1 X70.00 Y54.70 Z42.00 E0 F1200 
G1 X70.00 Y55.30 Z42.00 E0 F1200 
G1 X70.00 Y54.70 Z42.00 E0 F1200 
G1 X70.00 Y55.30 Z42.00 E0 F1200 
G1 X70.00 Y54.70 Z42.00 E0 F1200 
G1 X70.00 Y55.30 Z42.00 E0 F1200 
G1 X70.00 Y54.70 Z42.00 E0 F1200 
G1 X70.00 Y55.30 Z42.00 E0 F1200 
G1 X70.00 Y54.70 Z42.00 E0 F1200 
G1 X70.00 Y55.30 Z42.00 E0 F1200 
G1 X70.00 Y54.70 Z42.00 E0 F1200 
G1 X70.00 Y55.30 Z42.00 E0 F1200 
G1 X70.00 Y54.70 Z42.00 E0 F1200 
G1 X70.00 Y55.30 Z42.00 E0 F1200 
G1 X70.00 Y54.70 Z42.00 E0 F1200 
G1 X70.00 Y55.30 Z42.00 E0 F1200 
G1 X70.00 Y54.70 Z42.00 E0 F1200 
G1 X70.00 Y55.30 Z42.00 E0 F1200 
G1 X70.00 Y54.70 Z42.00 E0 F1200 
G1 X70.00 Y55.30 Z42.00 E0 F1200 
G1 X70.00 Y54.70 Z42.00 E0 F1200 
G1 X70.00 Y55.30 Z42.00 E0 F1200 
G1 X70.00 Y54.70 Z42.00 E0 F1200 
G1 X70.00 Y55.30 Z42.00 E0 F1200 
G1 X70.00 Y54.70 Z42.00 E0 F1200 
G1 X70.00 Y55.30 Z42.00 E0 F1200 
G1 X70.00 Y54.70 Z42.00 E0 F1200 
G1 X70.00 Y55.30 Z42.00 E0 F1200 
G1 X70.00 Y54.70 Z42.00 E0 F1200 
G1 X70.00 Y55.30 Z42.00 E0 F1200 
G1 X70.00 Y54.70 Z42.00 E0 F1200 
G1 X70.00 Y55.30 Z42.00 E0 F1200 
G1 X70.00 Y54.70 Z42.00 E0 F1200 
G1 X70.00 Y55.30 Z42.00 E0 F1200 
G1 X70.00 Y54.70 Z42.00 E0 F1200 
G1 X70.00 Y55.30 Z42.00 E0 F1200 
G1 X70.00 Y54.70 Z42.00 E0 F1200 
G1 X70.00 Y55.30 Z42.00 E0 F1200 
G1 X70.00 Y54.70 Z42.00 E0 F1200 
G1 X70.00 Y55.30 Z42.00 E0 F1200 
G1 X70.00 Y54.70 Z42.00 E0 F1200 
G1 X70.00 Y55.30 Z42.00 E0 F1200 
G1 X70.00 Y54.70 Z42.00 E0 F1200 
G1 X70.00 Y55.30 Z42.00 E0 F1200 
G1 X70.00 Y54.70 Z42.00 E0 F1200 
G1 X70.00 Y55.30 Z42.00 E0 F1200 
G1 X70.00 Y54.70 Z42.00 E0 F1200 
G1 X70.00 Y55.30 Z42.00 E0 F1200 
G1 X70.00 Y54.70 Z42.00 E0 F1200 
G1 X70.00 Y55.30 Z42.00 E0 F1200 
G1 X70.00 Y54.70 Z42.00 E0 F1200 
G1 X70.00 Y55.30 Z42.00 E0 F1200 
G1 X70.00 Y54.70 Z42.00 E0 F1200 
G1 X70.00 Y55.30 Z42.00 E0 F1200 
G1 X70.00 Y54.70 Z42.00 E0 F1200 
G1 X70.00 Y55.30 Z42.00 E0 F1200 
G1 X70.00 Y54.70 Z42.00 E0 F1200 
G1 X70.00 Y55.30 Z42.00 E0 F1200 
G1 X70.00 Y54.70 Z42.00 E0 F1200 
G1 X70.00 Y55.30 Z42.00 E0 F1200 
G1 X70.00 Y54.70 Z42.00 E0 F1200 
G1 X70.00 Y55.30 Z42.00 E0 F1200 
G1 X70.00 Y54.70 Z42.00 E0 F1200 
G1 X70.00 Y55.30 Z42.00 E0 F1200 
G1 X70.00 Y54.70 Z42.00 E0 F1200 
G1 X70.00 Y55.30 Z42.00 E0 F1200 
G1 X70.00 Y54.70 Z42.00 E0 F1200 
G1 X70.00 Y55.30 Z42.00 E0 F1200 
G1 X70.00 Y54.70 Z42.00 E0 F1200 
G1 X70.00 Y55.30 Z42.00 E0 F1200 
G1 X70.00 Y54.70 Z42.00 E0 F1200 
G1 X70.00 Y55.30 Z42.00 E0 F1200 
G1 X70.00 Y54.70 Z42.00 E0 F1200 
G1 X70.00 Y55.30 Z42.00 E0 F1200 
G1 X70.00 Y54.70 Z42.00 E0 F1200 
G1 X70.00 Y55.30 Z42.00 E0 F1200 
G1 X70.00 Y54.70 Z42.00 E0 F1200 
G1 X70.00 Y55.30 Z42.00 E0 F1200 
G1 X70.00 Y54.70 Z42.00 E0 F1200 
G1 X70.00 Y55.30 Z42.00 E0 F1200 
G1 X70.00 Y54.70 Z42.00 E0 F1200 
G1 X70.00 Y55.30 Z42.00 E0 F1200 
G1 X70.00 Y54.70 Z42.00 E0 F1200 
G1 X70.00 Y55.30 Z42.00 E0 F1200 
G1 X70.00 Y54.70 Z42.00 E0 F1200 
G1 X70.00 Y55.30 Z42.00 E0 F1200 
G1 X69.70 Y55.00 Z42.00 E0 F1200 
G1 X70.30 Y55.00 Z42.00 E0 F1200 
G1 X69.70 Y55.00 Z42.00 E0 F1200 
G1 X70.30 Y55.00 Z42.00 E0 F1200 
G1 X69.70 Y55.00 Z42.00 E0 F1200 
G1 X70.30 Y55.00 Z42.00 E0 F1200 
G1 X69.70 Y55.00 Z42.00 E0 F1200 
G1 X70.30 Y55.00 Z42.00 E0 F1200 
G1 X69.70 Y55.00 Z42.00 E0 F1200 
G1 X70.30 Y55.00 Z42.00 E0 F1200 
G1 X69.70 Y55.00 Z42.00 E0 F1200 
G1 X70.30 Y55.00 Z42.00 E0 F1200 
G1 X69.70 Y55.00 Z42.00 E0 F1200 
G1 X70.30 Y55.00 Z42.00 E0 F1200 
G1 X69.70 Y55.00 Z42.00 E0 F1200 
G1 X70.30 Y55.00 Z42.00 E0 F1200 
G1 X69.70 Y55.00 Z42.00 E0 F1200 
G1 X70.30 Y55.00 Z42.00 E0 F1200 
G1 X69.70 Y55.00 Z42.00 E0 F1200 
G1 X70.30 Y55.00 Z42.00 E0 F1200 
G1 X69.70 Y55.00 Z42.00 E0 F1200 
G1 X70.30 Y55.00 Z42.00 E0 F1200 
G1 X69.70 Y55.00 Z42.00 E0 F1200 
G1 X70.30 Y55.00 Z42.00 E0 F1200 
G1 X69.70 Y55.00 Z42.00 E0 F1200 
G1 X70.30 Y55.00 Z42.00 E0 F1200 
G1 X69.70 Y55.00 Z42.00 E0 F1200 
G1 X70.30 Y55.00 Z42.00 E0 F1200 
G1 X69.70 Y55.00 Z42.00 E0 F1200 
G1 X70.30 Y55.00 Z42.00 E0 F1200 
G1 X69.70 Y55.00 Z42.00 E0 F1200 
G1 X70.30 Y55.00 Z42.00 E0 F1200 
G1 X69.70 Y55.00 Z42.00 E0 F1200 
G1 X70.30 Y55.00 Z42.00 E0 F1200 
G1 X69.70 Y55.00 Z42.00 E0 F1200 
G1 X70.30 Y55.00 Z42.00 E0 F1200 
G1 X69.70 Y55.00 Z42.00 E0 F1200 
G1 X70.30 Y55.00 Z42.00 E0 F1200 
G1 X69.70 Y55.00 Z42.00 E0 F1200 
G1 X70.30 Y55.00 Z42.00 E0 F1200 
G1 X69.70 Y55.00 Z42.00 E0 F1200 
G1 X70.30 Y55.00 Z42.00 E0 F1200 
G1 X69.70 Y55.00 Z42.00 E0 F1200 
G1 X70.30 Y55.00 Z42.00 E0 F1200 
G1 X69.70 Y55.00 Z42.00 E0 F1200 
G1 X70.30 Y55.00 Z42.00 E0 F1200 
G1 X69.70 Y55.00 Z42.00 E0 F1200 
G1 X70.30 Y55.00 Z42.00 E0 F1200 
G1 X69.70 Y55.00 Z42.00 E0 F1200 
G1 X70.30 Y55.00 Z42.00 E0 F1200 
G1 X69.70 Y55.00 Z42.00 E0 F1200 
G1 X70.30 Y55.00 Z42.00 E0 F1200 
G1 X69.70 Y55.00 Z42.00 E0 F1200 
G1 X70.30 Y55.00 Z42.00 E0 F1200 
G1 X69.70 Y55.00 Z42.00 E0 F1200 
G1 X70.30 Y55.00 Z42.00 E0 F1200 
G1 X69.70 Y55.00 Z42.00 E0 F1200 
G1 X70.30 Y55.00 Z42.00 E0 F1200 
G1 X69.70 Y55.00 Z42.00 E0 F1200 
G1 X70.30 Y55.00 Z42.00 E0 F1200 
G1 X69.70 Y55.00 Z42.00 E0 F1200 
G1 X70.30 Y55.00 Z42.00 E0 F1200 
G1 X69.70 Y55.00 Z42.00 E0 F1200 
G1 X70.30 Y55.00 Z42.00 E0 F1200 
G1 X69.70 Y55.00 Z42.00 E0 F1200 
G1 X70.30 Y55.00 Z42.00 E0 F1200 
G1 X69.70 Y55.00 Z42.00 E0 F1200 
G1 X70.30 Y55.00 Z42.00 E0 F1200 
G1 X69.70 Y55.00 Z42.00 E0 F1200 
G1 X70.30 Y55.00 Z42.00 E0 F1200 
G1 X69.70 Y55.00 Z42.00 E0 F1200 
G1 X70.30 Y55.00 Z42.00 E0 F1200 
G1 X69.70 Y55.00 Z42.00 E0 F1200 
G1 X70.30 Y55.00 Z42.00 E0 F1200 
G1 X69.70 Y55.00 Z42.00 E0 F1200 
G1 X70.30 Y55.00 Z42.00 E0 F1200 
G1 X69.70 Y55.00 Z42.00 E0 F1200 
G1 X70.30 Y55.00 Z42.00 E0 F1200 
G1 X69.70 Y55.00 Z42.00 E0 F1200 
G1 X70.30 Y55.00 Z42.00 E0 F1200 
G1 X69.70 Y55.00 Z42.00 E0 F1200 
G1 X70.30 Y55.00 Z42.00 E0 F1200 
G1 X69.70 Y55.00 Z42.00 E0 F1200 
G1 X70.30 Y55.00 Z42.00 E0 F1200 
G1 X69.70 Y55.00 Z42.00 E0 F1200 
G1 X70.30 Y55.00 Z42.00 E0 F1200 
G1 X69.70 Y55.00 Z42.00 E0 F1200 
G1 X70.30 Y55.00 Z42.00 E0 F1200 
G1 X69.70 Y55.00 Z42.00 E0 F1200 
G1 X70.30 Y55.00 Z42.00 E0 F1200 
G1 X69.70 Y55.00 Z42.00 E0 F1200 
G1 X70.30 Y55.00 Z42.00 E0 F1200 
G1 X69.70 Y55.00 Z42.00 E0 F1200 
G1 X70.30 Y55.00 Z42.00 E0 F1200 
G1 X69.70 Y55.00 Z42.00 E0 F1200 
G1 X70.30 Y55.00 Z42.00 E0 F1200 
G1 X69.70 Y55.00 Z42.00 E0 F1200 
G1 X70.30 Y55.00 Z42.00 E0 F1200 
G1 X69.70 Y55.00 Z42.00 E0 F1200 
G1 X70.30 Y55.00 Z42.00 E0 F1200 
G1 X70.00 Y54.70 Z42.00 E0 F1200 
G1 X70.00 Y55.30 Z42.00 E0 F1200 
G1 X70.00 Y54.70 Z42.00 E0 F1200 
G1 X70.00 Y55.30 Z42.00 E0 F1200 
G1 X70.00 Y54.70 Z42.00 E0 F1200 
G1 X70.00 Y55.30 Z42.00 E0 F1200 
G1 X70.00 Y54.70 Z42.00 E0 F1200 
G1 X70.00 Y55.30 Z42.00 E0 F1200 
G1 X70.00 Y54.70 Z42.00 E0 F1200 
G1 X70.00 Y55.30 Z42.00 E0 F1200 
G1 X70.00 Y54.70 Z42.00 E0 F1200 
G1 X70.00 Y55.30 Z42.00 E0 F1200 
G1 X70.00 Y54.70 Z42.00 E0 F1200 
G1 X70.00 Y55.30 Z42.00 E0 F1200 
G1 X70.00 Y54.70 Z42.00 E0 F1200 
G1 X70.00 Y55.30 Z42.00 E0 F1200 
G1 X70.00 Y54.70 Z42.00 E0 F1200 
G1 X70.00 Y55.30 Z42.00 E0 F1200 
G1 X70.00 Y54.70 Z42.00 E0 F1200 
G1 X70.00 Y55.30 Z42.00 E0 F1200 
G1 X70.00 Y54.70 Z42.00 E0 F1200 
G1 X70.00 Y55.30 Z42.00 E0 F1200 
G1 X70.00 Y54.70 Z42.00 E0 F1200 
G1 X70.00 Y55.30 Z42.00 E0 F1200 
G1 X70.00 Y54.70 Z42.00 E0 F1200 
G1 X70.00 Y55.30 Z42.00 E0 F1200 
G1 X70.00 Y54.70 Z42.00 E0 F1200 
G1 X70.00 Y55.30 Z42.00 E0 F1200 
G1 X70.00 Y54.70 Z42.00 E0 F1200 
G1 X70.00 Y55.30 Z42.00 E0 F1200 
G1 X70.00 Y54.70 Z42.00 E0 F1200 
G1 X70.00 Y55.30 Z42.00 E0 F1200 
G1 X70.00 Y54.70 Z42.00 E0 F1200 
G1 X70.00 Y55.30 Z42.00 E0 F1200 
G1 X70.00 Y54.70 Z42.00 E0 F1200 
G1 X70.00 Y55.30 Z42.00 E0 F1200 
G1 X70.00 Y54.70 Z42.00 E0 F1200 
G1 X70.00 Y55.30 Z42.00 E0 F1200 
G1 X70.00 Y54.70 Z42.00 E0 F1200 
G1 X70.00 Y55.30 Z42.00 E0 F1200 
G1 X70.00 Y54.70 Z42.00 E0 F1200 
G1 X70.00 Y55.30 Z42.00 E0 F1200 
G1 X70.00 Y54.70 Z42.00 E0 F1200 
G1 X70.00 Y55.30 Z42.00 E0 F1200 
G1 X70.00 Y54.70 Z42.00 E0 F1200 
G1 X70.00 Y55.30 Z42.00 E0 F1200 
G1 X70.00 Y54.70 Z42.00 E0 F1200 
G1 X70.00 Y55.30 Z42.00 E0 F1200 
G1 X70.00 Y54.70 Z42.00 E0 F1200 
G1 X70.00 Y55.30 Z42.00 E0 F1200 
G1 X70.00 Y54.70 Z42.00 E0 F1200 
G1 X70.00 Y55.30 Z42.00 E0 F1200 
G1 X70.00 Y54.70 Z42.00 E0 F1200 
G1 X70.00 Y55.30 Z42.00 E0 F1200 
G1 X70.00 Y54.70 Z42.00 E0 F1200 
G1 X70.00 Y55.30 Z42.00 E0 F1200 
G1 X70.00 Y54.70 Z42.00 E0 F1200 
G1 X70.00 Y55.30 Z42.00 E0 F1200 
G1 X70.00 Y54.70 Z42.00 E0 F1200 
G1 X70.00 Y55.30 Z42.00 E0 F1200 
G1 X70.00 Y54.70 Z42.00 E0 F1200 
G1 X70.00 Y55.30 Z42.00 E0 F1200 
G1 X70.00 Y54.70 Z42.00 E0 F1200 
G1 X70.00 Y55.30 Z42.00 E0 F1200 
G1 X70.00 Y54.70 Z42.00 E0 F1200 
G1 X70.00 Y55.30 Z42.00 E0 F1200 
G1 X70.00 Y54.70 Z42.00 E0 F1200 
G1 X70.00 Y55.30 Z42.00 E0 F1200 
G1 X70.00 Y54.70 Z42.00 E0 F1200 
G1 X70.00 Y55.30 Z42.00 E0 F1200 
G1 X70.00 Y54.70 Z42.00 E0 F1200 
G1 X70.00 Y55.30 Z42.00 E0 F1200 
G1 X70.00 Y54.70 Z42.00 E0 F1200 
G1 X70.00 Y55.30 Z42.00 E0 F1200 
G1 X70.00 Y54.70 Z42.00 E0 F1200 
G1 X70.00 Y55.30 Z42.00 E0 F1200 
G1 X70.00 Y54.70 Z42.00 E0 F1200 
G1 X70.00 Y55.30 Z42.00 E0 F1200 
G1 X70.00 Y54.70 Z42.00 E0 F1200 
G1 X70.00 Y55.30 Z42.00 E0 F1200 
G1 X70.00 Y54.70 Z42.00 E0 F1200 
G1 X70.00 Y55.30 Z42.00 E0 F1200 
G1 X70.00 Y54.70 Z42.00 E0 F1200 
G1 X70.00 Y55.30 Z42.00 E0 F1200 
G1 X70.00 Y54.70 Z42.00 E0 F1200 
G1 X70.00 Y55.30 Z42.00 E0 F1200 
G1 X70.00 Y54.70 Z42.00 E0 F1200 
G1 X70.00 Y55.30 Z42.00 E0 F1200 
G1 X70.00 Y54.70 Z42.00 E0 F1200 
G1 X70.00 Y55.30 Z42.00 E0 F1200 
G1 X70.00 Y54.70 Z42.00 E0 F1200 
G1 X70.00 Y55.30 Z42.00 E0 F1200 
G1 X70.00 Y54.70 Z42.00 E0 F1200 
G1 X70.00 Y55.30 Z42.00 E0 F1200 
G1 X70.00 Y54.70 Z42.00 E0 F1200 
G1 X70.00 Y55.30 Z42.00 E0 F1200 
G1 X70.00 Y54.70 Z42.00 E0 F1200 
G1 X70.00 Y55.30 Z42.00 E0 F1200 
G1 X70.00 Y54.70 Z42.00 E0 F1200 
G1 X70.00 Y55.30 Z42.00 E0 F1200 
G1 X69.70 Y55.00 Z42.00 E0 F1200 
G1 X70.30 Y55.00 Z42.00 E0 F1200 
G1 X69.70 Y55.00 Z42.00 E0 F1200 
G1 X70.30 Y55.00 Z42.00 E0 F1200 
G1 X69.70 Y55.00 Z42.00 E0 F1200 
G1 X70.30 Y55.00 Z42.00 E0 F1200 
G1 X69.70 Y55.00 Z42.00 E0 F1200 
G1 X70.30 Y55.00 Z42.00 E0 F1200 
G1 X69.70 Y55.00 Z42.00 E0 F1200 
G1 X70.30 Y55.00 Z42.00 E0 F1200 
G1 X69.70 Y55.00 Z42.00 E0 F1200 
G1 X70.30 Y55.00 Z42.00 E0 F1200 
G1 X69.70 Y55.00 Z42.00 E0 F1200 
G1 X70.30 Y55.00 Z42.00 E0 F1200 
G1 X69.70 Y55.00 Z42.00 E0 F1200 
G1 X70.30 Y55.00 Z42.00 E0 F1200 
G1 X69.70 Y55.00 Z42.00 E0 F1200 
G1 X70.30 Y55.00 Z42.00 E0 F1200 
G1 X69.70 Y55.00 Z42.00 E0 F1200 
G1 X70.30 Y55.00 Z42.00 E0 F1200 
G1 X69.70 Y55.00 Z42.00 E0 F1200 
G1 X70.30 Y55.00 Z42.00 E0 F1200 
G1 X69.70 Y55.00 Z42.00 E0 F1200 
G1 X70.30 Y55.00 Z42.00 E0 F1200 
G1 X69.70 Y55.00 Z42.00 E0 F1200 
G1 X70.30 Y55.00 Z42.00 E0 F1200 
G1 X69.70 Y55.00 Z42.00 E0 F1200 
G1 X70.30 Y55.00 Z42.00 E0 F1200 
G1 X69.70 Y55.00 Z42.00 E0 F1200 
G1 X70.30 Y55.00 Z42.00 E0 F1200 
G1 X69.70 Y55.00 Z42.00 E0 F1200 
G1 X70.30 Y55.00 Z42.00 E0 F1200 
G1 X69.70 Y55.00 Z42.00 E0 F1200 
G1 X70.30 Y55.00 Z42.00 E0 F1200 
G1 X69.70 Y55.00 Z42.00 E0 F1200 
G1 X70.30 Y55.00 Z42.00 E0 F1200 
G1 X69.70 Y55.00 Z42.00 E0 F1200 
G1 X70.30 Y55.00 Z42.00 E0 F1200 
G1 X69.70 Y55.00 Z42.00 E0 F1200 
G1 X70.30 Y55.00 Z42.00 E0 F1200 
G1 X69.70 Y55.00 Z42.00 E0 F1200 
G1 X70.30 Y55.00 Z42.00 E0 F1200 
G1 X69.70 Y55.00 Z42.00 E0 F1200 
G1 X70.30 Y55.00 Z42.00 E0 F1200 
G1 X69.70 Y55.00 Z42.00 E0 F1200 
G1 X70.30 Y55.00 Z42.00 E0 F1200 
G1 X69.70 Y55.00 Z42.00 E0 F1200 
G1 X70.30 Y55.00 Z42.00 E0 F1200 
G1 X69.70 Y55.00 Z42.00 E0 F1200 
G1 X70.30 Y55.00 Z42.00 E0 F1200 
G1 X69.70 Y55.00 Z42.00 E0 F1200 
G1 X70.30 Y55.00 Z42.00 E0 F1200 
G1 X69.70 Y55.00 Z42.00 E0 F1200 
G1 X70.30 Y55.00 Z42.00 E0 F1200 
G1 X69.70 Y55.00 Z42.00 E0 F1200 
G1 X70.30 Y55.00 Z42.00 E0 F1200 
G1 X69.70 Y55.00 Z42.00 E0 F1200 
G1 X70.30 Y55.00 Z42.00 E0 F1200 
G1 X69.70 Y55.00 Z42.00 E0 F1200 
G1 X70.30 Y55.00 Z42.00 E0 F1200 
G1 X69.70 Y55.00 Z42.00 E0 F1200 
G1 X70.30 Y55.00 Z42.00 E0 F1200 
G1 X69.70 Y55.00 Z42.00 E0 F1200 
G1 X70.30 Y55.00 Z42.00 E0 F1200 
G1 X69.70 Y55.00 Z42.00 E0 F1200 
G1 X70.30 Y55.00 Z42.00 E0 F1200 
G1 X69.70 Y55.00 Z42.00 E0 F1200 
G1 X70.30 Y55.00 Z42.00 E0 F1200 
G1 X69.70 Y55.00 Z42.00 E0 F1200 
G1 X70.30 Y55.00 Z42.00 E0 F1200 
G1 X69.70 Y55.00 Z42.00 E0 F1200 
G1 X70.30 Y55.00 Z42.00 E0 F1200 
G1 X69.70 Y55.00 Z42.00 E0 F1200 
G1 X70.30 Y55.00 Z42.00 E0 F1200 
G1 X69.70 Y55.00 Z42.00 E0 F1200 
G1 X70.30 Y55.00 Z42.00 E0 F1200 
G1 X69.70 Y55.00 Z42.00 E0 F1200 
G1 X70.30 Y55.00 Z42.00 E0 F1200 
G1 X69.70 Y55.00 Z42.00 E0 F1200 
G1 X70.30 Y55.00 Z42.00 E0 F1200 
G1 X69.70 Y55.00 Z42.00 E0 F1200 
G1 X70.30 Y55.00 Z42.00 E0 F1200 
G1 X69.70 Y55.00 Z42.00 E0 F1200 
G1 X70.30 Y55.00 Z42.00 E0 F1200 
G1 X69.70 Y55.00 Z42.00 E0 F1200 
G1 X70.30 Y55.00 Z42.00 E0 F1200 
G1 X69.70 Y55.00 Z42.00 E0 F1200 
G1 X70.30 Y55.00 Z42.00 E0 F1200 
G1 X69.70 Y55.00 Z42.00 E0 F1200 
G1 X70.30 Y55.00 Z42.00 E0 F1200 
G1 X69.70 Y55.00 Z42.00 E0 F1200 
G1 X70.30 Y55.00 Z42.00 E0 F1200 
G1 X69.70 Y55.00 Z42.00 E0 F1200 
G1 X70.30 Y55.00 Z42.00 E0 F1200 
G1 X69.70 Y55.00 Z42.00 E0 F1200 
G1 X70.30 Y55.00 Z42.00 E0 F1200 
G1 X69.70 Y55.00 Z42.00 E0 F1200 
G1 X70.30 Y55.00 Z42.00 E0 F1200 
G1 X69.70 Y55.00 Z42.00 E0 F1200 
G1 X70.30 Y55.00 Z42.00 E0 F1200 
G1 X70.00 Y54.70 Z42.00 E0 F1200 
G1 X70.00 Y55.30 Z42.00 E0 F1200 
G1 X70.00 Y54.70 Z42.00 E0 F1200 
G1 X70.00 Y55.30 Z42.00 E0 F1200 
G1 X70.00 Y54.70 Z42.00 E0 F1200 
G1 X70.00 Y55.30 Z42.00 E0 F1200 
G1 X70.00 Y54.70 Z42.00 E0 F1200 
G1 X70.00 Y55.30 Z42.00 E0 F1200 
G1 X70.00 Y54.70 Z42.00 E0 F1200 
G1 X70.00 Y55.30 Z42.00 E0 F1200 
G1 X70.00 Y54.70 Z42.00 E0 F1200 
G1 X70.00 Y55.30 Z42.00 E0 F1200 
G1 X70.00 Y54.70 Z42.00 E0 F1200 
G1 X70.00 Y55.30 Z42.00 E0 F1200 
G1 X70.00 Y54.70 Z42.00 E0 F1200 
G1 X70.00 Y55.30 Z42.00 E0 F1200 
G1 X70.00 Y54.70 Z42.00 E0 F1200 
G1 X70.00 Y55.30 Z42.00 E0 F1200 
G1 X70.00 Y54.70 Z42.00 E0 F1200 
G1 X70.00 Y55.30 Z42.00 E0 F1200 
G1 X70.00 Y54.70 Z42.00 E0 F1200 
G1 X70.00 Y55.30 Z42.00 E0 F1200 
G1 X70.00 Y54.70 Z42.00 E0 F1200 
G1 X70.00 Y55.30 Z42.00 E0 F1200 
G1 X70.00 Y54.70 Z42.00 E0 F1200 
G1 X70.00 Y55.30 Z42.00 E0 F1200 
G1 X70.00 Y54.70 Z42.00 E0 F1200 
G1 X70.00 Y55.30 Z42.00 E0 F1200 
G1 X70.00 Y54.70 Z42.00 E0 F1200 
G1 X70.00 Y55.30 Z42.00 E0 F1200 
G1 X70.00 Y54.70 Z42.00 E0 F1200 
G1 X70.00 Y55.30 Z42.00 E0 F1200 
G1 X70.00 Y54.70 Z42.00 E0 F1200 
G1 X70.00 Y55.30 Z42.00 E0 F1200 
G1 X70.00 Y54.70 Z42.00 E0 F1200 
G1 X70.00 Y55.30 Z42.00 E0 F1200 
G1 X70.00 Y54.70 Z42.00 E0 F1200 
G1 X70.00 Y55.30 Z42.00 E0 F1200 
G1 X70.00 Y54.70 Z42.00 E0 F1200 
G1 X70.00 Y55.30 Z42.00 E0 F1200 
G1 X70.00 Y54.70 Z42.00 E0 F1200 
G1 X70.00 Y55.30 Z42.00 E0 F1200 
G1 X70.00 Y54.70 Z42.00 E0 F1200 
G1 X70.00 Y55.30 Z42.00 E0 F1200 
G1 X70.00 Y54.70 Z42.00 E0 F1200 
G1 X70.00 Y55.30 Z42.00 E0 F1200 
G1 X70.00 Y54.70 Z42.00 E0 F1200 
G1 X70.00 Y55.30 Z42.00 E0 F1200 
G1 X70.00 Y54.70 Z42.00 E0 F1200 
G1 X70.00 Y55.30 Z42.00 E0 F1200 
G1 X70.00 Y54.70 Z42.00 E0 F1200 
G1 X70.00 Y55.30 Z42.00 E0 F1200 
G1 X70.00 Y54.70 Z42.00 E0 F1200 
G1 X70.00 Y55.30 Z42.00 E0 F1200 
G1 X70.00 Y54.70 Z42.00 E0 F1200 
G1 X70.00 Y55.30 Z42.00 E0 F1200 
G1 X70.00 Y54.70 Z42.00 E0 F1200 
G1 X70.00 Y55.30 Z42.00 E0 F1200 
G1 X70.00 Y54.70 Z42.00 E0 F1200 
G1 X70.00 Y55.30 Z42.00 E0 F1200 
G1 X70.00 Y54.70 Z42.00 E0 F1200 
G1 X70.00 Y55.30 Z42.00 E0 F1200 
G1 X70.00 Y54.70 Z42.00 E0 F1200 
G1 X70.00 Y55.30 Z42.00 E0 F1200 
G1 X70.00 Y54.70 Z42.00 E0 F1200 
G1 X70.00 Y55.30 Z42.00 E0 F1200 
G1 X70.00 Y54.70 Z42.00 E0 F1200 
G1 X70.00 Y55.30 Z42.00 E0 F1200 
G1 X70.00 Y54.70 Z42.00 E0 F1200 
G1 X70.00 Y55.30 Z42.00 E0 F1200 
G1 X70.00 Y54.70 Z42.00 E0 F1200 
G1 X70.00 Y55.30 Z42.00 E0 F1200 
G1 X70.00 Y54.70 Z42.00 E0 F1200 
G1 X70.00 Y55.30 Z42.00 E0 F1200 
G1 X70.00 Y54.70 Z42.00 E0 F1200 
G1 X70.00 Y55.30 Z42.00 E0 F1200 
G1 X70.00 Y54.70 Z42.00 E0 F1200 
G1 X70.00 Y55.30 Z42.00 E0 F1200 
G1 X70.00 Y54.70 Z42.00 E0 F1200 
G1 X70.00 Y55.30 Z42.00 E0 F1200 
G1 X70.00 Y54.70 Z42.00 E0 F1200 
G1 X70.00 Y55.30 Z42.00 E0 F1200 
G1 X70.00 Y54.70 Z42.00 E0 F1200 
G1 X70.00 Y55.30 Z42.00 E0 F1200 
G1 X70.00 Y54.70 Z42.00 E0 F1200 
G1 X70.00 Y55.30 Z42.00 E0 F1200 
G1 X70.00 Y54.70 Z42.00 E0 F1200 
G1 X70.00 Y55.30 Z42.00 E0 F1200 
G1 X70.00 Y54.70 Z42.00 E0 F1200 
G1 X70.00 Y55.30 Z42.00 E0 F1200 
G1 X70.00 Y54.70 Z42.00 E0 F1200 
G1 X70.00 Y55.30 Z42.00 E0 F1200 
G1 X70.00 Y54.70 Z42.00 E0 F1200 
G1 X70.00 Y55.30 Z42.00 E0 F1200 
G1 X70.00 Y54.70 Z42.00 E0 F1200 
G1 X70.00 Y55.30 Z42.00 E0 F1200 
G1 X70.00 Y54.70 Z42.00 E0 F1200 
G1 X70.00 Y55.30 Z42.00 E0 F1200 
G1 X70.00 Y54.70 Z42.00 E0 F1200 
G1 X70.00 Y55.30 Z42.00 E0 F1200 
G1 X69.70 Y55.00 Z42.00 E0 F1200 
G1 X70.30 Y55.00 Z42.00 E0 F1200 
G1 X69.70 Y55.00 Z42.00 E0 F1200 
G1 X70.30 Y55.00 Z42.00 E0 F1200 
G1 X69.70 Y55.00 Z42.00 E0 F1200 
G1 X70.30 Y55.00 Z42.00 E0 F1200 
G1 X69.70 Y55.00 Z42.00 E0 F1200 
G1 X70.30 Y55.00 Z42.00 E0 F1200 
G1 X69.70 Y55.00 Z42.00 E0 F1200 
G1 X70.30 Y55.00 Z42.00 E0 F1200 
G1 X69.70 Y55.00 Z42.00 E0 F1200 
G1 X70.30 Y55.00 Z42.00 E0 F1200 
G1 X69.70 Y55.00 Z42.00 E0 F1200 
G1 X70.30 Y55.00 Z42.00 E0 F1200 
G1 X69.70 Y55.00 Z42.00 E0 F1200 
G1 X70.30 Y55.00 Z42.00 E0 F1200 
G1 X69.70 Y55.00 Z42.00 E0 F1200 
G1 X70.30 Y55.00 Z42.00 E0 F1200 
G1 X69.70 Y55.00 Z42.00 E0 F1200 
G1 X70.30 Y55.00 Z42.00 E0 F1200 
G1 X69.70 Y55.00 Z42.00 E0 F1200 
G1 X70.30 Y55.00 Z42.00 E0 F1200 
G1 X69.70 Y55.00 Z42.00 E0 F1200 
G1 X70.30 Y55.00 Z42.00 E0 F1200 
G1 X69.70 Y55.00 Z42.00 E0 F1200 
G1 X70.30 Y55.00 Z42.00 E0 F1200 
G1 X69.70 Y55.00 Z42.00 E0 F1200 
G1 X70.30 Y55.00 Z42.00 E0 F1200 
G1 X69.70 Y55.00 Z42.00 E0 F1200 
G1 X70.30 Y55.00 Z42.00 E0 F1200 
G1 X69.70 Y55.00 Z42.00 E0 F1200 
G1 X70.30 Y55.00 Z42.00 E0 F1200 
G1 X69.70 Y55.00 Z42.00 E0 F1200 
G1 X70.30 Y55.00 Z42.00 E0 F1200 
G1 X69.70 Y55.00 Z42.00 E0 F1200 
G1 X70.30 Y55.00 Z42.00 E0 F1200 
G1 X69.70 Y55.00 Z42.00 E0 F1200 
G1 X70.30 Y55.00 Z42.00 E0 F1200 
G1 X69.70 Y55.00 Z42.00 E0 F1200 
G1 X70.30 Y55.00 Z42.00 E0 F1200 
G1 X69.70 Y55.00 Z42.00 E0 F1200 
G1 X70.30 Y55.00 Z42.00 E0 F1200 
G1 X69.70 Y55.00 Z42.00 E0 F1200 
G1 X70.30 Y55.00 Z42.00 E0 F1200 
G1 X69.70 Y55.00 Z42.00 E0 F1200 
G1 X70.30 Y55.00 Z42.00 E0 F1200 
G1 X69.70 Y55.00 Z42.00 E0 F1200 
G1 X70.30 Y55.00 Z42.00 E0 F1200 
G1 X69.70 Y55.00 Z42.00 E0 F1200 
G1 X70.30 Y55.00 Z42.00 E0 F1200 
G1 X69.70 Y55.00 Z42.00 E0 F1200 
G1 X70.30 Y55.00 Z42.00 E0 F1200 
G1 X69.70 Y55.00 Z42.00 E0 F1200 
G1 X70.30 Y55.00 Z42.00 E0 F1200 
G1 X69.70 Y55.00 Z42.00 E0 F1200 
G1 X70.30 Y55.00 Z42.00 E0 F1200 
G1 X69.70 Y55.00 Z42.00 E0 F1200 
G1 X70.30 Y55.00 Z42.00 E0 F1200 
G1 X69.70 Y55.00 Z42.00 E0 F1200 
G1 X70.30 Y55.00 Z42.00 E0 F1200 
G1 X69.70 Y55.00 Z42.00 E0 F1200 
G1 X70.30 Y55.00 Z42.00 E0 F1200 
G1 X69.70 Y55.00 Z42.00 E0 F1200 
G1 X70.30 Y55.00 Z42.00 E0 F1200 
G1 X69.70 Y55.00 Z42.00 E0 F1200 
G1 X70.30 Y55.00 Z42.00 E0 F1200 
G1 X69.70 Y55.00 Z42.00 E0 F1200 
G1 X70.30 Y55.00 Z42.00 E0 F1200 
G1 X69.70 Y55.00 Z42.00 E0 F1200 
G1 X70.30 Y55.00 Z42.00 E0 F1200 
G1 X69.70 Y55.00 Z42.00 E0 F1200 
G1 X70.30 Y55.00 Z42.00 E0 F1200 
G1 X69.70 Y55.00 Z42.00 E0 F1200 
G1 X70.30 Y55.00 Z42.00 E0 F1200 
G1 X69.70 Y55.00 Z42.00 E0 F1200 
G1 X70.30 Y55.00 Z42.00 E0 F1200 
G1 X69.70 Y55.00 Z42.00 E0 F1200 
G1 X70.30 Y55.00 Z42.00 E0 F1200 
G1 X69.70 Y55.00 Z42.00 E0 F1200 
G1 X70.30 Y55.00 Z42.00 E0 F1200 
G1 X69.70 Y55.00 Z42.00 E0 F1200 
G1 X70.30 Y55.00 Z42.00 E0 F1200 
G1 X69.70 Y55.00 Z42.00 E0 F1200 
G1 X70.30 Y55.00 Z42.00 E0 F1200 
G1 X69.70 Y55.00 Z42.00 E0 F1200 
G1 X70.30 Y55.00 Z42.00 E0 F1200 
G1 X69.70 Y55.00 Z42.00 E0 F1200 
G1 X70.30 Y55.00 Z42.00 E0 F1200 
G1 X69.70 Y55.00 Z42.00 E0 F1200 
G1 X70.30 Y55.00 Z42.00 E0 F1200 
G1 X69.70 Y55.00 Z42.00 E0 F1200 
G1 X70.30 Y55.00 Z42.00 E0 F1200 
G1 X69.70 Y55.00 Z42.00 E0 F1200 
G1 X70.30 Y55.00 Z42.00 E0 F1200 
G1 X69.70 Y55.00 Z42.00 E0 F1200 
G1 X70.30 Y55.00 Z42.00 E0 F1200 
G1 X69.70 Y55.00 Z42.00 E0 F1200 
G1 X70.30 Y55.00 Z42.00 E0 F1200 
G1 X69.70 Y55.00 Z42.00 E0 F1200 
G1 X70.30 Y55.00 Z42.00 E0 F1200 
G1 X70.00 Y54.70 Z42.00 E0 F1200 
G1 X70.00 Y55.30 Z42.00 E0 F1200 
G1 X70.00 Y54.70 Z42.00 E0 F1200 
G1 X70.00 Y55.30 Z42.00 E0 F1200 
G1 X70.00 Y54.70 Z42.00 E0 F1200 
G1 X70.00 Y55.30 Z42.00 E0 F1200 
G1 X70.00 Y54.70 Z42.00 E0 F1200 
G1 X70.00 Y55.30 Z42.00 E0 F1200 
G1 X70.00 Y54.70 Z42.00 E0 F1200 
G1 X70.00 Y55.30 Z42.00 E0 F1200 
G1 X70.00 Y54.70 Z42.00 E0 F1200 
G1 X70.00 Y55.30 Z42.00 E0 F1200 
G1 X70.00 Y54.70 Z42.00 E0 F1200 
G1 X70.00 Y55.30 Z42.00 E0 F1200 
G1 X70.00 Y54.70 Z42.00 E0 F1200 
G1 X70.00 Y55.30 Z42.00 E0 F1200 
G1 X70.00 Y54.70 Z42.00 E0 F1200 
G1 X70.00 Y55.30 Z42.00 E0 F1200 
G1 X70.00 Y54.70 Z42.00 E0 F1200 
G1 X70.00 Y55.30 Z42.00 E0 F1200 
G1 X70.00 Y54.70 Z42.00 E0 F1200 
G1 X70.00 Y55.30 Z42.00 E0 F1200 
G1 X70.00 Y54.70 Z42.00 E0 F1200 
G1 X70.00 Y55.30 Z42.00 E0 F1200 
G1 X70.00 Y54.70 Z42.00 E0 F1200 
G1 X70.00 Y55.30 Z42.00 E0 F1200 
G1 X70.00 Y54.70 Z42.00 E0 F1200 
G1 X70.00 Y55.30 Z42.00 E0 F1200 
G1 X70.00 Y54.70 Z42.00 E0 F1200 
G1 X70.00 Y55.30 Z42.00 E0 F1200 
G1 X70.00 Y54.70 Z42.00 E0 F1200 
G1 X70.00 Y55.30 Z42.00 E0 F1200 
G1 X70.00 Y54.70 Z42.00 E0 F1200 
G1 X70.00 Y55.30 Z42.00 E0 F1200 
G1 X70.00 Y54.70 Z42.00 E0 F1200 
G1 X70.00 Y55.30 Z42.00 E0 F1200 
G1 X70.00 Y54.70 Z42.00 E0 F1200 
G1 X70.00 Y55.30 Z42.00 E0 F1200 
G1 X70.00 Y54.70 Z42.00 E0 F1200 
G1 X70.00 Y55.30 Z42.00 E0 F1200 
G1 X70.00 Y54.70 Z42.00 E0 F1200 
G1 X70.00 Y55.30 Z42.00 E0 F1200 
G1 X70.00 Y54.70 Z42.00 E0 F1200 
G1 X70.00 Y55.30 Z42.00 E0 F1200 
G1 X70.00 Y54.70 Z42.00 E0 F1200 
G1 X70.00 Y55.30 Z42.00 E0 F1200 
G1 X70.00 Y54.70 Z42.00 E0 F1200 
G1 X70.00 Y55.30 Z42.00 E0 F1200 
G1 X70.00 Y54.70 Z42.00 E0 F1200 
G1 X70.00 Y55.30 Z42.00 E0 F1200 
G1 X70.00 Y54.70 Z42.00 E0 F1200 
G1 X70.00 Y55.30 Z42.00 E0 F1200 
G1 X70.00 Y54.70 Z42.00 E0 F1200 
G1 X70.00 Y55.30 Z42.00 E0 F1200 
G1 X70.00 Y54.70 Z42.00 E0 F1200 
G1 X70.00 Y55.30 Z42.00 E0 F1200 
G1 X70.00 Y54.70 Z42.00 E0 F1200 
G1 X70.00 Y55.30 Z42.00 E0 F1200 
G1 X70.00 Y54.70 Z42.00 E0 F1200 
G1 X70.00 Y55.30 Z42.00 E0 F1200 
G1 X70.00 Y54.70 Z42.00 E0 F1200 
G1 X70.00 Y55.30 Z42.00 E0 F1200 
G1 X70.00 Y54.70 Z42.00 E0 F1200 
G1 X70.00 Y55.30 Z42.00 E0 F1200 
G1 X70.00 Y54.70 Z42.00 E0 F1200 
G1 X70.00 Y55.30 Z42.00 E0 F1200 
G1 X70.00 Y54.70 Z42.00 E0 F1200 
G1 X70.00 Y55.30 Z42.00 E0 F1200 
G1 X70.00 Y54.70 Z42.00 E0 F1200 
G1 X70.00 Y55.30 Z42.00 E0 F1200 
G1 X70.00 Y54.70 Z42.00 E0 F1200 
G1 X70.00 Y55.30 Z42.00 E0 F1200 
G1 X70.00 Y54.70 Z42.00 E0 F1200 
G1 X70.00 Y55.30 Z42.00 E0 F1200 
G1 X70.00 Y54.70 Z42.00 E0 F1200 
G1 X70.00 Y55.30 Z42.00 E0 F1200 
G1 X70.00 Y54.70 Z42.00 E0 F1200 
G1 X70.00 Y55.30 Z42.00 E0 F1200 
G1 X70.00 Y54.70 Z42.00 E0 F1200 
G1 X70.00 Y55.30 Z42.00 E0 F1200 
G1 X70.00 Y54.70 Z42.00 E0 F1200 
G1 X70.00 Y55.30 Z42.00 E0 F1200 
G1 X70.00 Y54.70 Z42.00 E0 F1200 
G1 X70.00 Y55.30 Z42.00 E0 F1200 
G1 X70.00 Y54.70 Z42.00 E0 F1200 
G1 X70.00 Y55.30 Z42.00 E0 F1200 
G1 X70.00 Y54.70 Z42.00 E0 F1200 
G1 X70.00 Y55.30 Z42.00 E0 F1200 
G1 X70.00 Y54.70 Z42.00 E0 F1200 
G1 X70.00 Y55.30 Z42.00 E0 F1200 
G1 X70.00 Y54.70 Z42.00 E0 F1200 
G1 X70.00 Y55.30 Z42.00 E0 F1200 
G1 X70.00 Y54.70 Z42.00 E0 F1200 
G1 X70.00 Y55.30 Z42.00 E0 F1200 
G1 X70.00 Y54.70 Z42.00 E0 F1200 
G1 X70.00 Y55.30 Z42.00 E0 F1200 
G1 X70.00 Y54.70 Z42.00 E0 F1200 
G1 X70.00 Y55.30 Z42.00 E0 F1200 
G1 X70.00 Y54.70 Z42.00 E0 F1200 
G1 X70.00 Y55.30 Z42.00 E0 F1200 
G1 X69.70 Y55.00 Z42.00 E0 F1200 
G1 X70.30 Y55.00 Z42.00 E0 F1200 
G1 X69.70 Y55.00 Z42.00 E0 F1200 
G1 X70.30 Y55.00 Z42.00 E0 F1200 
G1 X69.70 Y55.00 Z42.00 E0 F1200 
G1 X70.30 Y55.00 Z42.00 E0 F1200 
G1 X69.70 Y55.00 Z42.00 E0 F1200 
G1 X70.30 Y55.00 Z42.00 E0 F1200 
G1 X69.70 Y55.00 Z42.00 E0 F1200 
G1 X70.30 Y55.00 Z42.00 E0 F1200 
G1 X69.70 Y55.00 Z42.00 E0 F1200 
G1 X70.30 Y55.00 Z42.00 E0 F1200 
G1 X69.70 Y55.00 Z42.00 E0 F1200 
G1 X70.30 Y55.00 Z42.00 E0 F1200 
G1 X69.70 Y55.00 Z42.00 E0 F1200 
G1 X70.30 Y55.00 Z42.00 E0 F1200 
G1 X69.70 Y55.00 Z42.00 E0 F1200 
G1 X70.30 Y55.00 Z42.00 E0 F1200 
G1 X69.70 Y55.00 Z42.00 E0 F1200 
G1 X70.30 Y55.00 Z42.00 E0 F1200 
G1 X69.70 Y55.00 Z42.00 E0 F1200 
G1 X70.30 Y55.00 Z42.00 E0 F1200 
G1 X69.70 Y55.00 Z42.00 E0 F1200 
G1 X70.30 Y55.00 Z42.00 E0 F1200 
G1 X69.70 Y55.00 Z42.00 E0 F1200 
G1 X70.30 Y55.00 Z42.00 E0 F1200 
G1 X69.70 Y55.00 Z42.00 E0 F1200 
G1 X70.30 Y55.00 Z42.00 E0 F1200 
G1 X69.70 Y55.00 Z42.00 E0 F1200 
G1 X70.30 Y55.00 Z42.00 E0 F1200 
G1 X69.70 Y55.00 Z42.00 E0 F1200 
G1 X70.30 Y55.00 Z42.00 E0 F1200 
G1 X69.70 Y55.00 Z42.00 E0 F1200 
G1 X70.30 Y55.00 Z42.00 E0 F1200 
G1 X69.70 Y55.00 Z42.00 E0 F1200 
G1 X70.30 Y55.00 Z42.00 E0 F1200 
G1 X69.70 Y55.00 Z42.00 E0 F1200 
G1 X70.30 Y55.00 Z42.00 E0 F1200 
G1 X69.70 Y55.00 Z42.00 E0 F1200 
G1 X70.30 Y55.00 Z42.00 E0 F1200 
G1 X69.70 Y55.00 Z42.00 E0 F1200 
G1 X70.30 Y55.00 Z42.00 E0 F1200 
G1 X69.70 Y55.00 Z42.00 E0 F1200 
G1 X70.30 Y55.00 Z42.00 E0 F1200 
G1 X69.70 Y55.00 Z42.00 E0 F1200 
G1 X70.30 Y55.00 Z42.00 E0 F1200 
G1 X69.70 Y55.00 Z42.00 E0 F1200 
G1 X70.30 Y55.00 Z42.00 E0 F1200 
G1 X69.70 Y55.00 Z42.00 E0 F1200 
G1 X70.30 Y55.00 Z42.00 E0 F1200 
G1 X69.70 Y55.00 Z42.00 E0 F1200 
G1 X70.30 Y55.00 Z42.00 E0 F1200 
G1 X69.70 Y55.00 Z42.00 E0 F1200 
G1 X70.30 Y55.00 Z42.00 E0 F1200 
G1 X69.70 Y55.00 Z42.00 E0 F1200 
G1 X70.30 Y55.00 Z42.00 E0 F1200 
G1 X69.70 Y55.00 Z42.00 E0 F1200 
G1 X70.30 Y55.00 Z42.00 E0 F1200 
G1 X69.70 Y55.00 Z42.00 E0 F1200 
G1 X70.30 Y55.00 Z42.00 E0 F1200 
G1 X69.70 Y55.00 Z42.00 E0 F1200 
G1 X70.30 Y55.00 Z42.00 E0 F1200 
G1 X69.70 Y55.00 Z42.00 E0 F1200 
G1 X70.30 Y55.00 Z42.00 E0 F1200 
G1 X69.70 Y55.00 Z42.00 E0 F1200 
G1 X70.30 Y55.00 Z42.00 E0 F1200 
G1 X69.70 Y55.00 Z42.00 E0 F1200 
G1 X70.30 Y55.00 Z42.00 E0 F1200 
G1 X69.70 Y55.00 Z42.00 E0 F1200 
G1 X70.30 Y55.00 Z42.00 E0 F1200 
G1 X69.70 Y55.00 Z42.00 E0 F1200 
G1 X70.30 Y55.00 Z42.00 E0 F1200 
G1 X69.70 Y55.00 Z42.00 E0 F1200 
G1 X70.30 Y55.00 Z42.00 E0 F1200 
G1 X69.70 Y55.00 Z42.00 E0 F1200 
G1 X70.30 Y55.00 Z42.00 E0 F1200 
G1 X69.70 Y55.00 Z42.00 E0 F1200 
G1 X70.30 Y55.00 Z42.00 E0 F1200 
G1 X69.70 Y55.00 Z42.00 E0 F1200 
G1 X70.30 Y55.00 Z42.00 E0 F1200 
G1 X69.70 Y55.00 Z42.00 E0 F1200 
G1 X70.30 Y55.00 Z42.00 E0 F1200 
G1 X69.70 Y55.00 Z42.00 E0 F1200 
G1 X70.30 Y55.00 Z42.00 E0 F1200 
G1 X69.70 Y55.00 Z42.00 E0 F1200 
G1 X70.30 Y55.00 Z42.00 E0 F1200 
G1 X69.70 Y55.00 Z42.00 E0 F1200 
G1 X70.30 Y55.00 Z42.00 E0 F1200 
G1 X69.70 Y55.00 Z42.00 E0 F1200 
G1 X70.30 Y55.00 Z42.00 E0 F1200 
G1 X69.70 Y55.00 Z42.00 E0 F1200 
G1 X70.30 Y55.00 Z42.00 E0 F1200 
G1 X69.70 Y55.00 Z42.00 E0 F1200 
G1 X70.30 Y55.00 Z42.00 E0 F1200 
G1 X69.70 Y55.00 Z42.00 E0 F1200 
G1 X70.30 Y55.00 Z42.00 E0 F1200 
G1 X69.70 Y55.00 Z42.00 E0 F1200 
G1 X70.30 Y55.00 Z42.00 E0 F1200 
G1 X69.70 Y55.00 Z42.00 E0 F1200 
G1 X70.30 Y55.00 Z42.00 E0 F1200 
G1 X70.00 Y55.00 Z62.00 E0 F1200 
G1 X70.00 Y54.70 Z42.00 E0 F1200 
G1 X70.00 Y55.30 Z42.00 E0 F1200 
G1 X70.00 Y54.70 Z42.00 E0 F1200 
G1 X70.00 Y55.30 Z42.00 E0 F1200 
G1 X70.00 Y54.70 Z42.00 E0 F1200 
G1 X70.00 Y55.30 Z42.00 E0 F1200 
G1 X70.00 Y54.70 Z42.00 E0 F1200 
G1 X70.00 Y55.30 Z42.00 E0 F1200 
G1 X70.00 Y54.70 Z42.00 E0 F1200 
G1 X70.00 Y55.30 Z42.00 E0 F1200 
G1 X70.00 Y54.70 Z42.00 E0 F1200 
G1 X70.00 Y55.30 Z42.00 E0 F1200 
G1 X70.00 Y54.70 Z42.00 E0 F1200 
G1 X70.00 Y55.30 Z42.00 E0 F1200 
G1 X70.00 Y54.70 Z42.00 E0 F1200 
G1 X70.00 Y55.30 Z42.00 E0 F1200 
G1 X70.00 Y54.70 Z42.00 E0 F1200 
G1 X70.00 Y55.30 Z42.00 E0 F1200 
G1 X70.00 Y54.70 Z42.00 E0 F1200 
G1 X70.00 Y55.30 Z42.00 E0 F1200 
G1 X70.00 Y54.70 Z42.00 E0 F1200 
G1 X70.00 Y55.30 Z42.00 E0 F1200 
G1 X70.00 Y54.70 Z42.00 E0 F1200 
G1 X70.00 Y55.30 Z42.00 E0 F1200 
G1 X70.00 Y54.70 Z42.00 E0 F1200 
G1 X70.00 Y55.30 Z42.00 E0 F1200 
G1 X70.00 Y54.70 Z42.00 E0 F1200 
G1 X70.00 Y55.30 Z42.00 E0 F1200 
G1 X70.00 Y54.70 Z42.00 E0 F1200 
G1 X70.00 Y55.30 Z42.00 E0 F1200 
G1 X70.00 Y54.70 Z42.00 E0 F1200 
G1 X70.00 Y55.30 Z42.00 E0 F1200 
G1 X70.00 Y54.70 Z42.00 E0 F1200 
G1 X70.00 Y55.30 Z42.00 E0 F1200 
G1 X70.00 Y54.70 Z42.00 E0 F1200 
G1 X70.00 Y55.30 Z42.00 E0 F1200 
G1 X70.00 Y54.70 Z42.00 E0 F1200 
G1 X70.00 Y55.30 Z42.00 E0 F1200 
G1 X70.00 Y54.70 Z42.00 E0 F1200 
G1 X70.00 Y55.30 Z42.00 E0 F1200 
G1 X70.00 Y54.70 Z42.00 E0 F1200 
G1 X70.00 Y55.30 Z42.00 E0 F1200 
G1 X70.00 Y54.70 Z42.00 E0 F1200 
G1 X70.00 Y55.30 Z42.00 E0 F1200 
G1 X70.00 Y54.70 Z42.00 E0 F1200 
G1 X70.00 Y55.30 Z42.00 E0 F1200 
G1 X70.00 Y54.70 Z42.00 E0 F1200 
G1 X70.00 Y55.30 Z42.00 E0 F1200 
G1 X70.00 Y54.70 Z42.00 E0 F1200 
G1 X70.00 Y55.30 Z42.00 E0 F1200 
G1 X70.00 Y54.70 Z42.00 E0 F1200 
G1 X70.00 Y55.30 Z42.00 E0 F1200 
G1 X70.00 Y54.70 Z42.00 E0 F1200 
G1 X70.00 Y55.30 Z42.00 E0 F1200 
G1 X70.00 Y54.70 Z42.00 E0 F1200 
G1 X70.00 Y55.30 Z42.00 E0 F1200 
G1 X70.00 Y54.70 Z42.00 E0 F1200 
G1 X70.00 Y55.30 Z42.00 E0 F1200 
G1 X70.00 Y54.70 Z42.00 E0 F1200 
G1 X70.00 Y55.30 Z42.00 E0 F1200 
G1 X70.00 Y54.70 Z42.00 E0 F1200 
G1 X70.00 Y55.30 Z42.00 E0 F1200 
G1 X70.00 Y54.70 Z42.00 E0 F1200 
G1 X70.00 Y55.30 Z42.00 E0 F1200 
G1 X70.00 Y54.70 Z42.00 E0 F1200 
G1 X70.00 Y55.30 Z42.00 E0 F1200 
G1 X70.00 Y54.70 Z42.00 E0 F1200 
G1 X70.00 Y55.30 Z42.00 E0 F1200 
G1 X70.00 Y54.70 Z42.00 E0 F1200 
G1 X70.00 Y55.30 Z42.00 E0 F1200 
G1 X70.00 Y54.70 Z42.00 E0 F1200 
G1 X70.00 Y55.30 Z42.00 E0 F1200 
G1 X70.00 Y54.70 Z42.00 E0 F1200 
G1 X70.00 Y55.30 Z42.00 E0 F1200 
G1 X70.00 Y54.70 Z42.00 E0 F1200 
G1 X70.00 Y55.30 Z42.00 E0 F1200 
G1 X70.00 Y54.70 Z42.00 E0 F1200 
G1 X70.00 Y55.30 Z42.00 E0 F1200 
G1 X70.00 Y54.70 Z42.00 E0 F1200 
G1 X70.00 Y55.30 Z42.00 E0 F1200 
G1 X70.00 Y54.70 Z42.00 E0 F1200 
G1 X70.00 Y55.30 Z42.00 E0 F1200 
G1 X70.00 Y54.70 Z42.00 E0 F1200 
G1 X70.00 Y55.30 Z42.00 E0 F1200 
G1 X70.00 Y54.70 Z42.00 E0 F1200 
G1 X70.00 Y55.30 Z42.00 E0 F1200 
G1 X70.00 Y54.70 Z42.00 E0 F1200 
G1 X70.00 Y55.30 Z42.00 E0 F1200 
G1 X70.00 Y54.70 Z42.00 E0 F1200 
G1 X70.00 Y55.30 Z42.00 E0 F1200 
G1 X70.00 Y54.70 Z42.00 E0 F1200 
G1 X70.00 Y55.30 Z42.00 E0 F1200 
G1 X70.00 Y54.70 Z42.00 E0 F1200 
G1 X70.00 Y55.30 Z42.00 E0 F1200 
G1 X70.00 Y54.70 Z42.00 E0 F1200 
G1 X70.00 Y55.30 Z42.00 E0 F1200 
G1 X70.00 Y54.70 Z42.00 E0 F1200 
G1 X70.00 Y55.30 Z42.00 E0 F1200 
G1 X70.00 Y54.70 Z42.00 E0 F1200 
G1 X70.00 Y55.30 Z42.00 E0 F1200 
G1 X69.70 Y55.00 Z42.00 E0 F1200 
G1 X70.30 Y55.00 Z42.00 E0 F1200 
G1 X69.70 Y55.00 Z42.00 E0 F1200 
G1 X70.30 Y55.00 Z42.00 E0 F1200 
G1 X69.70 Y55.00 Z42.00 E0 F1200 
G1 X70.30 Y55.00 Z42.00 E0 F1200 
G1 X69.70 Y55.00 Z42.00 E0 F1200 
G1 X70.30 Y55.00 Z42.00 E0 F1200 
G1 X69.70 Y55.00 Z42.00 E0 F1200 
G1 X70.30 Y55.00 Z42.00 E0 F1200 
G1 X69.70 Y55.00 Z42.00 E0 F1200 
G1 X70.30 Y55.00 Z42.00 E0 F1200 
G1 X69.70 Y55.00 Z42.00 E0 F1200 
G1 X70.30 Y55.00 Z42.00 E0 F1200 
G1 X69.70 Y55.00 Z42.00 E0 F1200 
G1 X70.30 Y55.00 Z42.00 E0 F1200 
G1 X69.70 Y55.00 Z42.00 E0 F1200 
G1 X70.30 Y55.00 Z42.00 E0 F1200 
G1 X69.70 Y55.00 Z42.00 E0 F1200 
G1 X70.30 Y55.00 Z42.00 E0 F1200 
G1 X69.70 Y55.00 Z42.00 E0 F1200 
G1 X70.30 Y55.00 Z42.00 E0 F1200 
G1 X69.70 Y55.00 Z42.00 E0 F1200 
G1 X70.30 Y55.00 Z42.00 E0 F1200 
G1 X69.70 Y55.00 Z42.00 E0 F1200 
G1 X70.30 Y55.00 Z42.00 E0 F1200 
G1 X69.70 Y55.00 Z42.00 E0 F1200 
G1 X70.30 Y55.00 Z42.00 E0 F1200 
G1 X69.70 Y55.00 Z42.00 E0 F1200 
G1 X70.30 Y55.00 Z42.00 E0 F1200 
G1 X69.70 Y55.00 Z42.00 E0 F1200 
G1 X70.30 Y55.00 Z42.00 E0 F1200 
G1 X69.70 Y55.00 Z42.00 E0 F1200 
G1 X70.30 Y55.00 Z42.00 E0 F1200 
G1 X69.70 Y55.00 Z42.00 E0 F1200 
G1 X70.30 Y55.00 Z42.00 E0 F1200 
G1 X69.70 Y55.00 Z42.00 E0 F1200 
G1 X70.30 Y55.00 Z42.00 E0 F1200 
G1 X69.70 Y55.00 Z42.00 E0 F1200 
G1 X70.30 Y55.00 Z42.00 E0 F1200 
G1 X69.70 Y55.00 Z42.00 E0 F1200 
G1 X70.30 Y55.00 Z42.00 E0 F1200 
G1 X69.70 Y55.00 Z42.00 E0 F1200 
G1 X70.30 Y55.00 Z42.00 E0 F1200 
G1 X69.70 Y55.00 Z42.00 E0 F1200 
G1 X70.30 Y55.00 Z42.00 E0 F1200 
G1 X69.70 Y55.00 Z42.00 E0 F1200 
G1 X70.30 Y55.00 Z42.00 E0 F1200 
G1 X69.70 Y55.00 Z42.00 E0 F1200 
G1 X70.30 Y55.00 Z42.00 E0 F1200 
G1 X69.70 Y55.00 Z42.00 E0 F1200 
G1 X70.30 Y55.00 Z42.00 E0 F1200 
G1 X69.70 Y55.00 Z42.00 E0 F1200 
G1 X70.30 Y55.00 Z42.00 E0 F1200 
G1 X69.70 Y55.00 Z42.00 E0 F1200 
G1 X70.30 Y55.00 Z42.00 E0 F1200 
G1 X69.70 Y55.00 Z42.00 E0 F1200 
G1 X70.30 Y55.00 Z42.00 E0 F1200 
G1 X69.70 Y55.00 Z42.00 E0 F1200 
G1 X70.30 Y55.00 Z42.00 E0 F1200 
G1 X69.70 Y55.00 Z42.00 E0 F1200 
G1 X70.30 Y55.00 Z42.00 E0 F1200 
G1 X69.70 Y55.00 Z42.00 E0 F1200 
G1 X70.30 Y55.00 Z42.00 E0 F1200 
G1 X69.70 Y55.00 Z42.00 E0 F1200 
G1 X70.30 Y55.00 Z42.00 E0 F1200 
G1 X69.70 Y55.00 Z42.00 E0 F1200 
G1 X70.30 Y55.00 Z42.00 E0 F1200 
G1 X69.70 Y55.00 Z42.00 E0 F1200 
G1 X70.30 Y55.00 Z42.00 E0 F1200 
G1 X69.70 Y55.00 Z42.00 E0 F1200 
G1 X70.30 Y55.00 Z42.00 E0 F1200 
G1 X69.70 Y55.00 Z42.00 E0 F1200 
G1 X70.30 Y55.00 Z42.00 E0 F1200 
G1 X69.70 Y55.00 Z42.00 E0 F1200 
G1 X70.30 Y55.00 Z42.00 E0 F1200 
G1 X69.70 Y55.00 Z42.00 E0 F1200 
G1 X70.30 Y55.00 Z42.00 E0 F1200 
G1 X69.70 Y55.00 Z42.00 E0 F1200 
G1 X70.30 Y55.00 Z42.00 E0 F1200 
G1 X69.70 Y55.00 Z42.00 E0 F1200 
G1 X70.30 Y55.00 Z42.00 E0 F1200 
G1 X69.70 Y55.00 Z42.00 E0 F1200 
G1 X70.30 Y55.00 Z42.00 E0 F1200 
G1 X69.70 Y55.00 Z42.00 E0 F1200 
G1 X70.30 Y55.00 Z42.00 E0 F1200 
G1 X69.70 Y55.00 Z42.00 E0 F1200 
G1 X70.30 Y55.00 Z42.00 E0 F1200 
G1 X69.70 Y55.00 Z42.00 E0 F1200 
G1 X70.30 Y55.00 Z42.00 E0 F1200 
G1 X69.70 Y55.00 Z42.00 E0 F1200 
G1 X70.30 Y55.00 Z42.00 E0 F1200 
G1 X69.70 Y55.00 Z42.00 E0 F1200 
G1 X70.30 Y55.00 Z42.00 E0 F1200 
G1 X69.70 Y55.00 Z42.00 E0 F1200 
G1 X70.30 Y55.00 Z42.00 E0 F1200 
G1 X69.70 Y55.00 Z42.00 E0 F1200 
G1 X70.30 Y55.00 Z42.00 E0 F1200 
G1 X69.70 Y55.00 Z42.00 E0 F1200 
G1 X70.30 Y55.00 Z42.00 E0 F1200 
G1 X70.00 Y54.70 Z42.00 E0 F1200 
G1 X70.00 Y55.30 Z42.00 E0 F1200 
G1 X70.00 Y54.70 Z42.00 E0 F1200 
G1 X70.00 Y55.30 Z42.00 E0 F1200 
G1 X70.00 Y54.70 Z42.00 E0 F1200 
G1 X70.00 Y55.30 Z42.00 E0 F1200 
G1 X70.00 Y54.70 Z42.00 E0 F1200 
G1 X70.00 Y55.30 Z42.00 E0 F1200 
G1 X70.00 Y54.70 Z42.00 E0 F1200 
G1 X70.00 Y55.30 Z42.00 E0 F1200 
G1 X70.00 Y54.70 Z42.00 E0 F1200 
G1 X70.00 Y55.30 Z42.00 E0 F1200 
G1 X70.00 Y54.70 Z42.00 E0 F1200 
G1 X70.00 Y55.30 Z42.00 E0 F1200 
G1 X70.00 Y54.70 Z42.00 E0 F1200 
G1 X70.00 Y55.30 Z42.00 E0 F1200 
G1 X70.00 Y54.70 Z42.00 E0 F1200 
G1 X70.00 Y55.30 Z42.00 E0 F1200 
G1 X70.00 Y54.70 Z42.00 E0 F1200 
G1 X70.00 Y55.30 Z42.00 E0 F1200 
G1 X70.00 Y54.70 Z42.00 E0 F1200 
G1 X70.00 Y55.30 Z42.00 E0 F1200 
G1 X70.00 Y54.70 Z42.00 E0 F1200 
G1 X70.00 Y55.30 Z42.00 E0 F1200 
G1 X70.00 Y54.70 Z42.00 E0 F1200 
G1 X70.00 Y55.30 Z42.00 E0 F1200 
G1 X70.00 Y54.70 Z42.00 E0 F1200 
G1 X70.00 Y55.30 Z42.00 E0 F1200 
G1 X70.00 Y54.70 Z42.00 E0 F1200 
G1 X70.00 Y55.30 Z42.00 E0 F1200 
G1 X70.00 Y54.70 Z42.00 E0 F1200 
G1 X70.00 Y55.30 Z42.00 E0 F1200 
G1 X70.00 Y54.70 Z42.00 E0 F1200 
G1 X70.00 Y55.30 Z42.00 E0 F1200 
G1 X70.00 Y54.70 Z42.00 E0 F1200 
G1 X70.00 Y55.30 Z42.00 E0 F1200 
G1 X70.00 Y54.70 Z42.00 E0 F1200 
G1 X70.00 Y55.30 Z42.00 E0 F1200 
G1 X70.00 Y54.70 Z42.00 E0 F1200 
G1 X70.00 Y55.30 Z42.00 E0 F1200 
G1 X70.00 Y54.70 Z42.00 E0 F1200 
G1 X70.00 Y55.30 Z42.00 E0 F1200 
G1 X70.00 Y54.70 Z42.00 E0 F1200 
G1 X70.00 Y55.30 Z42.00 E0 F1200 
G1 X70.00 Y54.70 Z42.00 E0 F1200 
G1 X70.00 Y55.30 Z42.00 E0 F1200 
G1 X70.00 Y54.70 Z42.00 E0 F1200 
G1 X70.00 Y55.30 Z42.00 E0 F1200 
G1 X70.00 Y54.70 Z42.00 E0 F1200 
G1 X70.00 Y55.30 Z42.00 E0 F1200 
G1 X70.00 Y54.70 Z42.00 E0 F1200 
G1 X70.00 Y55.30 Z42.00 E0 F1200 
G1 X70.00 Y54.70 Z42.00 E0 F1200 
G1 X70.00 Y55.30 Z42.00 E0 F1200 
G1 X70.00 Y54.70 Z42.00 E0 F1200 
G1 X70.00 Y55.30 Z42.00 E0 F1200 
G1 X70.00 Y54.70 Z42.00 E0 F1200 
G1 X70.00 Y55.30 Z42.00 E0 F1200 
G1 X70.00 Y54.70 Z42.00 E0 F1200 
G1 X70.00 Y55.30 Z42.00 E0 F1200 
G1 X70.00 Y54.70 Z42.00 E0 F1200 
G1 X70.00 Y55.30 Z42.00 E0 F1200 
G1 X70.00 Y54.70 Z42.00 E0 F1200 
G1 X70.00 Y55.30 Z42.00 E0 F1200 
G1 X70.00 Y54.70 Z42.00 E0 F1200 
G1 X70.00 Y55.30 Z42.00 E0 F1200 
G1 X70.00 Y54.70 Z42.00 E0 F1200 
G1 X70.00 Y55.30 Z42.00 E0 F1200 
G1 X70.00 Y54.70 Z42.00 E0 F1200 
G1 X70.00 Y55.30 Z42.00 E0 F1200 
G1 X70.00 Y54.70 Z42.00 E0 F1200 
G1 X70.00 Y55.30 Z42.00 E0 F1200 
G1 X70.00 Y54.70 Z42.00 E0 F1200 
G1 X70.00 Y55.30 Z42.00 E0 F1200 
G1 X70.00 Y54.70 Z42.00 E0 F1200 
G1 X70.00 Y55.30 Z42.00 E0 F1200 
G1 X70.00 Y54.70 Z42.00 E0 F1200 
G1 X70.00 Y55.30 Z42.00 E0 F1200 
G1 X70.00 Y54.70 Z42.00 E0 F1200 
G1 X70.00 Y55.30 Z42.00 E0 F1200 
G1 X70.00 Y54.70 Z42.00 E0 F1200 
G1 X70.00 Y55.30 Z42.00 E0 F1200 
G1 X70.00 Y54.70 Z42.00 E0 F1200 
G1 X70.00 Y55.30 Z42.00 E0 F1200 
G1 X70.00 Y54.70 Z42.00 E0 F1200 
G1 X70.00 Y55.30 Z42.00 E0 F1200 
G1 X70.00 Y54.70 Z42.00 E0 F1200 
G1 X70.00 Y55.30 Z42.00 E0 F1200 
G1 X70.00 Y54.70 Z42.00 E0 F1200 
G1 X70.00 Y55.30 Z42.00 E0 F1200 
G1 X70.00 Y54.70 Z42.00 E0 F1200 
G1 X70.00 Y55.30 Z42.00 E0 F1200 
G1 X70.00 Y54.70 Z42.00 E0 F1200 
G1 X70.00 Y55.30 Z42.00 E0 F1200 
G1 X70.00 Y54.70 Z42.00 E0 F1200 
G1 X70.00 Y55.30 Z42.00 E0 F1200 
G1 X70.00 Y54.70 Z42.00 E0 F1200 
G1 X70.00 Y55.30 Z42.00 E0 F1200 
G1 X70.00 Y54.70 Z42.00 E0 F1200 
G1 X70.00 Y55.30 Z42.00 E0 F1200 
G1 X69.70 Y55.00 Z42.00 E0 F1200 
G1 X70.30 Y55.00 Z42.00 E0 F1200 
G1 X69.70 Y55.00 Z42.00 E0 F1200 
G1 X70.30 Y55.00 Z42.00 E0 F1200 
G1 X69.70 Y55.00 Z42.00 E0 F1200 
G1 X70.30 Y55.00 Z42.00 E0 F1200 
G1 X69.70 Y55.00 Z42.00 E0 F1200 
G1 X70.30 Y55.00 Z42.00 E0 F1200 
G1 X69.70 Y55.00 Z42.00 E0 F1200 
G1 X70.30 Y55.00 Z42.00 E0 F1200 
G1 X69.70 Y55.00 Z42.00 E0 F1200 
G1 X70.30 Y55.00 Z42.00 E0 F1200 
G1 X69.70 Y55.00 Z42.00 E0 F1200 
G1 X70.30 Y55.00 Z42.00 E0 F1200 
G1 X69.70 Y55.00 Z42.00 E0 F1200 
G1 X70.30 Y55.00 Z42.00 E0 F1200 
G1 X69.70 Y55.00 Z42.00 E0 F1200 
G1 X70.30 Y55.00 Z42.00 E0 F1200 
G1 X69.70 Y55.00 Z42.00 E0 F1200 
G1 X70.30 Y55.00 Z42.00 E0 F1200 
G1 X69.70 Y55.00 Z42.00 E0 F1200 
G1 X70.30 Y55.00 Z42.00 E0 F1200 
G1 X69.70 Y55.00 Z42.00 E0 F1200 
G1 X70.30 Y55.00 Z42.00 E0 F1200 
G1 X69.70 Y55.00 Z42.00 E0 F1200 
G1 X70.30 Y55.00 Z42.00 E0 F1200 
G1 X69.70 Y55.00 Z42.00 E0 F1200 
G1 X70.30 Y55.00 Z42.00 E0 F1200 
G1 X69.70 Y55.00 Z42.00 E0 F1200 
G1 X70.30 Y55.00 Z42.00 E0 F1200 
G1 X69.70 Y55.00 Z42.00 E0 F1200 
G1 X70.30 Y55.00 Z42.00 E0 F1200 
G1 X69.70 Y55.00 Z42.00 E0 F1200 
G1 X70.30 Y55.00 Z42.00 E0 F1200 
G1 X69.70 Y55.00 Z42.00 E0 F1200 
G1 X70.30 Y55.00 Z42.00 E0 F1200 
G1 X69.70 Y55.00 Z42.00 E0 F1200 
G1 X70.30 Y55.00 Z42.00 E0 F1200 
G1 X69.70 Y55.00 Z42.00 E0 F1200 
G1 X70.30 Y55.00 Z42.00 E0 F1200 
G1 X69.70 Y55.00 Z42.00 E0 F1200 
G1 X70.30 Y55.00 Z42.00 E0 F1200 
G1 X69.70 Y55.00 Z42.00 E0 F1200 
G1 X70.30 Y55.00 Z42.00 E0 F1200 
G1 X69.70 Y55.00 Z42.00 E0 F1200 
G1 X70.30 Y55.00 Z42.00 E0 F1200 
G1 X69.70 Y55.00 Z42.00 E0 F1200 
G1 X70.30 Y55.00 Z42.00 E0 F1200 
G1 X69.70 Y55.00 Z42.00 E0 F1200 
G1 X70.30 Y55.00 Z42.00 E0 F1200 
G1 X69.70 Y55.00 Z42.00 E0 F1200 
G1 X70.30 Y55.00 Z42.00 E0 F1200 
G1 X69.70 Y55.00 Z42.00 E0 F1200 
G1 X70.30 Y55.00 Z42.00 E0 F1200 
G1 X69.70 Y55.00 Z42.00 E0 F1200 
G1 X70.30 Y55.00 Z42.00 E0 F1200 
G1 X69.70 Y55.00 Z42.00 E0 F1200 
G1 X70.30 Y55.00 Z42.00 E0 F1200 
G1 X69.70 Y55.00 Z42.00 E0 F1200 
G1 X70.30 Y55.00 Z42.00 E0 F1200 
G1 X69.70 Y55.00 Z42.00 E0 F1200 
G1 X70.30 Y55.00 Z42.00 E0 F1200 
G1 X69.70 Y55.00 Z42.00 E0 F1200 
G1 X70.30 Y55.00 Z42.00 E0 F1200 
G1 X69.70 Y55.00 Z42.00 E0 F1200 
G1 X70.30 Y55.00 Z42.00 E0 F1200 
G1 X69.70 Y55.00 Z42.00 E0 F1200 
G1 X70.30 Y55.00 Z42.00 E0 F1200 
G1 X69.70 Y55.00 Z42.00 E0 F1200 
G1 X70.30 Y55.00 Z42.00 E0 F1200 
G1 X69.70 Y55.00 Z42.00 E0 F1200 
G1 X70.30 Y55.00 Z42.00 E0 F1200 
G1 X69.70 Y55.00 Z42.00 E0 F1200 
G1 X70.30 Y55.00 Z42.00 E0 F1200 
G1 X69.70 Y55.00 Z42.00 E0 F1200 
G1 X70.30 Y55.00 Z42.00 E0 F1200 
G1 X69.70 Y55.00 Z42.00 E0 F1200 
G1 X70.30 Y55.00 Z42.00 E0 F1200 
G1 X69.70 Y55.00 Z42.00 E0 F1200 
G1 X70.30 Y55.00 Z42.00 E0 F1200 
G1 X69.70 Y55.00 Z42.00 E0 F1200 
G1 X70.30 Y55.00 Z42.00 E0 F1200 
G1 X69.70 Y55.00 Z42.00 E0 F1200 
G1 X70.30 Y55.00 Z42.00 E0 F1200 
G1 X69.70 Y55.00 Z42.00 E0 F1200 
G1 X70.30 Y55.00 Z42.00 E0 F1200 
G1 X69.70 Y55.00 Z42.00 E0 F1200 
G1 X70.30 Y55.00 Z42.00 E0 F1200 
G1 X69.70 Y55.00 Z42.00 E0 F1200 
G1 X70.30 Y55.00 Z42.00 E0 F1200 
G1 X69.70 Y55.00 Z42.00 E0 F1200 
G1 X70.30 Y55.00 Z42.00 E0 F1200 
G1 X69.70 Y55.00 Z42.00 E0 F1200 
G1 X70.30 Y55.00 Z42.00 E0 F1200 
G1 X69.70 Y55.00 Z42.00 E0 F1200 
G1 X70.30 Y55.00 Z42.00 E0 F1200 
G1 X69.70 Y55.00 Z42.00 E0 F1200 
G1 X70.30 Y55.00 Z42.00 E0 F1200 
G1 X69.70 Y55.00 Z42.00 E0 F1200 
G1 X70.30 Y55.00 Z42.00 E0 F1200 
G1 X70.00 Y54.70 Z42.00 E0 F1200 
G1 X70.00 Y55.30 Z42.00 E0 F1200 
G1 X70.00 Y54.70 Z42.00 E0 F1200 
G1 X70.00 Y55.30 Z42.00 E0 F1200 
G1 X70.00 Y54.70 Z42.00 E0 F1200 
G1 X70.00 Y55.30 Z42.00 E0 F1200 
G1 X70.00 Y54.70 Z42.00 E0 F1200 
G1 X70.00 Y55.30 Z42.00 E0 F1200 
G1 X70.00 Y54.70 Z42.00 E0 F1200 
G1 X70.00 Y55.30 Z42.00 E0 F1200 
G1 X70.00 Y54.70 Z42.00 E0 F1200 
G1 X70.00 Y55.30 Z42.00 E0 F1200 
G1 X70.00 Y54.70 Z42.00 E0 F1200 
G1 X70.00 Y55.30 Z42.00 E0 F1200 
G1 X70.00 Y54.70 Z42.00 E0 F1200 
G1 X70.00 Y55.30 Z42.00 E0 F1200 
G1 X70.00 Y54.70 Z42.00 E0 F1200 
G1 X70.00 Y55.30 Z42.00 E0 F1200 
G1 X70.00 Y54.70 Z42.00 E0 F1200 
G1 X70.00 Y55.30 Z42.00 E0 F1200 
G1 X70.00 Y54.70 Z42.00 E0 F1200 
G1 X70.00 Y55.30 Z42.00 E0 F1200 
G1 X70.00 Y54.70 Z42.00 E0 F1200 
G1 X70.00 Y55.30 Z42.00 E0 F1200 
G1 X70.00 Y54.70 Z42.00 E0 F1200 
G1 X70.00 Y55.30 Z42.00 E0 F1200 
G1 X70.00 Y54.70 Z42.00 E0 F1200 
G1 X70.00 Y55.30 Z42.00 E0 F1200 
G1 X70.00 Y54.70 Z42.00 E0 F1200 
G1 X70.00 Y55.30 Z42.00 E0 F1200 
G1 X70.00 Y54.70 Z42.00 E0 F1200 
G1 X70.00 Y55.30 Z42.00 E0 F1200 
G1 X70.00 Y54.70 Z42.00 E0 F1200 
G1 X70.00 Y55.30 Z42.00 E0 F1200 
G1 X70.00 Y54.70 Z42.00 E0 F1200 
G1 X70.00 Y55.30 Z42.00 E0 F1200 
G1 X70.00 Y54.70 Z42.00 E0 F1200 
G1 X70.00 Y55.30 Z42.00 E0 F1200 
G1 X70.00 Y54.70 Z42.00 E0 F1200 
G1 X70.00 Y55.30 Z42.00 E0 F1200 
G1 X70.00 Y54.70 Z42.00 E0 F1200 
G1 X70.00 Y55.30 Z42.00 E0 F1200 
G1 X70.00 Y54.70 Z42.00 E0 F1200 
G1 X70.00 Y55.30 Z42.00 E0 F1200 
G1 X70.00 Y54.70 Z42.00 E0 F1200 
G1 X70.00 Y55.30 Z42.00 E0 F1200 
G1 X70.00 Y54.70 Z42.00 E0 F1200 
G1 X70.00 Y55.30 Z42.00 E0 F1200 
G1 X70.00 Y54.70 Z42.00 E0 F1200 
G1 X70.00 Y55.30 Z42.00 E0 F1200 
G1 X70.00 Y54.70 Z42.00 E0 F1200 
G1 X70.00 Y55.30 Z42.00 E0 F1200 
G1 X70.00 Y54.70 Z42.00 E0 F1200 
G1 X70.00 Y55.30 Z42.00 E0 F1200 
G1 X70.00 Y54.70 Z42.00 E0 F1200 
G1 X70.00 Y55.30 Z42.00 E0 F1200 
G1 X70.00 Y54.70 Z42.00 E0 F1200 
G1 X70.00 Y55.30 Z42.00 E0 F1200 
G1 X70.00 Y54.70 Z42.00 E0 F1200 
G1 X70.00 Y55.30 Z42.00 E0 F1200 
G1 X70.00 Y54.70 Z42.00 E0 F1200 
G1 X70.00 Y55.30 Z42.00 E0 F1200 
G1 X70.00 Y54.70 Z42.00 E0 F1200 
G1 X70.00 Y55.30 Z42.00 E0 F1200 
G1 X70.00 Y54.70 Z42.00 E0 F1200 
G1 X70.00 Y55.30 Z42.00 E0 F1200 
G1 X70.00 Y54.70 Z42.00 E0 F1200 
G1 X70.00 Y55.30 Z42.00 E0 F1200 
G1 X70.00 Y54.70 Z42.00 E0 F1200 
G1 X70.00 Y55.30 Z42.00 E0 F1200 
G1 X70.00 Y54.70 Z42.00 E0 F1200 
G1 X70.00 Y55.30 Z42.00 E0 F1200 
G1 X70.00 Y54.70 Z42.00 E0 F1200 
G1 X70.00 Y55.30 Z42.00 E0 F1200 
G1 X70.00 Y54.70 Z42.00 E0 F1200 
G1 X70.00 Y55.30 Z42.00 E0 F1200 
G1 X70.00 Y54.70 Z42.00 E0 F1200 
G1 X70.00 Y55.30 Z42.00 E0 F1200 
G1 X70.00 Y54.70 Z42.00 E0 F1200 
G1 X70.00 Y55.30 Z42.00 E0 F1200 
G1 X70.00 Y54.70 Z42.00 E0 F1200 
G1 X70.00 Y55.30 Z42.00 E0 F1200 
G1 X70.00 Y54.70 Z42.00 E0 F1200 
G1 X70.00 Y55.30 Z42.00 E0 F1200 
G1 X70.00 Y54.70 Z42.00 E0 F1200 
G1 X70.00 Y55.30 Z42.00 E0 F1200 
G1 X70.00 Y54.70 Z42.00 E0 F1200 
G1 X70.00 Y55.30 Z42.00 E0 F1200 
G1 X70.00 Y54.70 Z42.00 E0 F1200 
G1 X70.00 Y55.30 Z42.00 E0 F1200 
G1 X70.00 Y54.70 Z42.00 E0 F1200 
G1 X70.00 Y55.30 Z42.00 E0 F1200 
G1 X70.00 Y54.70 Z42.00 E0 F1200 
G1 X70.00 Y55.30 Z42.00 E0 F1200 
G1 X70.00 Y54.70 Z42.00 E0 F1200 
G1 X70.00 Y55.30 Z42.00 E0 F1200 
G1 X70.00 Y54.70 Z42.00 E0 F1200 
G1 X70.00 Y55.30 Z42.00 E0 F1200 
G1 X70.00 Y54.70 Z42.00 E0 F1200 
G1 X70.00 Y55.30 Z42.00 E0 F1200 
G1 X69.70 Y55.00 Z42.00 E0 F1200 
G1 X70.30 Y55.00 Z42.00 E0 F1200 
G1 X69.70 Y55.00 Z42.00 E0 F1200 
G1 X70.30 Y55.00 Z42.00 E0 F1200 
G1 X69.70 Y55.00 Z42.00 E0 F1200 
G1 X70.30 Y55.00 Z42.00 E0 F1200 
G1 X69.70 Y55.00 Z42.00 E0 F1200 
G1 X70.30 Y55.00 Z42.00 E0 F1200 
G1 X69.70 Y55.00 Z42.00 E0 F1200 
G1 X70.30 Y55.00 Z42.00 E0 F1200 
G1 X69.70 Y55.00 Z42.00 E0 F1200 
G1 X70.30 Y55.00 Z42.00 E0 F1200 
G1 X69.70 Y55.00 Z42.00 E0 F1200 
G1 X70.30 Y55.00 Z42.00 E0 F1200 
G1 X69.70 Y55.00 Z42.00 E0 F1200 
G1 X70.30 Y55.00 Z42.00 E0 F1200 
G1 X69.70 Y55.00 Z42.00 E0 F1200 
G1 X70.30 Y55.00 Z42.00 E0 F1200 
G1 X69.70 Y55.00 Z42.00 E0 F1200 
G1 X70.30 Y55.00 Z42.00 E0 F1200 
G1 X69.70 Y55.00 Z42.00 E0 F1200 
G1 X70.30 Y55.00 Z42.00 E0 F1200 
G1 X69.70 Y55.00 Z42.00 E0 F1200 
G1 X70.30 Y55.00 Z42.00 E0 F1200 
G1 X69.70 Y55.00 Z42.00 E0 F1200 
G1 X70.30 Y55.00 Z42.00 E0 F1200 
G1 X69.70 Y55.00 Z42.00 E0 F1200 
G1 X70.30 Y55.00 Z42.00 E0 F1200 
G1 X69.70 Y55.00 Z42.00 E0 F1200 
G1 X70.30 Y55.00 Z42.00 E0 F1200 
G1 X69.70 Y55.00 Z42.00 E0 F1200 
G1 X70.30 Y55.00 Z42.00 E0 F1200 
G1 X69.70 Y55.00 Z42.00 E0 F1200 
G1 X70.30 Y55.00 Z42.00 E0 F1200 
G1 X69.70 Y55.00 Z42.00 E0 F1200 
G1 X70.30 Y55.00 Z42.00 E0 F1200 
G1 X69.70 Y55.00 Z42.00 E0 F1200 
G1 X70.30 Y55.00 Z42.00 E0 F1200 
G1 X69.70 Y55.00 Z42.00 E0 F1200 
G1 X70.30 Y55.00 Z42.00 E0 F1200 
G1 X69.70 Y55.00 Z42.00 E0 F1200 
G1 X70.30 Y55.00 Z42.00 E0 F1200 
G1 X69.70 Y55.00 Z42.00 E0 F1200 
G1 X70.30 Y55.00 Z42.00 E0 F1200 
G1 X69.70 Y55.00 Z42.00 E0 F1200 
G1 X70.30 Y55.00 Z42.00 E0 F1200 
G1 X69.70 Y55.00 Z42.00 E0 F1200 
G1 X70.30 Y55.00 Z42.00 E0 F1200 
G1 X69.70 Y55.00 Z42.00 E0 F1200 
G1 X70.30 Y55.00 Z42.00 E0 F1200 
G1 X69.70 Y55.00 Z42.00 E0 F1200 
G1 X70.30 Y55.00 Z42.00 E0 F1200 
G1 X69.70 Y55.00 Z42.00 E0 F1200 
G1 X70.30 Y55.00 Z42.00 E0 F1200 
G1 X69.70 Y55.00 Z42.00 E0 F1200 
G1 X70.30 Y55.00 Z42.00 E0 F1200 
G1 X69.70 Y55.00 Z42.00 E0 F1200 
G1 X70.30 Y55.00 Z42.00 E0 F1200 
G1 X69.70 Y55.00 Z42.00 E0 F1200 
G1 X70.30 Y55.00 Z42.00 E0 F1200 
G1 X69.70 Y55.00 Z42.00 E0 F1200 
G1 X70.30 Y55.00 Z42.00 E0 F1200 
G1 X69.70 Y55.00 Z42.00 E0 F1200 
G1 X70.30 Y55.00 Z42.00 E0 F1200 
G1 X69.70 Y55.00 Z42.00 E0 F1200 
G1 X70.30 Y55.00 Z42.00 E0 F1200 
G1 X69.70 Y55.00 Z42.00 E0 F1200 
G1 X70.30 Y55.00 Z42.00 E0 F1200 
G1 X69.70 Y55.00 Z42.00 E0 F1200 
G1 X70.30 Y55.00 Z42.00 E0 F1200 
G1 X69.70 Y55.00 Z42.00 E0 F1200 
G1 X70.30 Y55.00 Z42.00 E0 F1200 
G1 X69.70 Y55.00 Z42.00 E0 F1200 
G1 X70.30 Y55.00 Z42.00 E0 F1200 
G1 X69.70 Y55.00 Z42.00 E0 F1200 
G1 X70.30 Y55.00 Z42.00 E0 F1200 
G1 X69.70 Y55.00 Z42.00 E0 F1200 
G1 X70.30 Y55.00 Z42.00 E0 F1200 
G1 X69.70 Y55.00 Z42.00 E0 F1200 
G1 X70.30 Y55.00 Z42.00 E0 F1200 
G1 X69.70 Y55.00 Z42.00 E0 F1200 
G1 X70.30 Y55.00 Z42.00 E0 F1200 
G1 X69.70 Y55.00 Z42.00 E0 F1200 
G1 X70.30 Y55.00 Z42.00 E0 F1200 
G1 X69.70 Y55.00 Z42.00 E0 F1200 
G1 X70.30 Y55.00 Z42.00 E0 F1200 
G1 X69.70 Y55.00 Z42.00 E0 F1200 
G1 X70.30 Y55.00 Z42.00 E0 F1200 
G1 X69.70 Y55.00 Z42.00 E0 F1200 
G1 X70.30 Y55.00 Z42.00 E0 F1200 
G1 X69.70 Y55.00 Z42.00 E0 F1200 
G1 X70.30 Y55.00 Z42.00 E0 F1200 
G1 X69.70 Y55.00 Z42.00 E0 F1200 
G1 X70.30 Y55.00 Z42.00 E0 F1200 
G1 X69.70 Y55.00 Z42.00 E0 F1200 
G1 X70.30 Y55.00 Z42.00 E0 F1200 
G1 X69.70 Y55.00 Z42.00 E0 F1200 
G1 X70.30 Y55.00 Z42.00 E0 F1200 
G1 X69.70 Y55.00 Z42.00 E0 F1200 
G1 X70.30 Y55.00 Z42.00 E0 F1200 
G1 X70.00 Y54.70 Z42.00 E0 F1200 
G1 X70.00 Y55.30 Z42.00 E0 F1200 
G1 X70.00 Y54.70 Z42.00 E0 F1200 
G1 X70.00 Y55.30 Z42.00 E0 F1200 
G1 X70.00 Y54.70 Z42.00 E0 F1200 
G1 X70.00 Y55.30 Z42.00 E0 F1200 
G1 X70.00 Y54.70 Z42.00 E0 F1200 
G1 X70.00 Y55.30 Z42.00 E0 F1200 
G1 X70.00 Y54.70 Z42.00 E0 F1200 
G1 X70.00 Y55.30 Z42.00 E0 F1200 
G1 X70.00 Y54.70 Z42.00 E0 F1200 
G1 X70.00 Y55.30 Z42.00 E0 F1200 
G1 X70.00 Y54.70 Z42.00 E0 F1200 
G1 X70.00 Y55.30 Z42.00 E0 F1200 
G1 X70.00 Y54.70 Z42.00 E0 F1200 
G1 X70.00 Y55.30 Z42.00 E0 F1200 
G1 X70.00 Y54.70 Z42.00 E0 F1200 
G1 X70.00 Y55.30 Z42.00 E0 F1200 
G1 X70.00 Y54.70 Z42.00 E0 F1200 
G1 X70.00 Y55.30 Z42.00 E0 F1200 
G1 X70.00 Y54.70 Z42.00 E0 F1200 
G1 X70.00 Y55.30 Z42.00 E0 F1200 
G1 X70.00 Y54.70 Z42.00 E0 F1200 
G1 X70.00 Y55.30 Z42.00 E0 F1200 
G1 X70.00 Y54.70 Z42.00 E0 F1200 
G1 X70.00 Y55.30 Z42.00 E0 F1200 
G1 X70.00 Y54.70 Z42.00 E0 F1200 
G1 X70.00 Y55.30 Z42.00 E0 F1200 
G1 X70.00 Y54.70 Z42.00 E0 F1200 
G1 X70.00 Y55.30 Z42.00 E0 F1200 
G1 X70.00 Y54.70 Z42.00 E0 F1200 
G1 X70.00 Y55.30 Z42.00 E0 F1200 
G1 X70.00 Y54.70 Z42.00 E0 F1200 
G1 X70.00 Y55.30 Z42.00 E0 F1200 
G1 X70.00 Y54.70 Z42.00 E0 F1200 
G1 X70.00 Y55.30 Z42.00 E0 F1200 
G1 X70.00 Y54.70 Z42.00 E0 F1200 
G1 X70.00 Y55.30 Z42.00 E0 F1200 
G1 X70.00 Y54.70 Z42.00 E0 F1200 
G1 X70.00 Y55.30 Z42.00 E0 F1200 
G1 X70.00 Y54.70 Z42.00 E0 F1200 
G1 X70.00 Y55.30 Z42.00 E0 F1200 
G1 X70.00 Y54.70 Z42.00 E0 F1200 
G1 X70.00 Y55.30 Z42.00 E0 F1200 
G1 X70.00 Y54.70 Z42.00 E0 F1200 
G1 X70.00 Y55.30 Z42.00 E0 F1200 
G1 X70.00 Y54.70 Z42.00 E0 F1200 
G1 X70.00 Y55.30 Z42.00 E0 F1200 
G1 X70.00 Y54.70 Z42.00 E0 F1200 
G1 X70.00 Y55.30 Z42.00 E0 F1200 
G1 X70.00 Y54.70 Z42.00 E0 F1200 
G1 X70.00 Y55.30 Z42.00 E0 F1200 
G1 X70.00 Y54.70 Z42.00 E0 F1200 
G1 X70.00 Y55.30 Z42.00 E0 F1200 
G1 X70.00 Y54.70 Z42.00 E0 F1200 
G1 X70.00 Y55.30 Z42.00 E0 F1200 
G1 X70.00 Y54.70 Z42.00 E0 F1200 
G1 X70.00 Y55.30 Z42.00 E0 F1200 
G1 X70.00 Y54.70 Z42.00 E0 F1200 
G1 X70.00 Y55.30 Z42.00 E0 F1200 
G1 X70.00 Y54.70 Z42.00 E0 F1200 
G1 X70.00 Y55.30 Z42.00 E0 F1200 
G1 X70.00 Y54.70 Z42.00 E0 F1200 
G1 X70.00 Y55.30 Z42.00 E0 F1200 
G1 X70.00 Y54.70 Z42.00 E0 F1200 
G1 X70.00 Y55.30 Z42.00 E0 F1200 
G1 X70.00 Y54.70 Z42.00 E0 F1200 
G1 X70.00 Y55.30 Z42.00 E0 F1200 
G1 X70.00 Y54.70 Z42.00 E0 F1200 
G1 X70.00 Y55.30 Z42.00 E0 F1200 
G1 X70.00 Y54.70 Z42.00 E0 F1200 
G1 X70.00 Y55.30 Z42.00 E0 F1200 
G1 X70.00 Y54.70 Z42.00 E0 F1200 
G1 X70.00 Y55.30 Z42.00 E0 F1200 
G1 X70.00 Y54.70 Z42.00 E0 F1200 
G1 X70.00 Y55.30 Z42.00 E0 F1200 
G1 X70.00 Y54.70 Z42.00 E0 F1200 
G1 X70.00 Y55.30 Z42.00 E0 F1200 
G1 X70.00 Y54.70 Z42.00 E0 F1200 
G1 X70.00 Y55.30 Z42.00 E0 F1200 
G1 X70.00 Y54.70 Z42.00 E0 F1200 
G1 X70.00 Y55.30 Z42.00 E0 F1200 
G1 X70.00 Y54.70 Z42.00 E0 F1200 
G1 X70.00 Y55.30 Z42.00 E0 F1200 
G1 X70.00 Y54.70 Z42.00 E0 F1200 
G1 X70.00 Y55.30 Z42.00 E0 F1200 
G1 X70.00 Y54.70 Z42.00 E0 F1200 
G1 X70.00 Y55.30 Z42.00 E0 F1200 
G1 X70.00 Y54.70 Z42.00 E0 F1200 
G1 X70.00 Y55.30 Z42.00 E0 F1200 
G1 X70.00 Y54.70 Z42.00 E0 F1200 
G1 X70.00 Y55.30 Z42.00 E0 F1200 
G1 X70.00 Y54.70 Z42.00 E0 F1200 
G1 X70.00 Y55.30 Z42.00 E0 F1200 
G1 X70.00 Y54.70 Z42.00 E0 F1200 
G1 X70.00 Y55.30 Z42.00 E0 F1200 
G1 X70.00 Y54.70 Z42.00 E0 F1200 
G1 X70.00 Y55.30 Z42.00 E0 F1200 
G1 X70.00 Y54.70 Z42.00 E0 F1200 
G1 X70.00 Y55.30 Z42.00 E0 F1200 
G1 X69.70 Y55.00 Z42.00 E0 F1200 
G1 X70.30 Y55.00 Z42.00 E0 F1200 
G1 X69.70 Y55.00 Z42.00 E0 F1200 
G1 X70.30 Y55.00 Z42.00 E0 F1200 
G1 X69.70 Y55.00 Z42.00 E0 F1200 
G1 X70.30 Y55.00 Z42.00 E0 F1200 
G1 X69.70 Y55.00 Z42.00 E0 F1200 
G1 X70.30 Y55.00 Z42.00 E0 F1200 
G1 X69.70 Y55.00 Z42.00 E0 F1200 
G1 X70.30 Y55.00 Z42.00 E0 F1200 
G1 X69.70 Y55.00 Z42.00 E0 F1200 
G1 X70.30 Y55.00 Z42.00 E0 F1200 
G1 X69.70 Y55.00 Z42.00 E0 F1200 
G1 X70.30 Y55.00 Z42.00 E0 F1200 
G1 X69.70 Y55.00 Z42.00 E0 F1200 
G1 X70.30 Y55.00 Z42.00 E0 F1200 
G1 X69.70 Y55.00 Z42.00 E0 F1200 
G1 X70.30 Y55.00 Z42.00 E0 F1200 
G1 X69.70 Y55.00 Z42.00 E0 F1200 
G1 X70.30 Y55.00 Z42.00 E0 F1200 
G1 X69.70 Y55.00 Z42.00 E0 F1200 
G1 X70.30 Y55.00 Z42.00 E0 F1200 
G1 X69.70 Y55.00 Z42.00 E0 F1200 
G1 X70.30 Y55.00 Z42.00 E0 F1200 
G1 X69.70 Y55.00 Z42.00 E0 F1200 
G1 X70.30 Y55.00 Z42.00 E0 F1200 
G1 X69.70 Y55.00 Z42.00 E0 F1200 
G1 X70.30 Y55.00 Z42.00 E0 F1200 
G1 X69.70 Y55.00 Z42.00 E0 F1200 
G1 X70.30 Y55.00 Z42.00 E0 F1200 
G1 X69.70 Y55.00 Z42.00 E0 F1200 
G1 X70.30 Y55.00 Z42.00 E0 F1200 
G1 X69.70 Y55.00 Z42.00 E0 F1200 
G1 X70.30 Y55.00 Z42.00 E0 F1200 
G1 X69.70 Y55.00 Z42.00 E0 F1200 
G1 X70.30 Y55.00 Z42.00 E0 F1200 
G1 X69.70 Y55.00 Z42.00 E0 F1200 
G1 X70.30 Y55.00 Z42.00 E0 F1200 
G1 X69.70 Y55.00 Z42.00 E0 F1200 
G1 X70.30 Y55.00 Z42.00 E0 F1200 
G1 X69.70 Y55.00 Z42.00 E0 F1200 
G1 X70.30 Y55.00 Z42.00 E0 F1200 
G1 X69.70 Y55.00 Z42.00 E0 F1200 
G1 X70.30 Y55.00 Z42.00 E0 F1200 
G1 X69.70 Y55.00 Z42.00 E0 F1200 
G1 X70.30 Y55.00 Z42.00 E0 F1200 
G1 X69.70 Y55.00 Z42.00 E0 F1200 
G1 X70.30 Y55.00 Z42.00 E0 F1200 
G1 X69.70 Y55.00 Z42.00 E0 F1200 
G1 X70.30 Y55.00 Z42.00 E0 F1200 
G1 X69.70 Y55.00 Z42.00 E0 F1200 
G1 X70.30 Y55.00 Z42.00 E0 F1200 
G1 X69.70 Y55.00 Z42.00 E0 F1200 
G1 X70.30 Y55.00 Z42.00 E0 F1200 
G1 X69.70 Y55.00 Z42.00 E0 F1200 
G1 X70.30 Y55.00 Z42.00 E0 F1200 
G1 X69.70 Y55.00 Z42.00 E0 F1200 
G1 X70.30 Y55.00 Z42.00 E0 F1200 
G1 X69.70 Y55.00 Z42.00 E0 F1200 
G1 X70.30 Y55.00 Z42.00 E0 F1200 
G1 X69.70 Y55.00 Z42.00 E0 F1200 
G1 X70.30 Y55.00 Z42.00 E0 F1200 
G1 X69.70 Y55.00 Z42.00 E0 F1200 
G1 X70.30 Y55.00 Z42.00 E0 F1200 
G1 X69.70 Y55.00 Z42.00 E0 F1200 
G1 X70.30 Y55.00 Z42.00 E0 F1200 
G1 X69.70 Y55.00 Z42.00 E0 F1200 
G1 X70.30 Y55.00 Z42.00 E0 F1200 
G1 X69.70 Y55.00 Z42.00 E0 F1200 
G1 X70.30 Y55.00 Z42.00 E0 F1200 
G1 X69.70 Y55.00 Z42.00 E0 F1200 
G1 X70.30 Y55.00 Z42.00 E0 F1200 
G1 X69.70 Y55.00 Z42.00 E0 F1200 
G1 X70.30 Y55.00 Z42.00 E0 F1200 
G1 X69.70 Y55.00 Z42.00 E0 F1200 
G1 X70.30 Y55.00 Z42.00 E0 F1200 
G1 X69.70 Y55.00 Z42.00 E0 F1200 
G1 X70.30 Y55.00 Z42.00 E0 F1200 
G1 X69.70 Y55.00 Z42.00 E0 F1200 
G1 X70.30 Y55.00 Z42.00 E0 F1200 
G1 X69.70 Y55.00 Z42.00 E0 F1200 
G1 X70.30 Y55.00 Z42.00 E0 F1200 
G1 X69.70 Y55.00 Z42.00 E0 F1200 
G1 X70.30 Y55.00 Z42.00 E0 F1200 
G1 X69.70 Y55.00 Z42.00 E0 F1200 
G1 X70.30 Y55.00 Z42.00 E0 F1200 
G1 X69.70 Y55.00 Z42.00 E0 F1200 
G1 X70.30 Y55.00 Z42.00 E0 F1200 
G1 X69.70 Y55.00 Z42.00 E0 F1200 
G1 X70.30 Y55.00 Z42.00 E0 F1200 
G1 X69.70 Y55.00 Z42.00 E0 F1200 
G1 X70.30 Y55.00 Z42.00 E0 F1200 
G1 X69.70 Y55.00 Z42.00 E0 F1200 
G1 X70.30 Y55.00 Z42.00 E0 F1200 
G1 X69.70 Y55.00 Z42.00 E0 F1200 
G1 X70.30 Y55.00 Z42.00 E0 F1200 
G1 X69.70 Y55.00 Z42.00 E0 F1200 
G1 X70.30 Y55.00 Z42.00 E0 F1200 
G1 X69.70 Y55.00 Z42.00 E0 F1200 
G1 X70.30 Y55.00 Z42.00 E0 F1200 
G1 X70.00 Y54.70 Z42.00 E0 F1200 
G1 X70.00 Y55.30 Z42.00 E0 F1200 
G1 X70.00 Y54.70 Z42.00 E0 F1200 
G1 X70.00 Y55.30 Z42.00 E0 F1200 
G1 X70.00 Y54.70 Z42.00 E0 F1200 
G1 X70.00 Y55.30 Z42.00 E0 F1200 
G1 X70.00 Y54.70 Z42.00 E0 F1200 
G1 X70.00 Y55.30 Z42.00 E0 F1200 
G1 X70.00 Y54.70 Z42.00 E0 F1200 
G1 X70.00 Y55.30 Z42.00 E0 F1200 
G1 X70.00 Y54.70 Z42.00 E0 F1200 
G1 X70.00 Y55.30 Z42.00 E0 F1200 
G1 X70.00 Y54.70 Z42.00 E0 F1200 
G1 X70.00 Y55.30 Z42.00 E0 F1200 
G1 X70.00 Y54.70 Z42.00 E0 F1200 
G1 X70.00 Y55.30 Z42.00 E0 F1200 
G1 X70.00 Y54.70 Z42.00 E0 F1200 
G1 X70.00 Y55.30 Z42.00 E0 F1200 
G1 X70.00 Y54.70 Z42.00 E0 F1200 
G1 X70.00 Y55.30 Z42.00 E0 F1200 
G1 X70.00 Y54.70 Z42.00 E0 F1200 
G1 X70.00 Y55.30 Z42.00 E0 F1200 
G1 X70.00 Y54.70 Z42.00 E0 F1200 
G1 X70.00 Y55.30 Z42.00 E0 F1200 
G1 X70.00 Y54.70 Z42.00 E0 F1200 
G1 X70.00 Y55.30 Z42.00 E0 F1200 
G1 X70.00 Y54.70 Z42.00 E0 F1200 
G1 X70.00 Y55.30 Z42.00 E0 F1200 
G1 X70.00 Y54.70 Z42.00 E0 F1200 
G1 X70.00 Y55.30 Z42.00 E0 F1200 
G1 X70.00 Y54.70 Z42.00 E0 F1200 
G1 X70.00 Y55.30 Z42.00 E0 F1200 
G1 X70.00 Y54.70 Z42.00 E0 F1200 
G1 X70.00 Y55.30 Z42.00 E0 F1200 
G1 X70.00 Y54.70 Z42.00 E0 F1200 
G1 X70.00 Y55.30 Z42.00 E0 F1200 
G1 X70.00 Y54.70 Z42.00 E0 F1200 
G1 X70.00 Y55.30 Z42.00 E0 F1200 
G1 X70.00 Y54.70 Z42.00 E0 F1200 
G1 X70.00 Y55.30 Z42.00 E0 F1200 
G1 X70.00 Y54.70 Z42.00 E0 F1200 
G1 X70.00 Y55.30 Z42.00 E0 F1200 
G1 X70.00 Y54.70 Z42.00 E0 F1200 
G1 X70.00 Y55.30 Z42.00 E0 F1200 
G1 X70.00 Y54.70 Z42.00 E0 F1200 
G1 X70.00 Y55.30 Z42.00 E0 F1200 
G1 X70.00 Y54.70 Z42.00 E0 F1200 
G1 X70.00 Y55.30 Z42.00 E0 F1200 
G1 X70.00 Y54.70 Z42.00 E0 F1200 
G1 X70.00 Y55.30 Z42.00 E0 F1200 
G1 X70.00 Y54.70 Z42.00 E0 F1200 
G1 X70.00 Y55.30 Z42.00 E0 F1200 
G1 X70.00 Y54.70 Z42.00 E0 F1200 
G1 X70.00 Y55.30 Z42.00 E0 F1200 
G1 X70.00 Y54.70 Z42.00 E0 F1200 
G1 X70.00 Y55.30 Z42.00 E0 F1200 
G1 X70.00 Y54.70 Z42.00 E0 F1200 
G1 X70.00 Y55.30 Z42.00 E0 F1200 
G1 X70.00 Y54.70 Z42.00 E0 F1200 
G1 X70.00 Y55.30 Z42.00 E0 F1200 
G1 X70.00 Y54.70 Z42.00 E0 F1200 
G1 X70.00 Y55.30 Z42.00 E0 F1200 
G1 X70.00 Y54.70 Z42.00 E0 F1200 
G1 X70.00 Y55.30 Z42.00 E0 F1200 
G1 X70.00 Y54.70 Z42.00 E0 F1200 
G1 X70.00 Y55.30 Z42.00 E0 F1200 
G1 X70.00 Y54.70 Z42.00 E0 F1200 
G1 X70.00 Y55.30 Z42.00 E0 F1200 
G1 X70.00 Y54.70 Z42.00 E0 F1200 
G1 X70.00 Y55.30 Z42.00 E0 F1200 
G1 X70.00 Y54.70 Z42.00 E0 F1200 
G1 X70.00 Y55.30 Z42.00 E0 F1200 
G1 X70.00 Y54.70 Z42.00 E0 F1200 
G1 X70.00 Y55.30 Z42.00 E0 F1200 
G1 X70.00 Y54.70 Z42.00 E0 F1200 
G1 X70.00 Y55.30 Z42.00 E0 F1200 
G1 X70.00 Y54.70 Z42.00 E0 F1200 
G1 X70.00 Y55.30 Z42.00 E0 F1200 
G1 X70.00 Y54.70 Z42.00 E0 F1200 
G1 X70.00 Y55.30 Z42.00 E0 F1200 
G1 X70.00 Y54.70 Z42.00 E0 F1200 
G1 X70.00 Y55.30 Z42.00 E0 F1200 
G1 X70.00 Y54.70 Z42.00 E0 F1200 
G1 X70.00 Y55.30 Z42.00 E0 F1200 
G1 X70.00 Y54.70 Z42.00 E0 F1200 
G1 X70.00 Y55.30 Z42.00 E0 F1200 
G1 X70.00 Y54.70 Z42.00 E0 F1200 
G1 X70.00 Y55.30 Z42.00 E0 F1200 
G1 X70.00 Y54.70 Z42.00 E0 F1200 
G1 X70.00 Y55.30 Z42.00 E0 F1200 
G1 X70.00 Y54.70 Z42.00 E0 F1200 
G1 X70.00 Y55.30 Z42.00 E0 F1200 
G1 X70.00 Y54.70 Z42.00 E0 F1200 
G1 X70.00 Y55.30 Z42.00 E0 F1200 
G1 X70.00 Y54.70 Z42.00 E0 F1200 
G1 X70.00 Y55.30 Z42.00 E0 F1200 
G1 X70.00 Y54.70 Z42.00 E0 F1200 
G1 X70.00 Y55.30 Z42.00 E0 F1200 
G1 X70.00 Y54.70 Z42.00 E0 F1200 
G1 X70.00 Y55.30 Z42.00 E0 F1200 
G1 X69.70 Y55.00 Z42.00 E0 F1200 
G1 X70.30 Y55.00 Z42.00 E0 F1200 
G1 X69.70 Y55.00 Z42.00 E0 F1200 
G1 X70.30 Y55.00 Z42.00 E0 F1200 
G1 X69.70 Y55.00 Z42.00 E0 F1200 
G1 X70.30 Y55.00 Z42.00 E0 F1200 
G1 X69.70 Y55.00 Z42.00 E0 F1200 
G1 X70.30 Y55.00 Z42.00 E0 F1200 
G1 X69.70 Y55.00 Z42.00 E0 F1200 
G1 X70.30 Y55.00 Z42.00 E0 F1200 
G1 X69.70 Y55.00 Z42.00 E0 F1200 
G1 X70.30 Y55.00 Z42.00 E0 F1200 
G1 X69.70 Y55.00 Z42.00 E0 F1200 
G1 X70.30 Y55.00 Z42.00 E0 F1200 
G1 X69.70 Y55.00 Z42.00 E0 F1200 
G1 X70.30 Y55.00 Z42.00 E0 F1200 
G1 X69.70 Y55.00 Z42.00 E0 F1200 
G1 X70.30 Y55.00 Z42.00 E0 F1200 
G1 X69.70 Y55.00 Z42.00 E0 F1200 
G1 X70.30 Y55.00 Z42.00 E0 F1200 
G1 X69.70 Y55.00 Z42.00 E0 F1200 
G1 X70.30 Y55.00 Z42.00 E0 F1200 
G1 X69.70 Y55.00 Z42.00 E0 F1200 
G1 X70.30 Y55.00 Z42.00 E0 F1200 
G1 X69.70 Y55.00 Z42.00 E0 F1200 
G1 X70.30 Y55.00 Z42.00 E0 F1200 
G1 X69.70 Y55.00 Z42.00 E0 F1200 
G1 X70.30 Y55.00 Z42.00 E0 F1200 
G1 X69.70 Y55.00 Z42.00 E0 F1200 
G1 X70.30 Y55.00 Z42.00 E0 F1200 
G1 X69.70 Y55.00 Z42.00 E0 F1200 
G1 X70.30 Y55.00 Z42.00 E0 F1200 
G1 X69.70 Y55.00 Z42.00 E0 F1200 
G1 X70.30 Y55.00 Z42.00 E0 F1200 
G1 X69.70 Y55.00 Z42.00 E0 F1200 
G1 X70.30 Y55.00 Z42.00 E0 F1200 
G1 X69.70 Y55.00 Z42.00 E0 F1200 
G1 X70.30 Y55.00 Z42.00 E0 F1200 
G1 X69.70 Y55.00 Z42.00 E0 F1200 
G1 X70.30 Y55.00 Z42.00 E0 F1200 
G1 X69.70 Y55.00 Z42.00 E0 F1200 
G1 X70.30 Y55.00 Z42.00 E0 F1200 
G1 X69.70 Y55.00 Z42.00 E0 F1200 
G1 X70.30 Y55.00 Z42.00 E0 F1200 
G1 X69.70 Y55.00 Z42.00 E0 F1200 
G1 X70.30 Y55.00 Z42.00 E0 F1200 
G1 X69.70 Y55.00 Z42.00 E0 F1200 
G1 X70.30 Y55.00 Z42.00 E0 F1200 
G1 X69.70 Y55.00 Z42.00 E0 F1200 
G1 X70.30 Y55.00 Z42.00 E0 F1200 
G1 X69.70 Y55.00 Z42.00 E0 F1200 
G1 X70.30 Y55.00 Z42.00 E0 F1200 
G1 X69.70 Y55.00 Z42.00 E0 F1200 
G1 X70.30 Y55.00 Z42.00 E0 F1200 
G1 X69.70 Y55.00 Z42.00 E0 F1200 
G1 X70.30 Y55.00 Z42.00 E0 F1200 
G1 X69.70 Y55.00 Z42.00 E0 F1200 
G1 X70.30 Y55.00 Z42.00 E0 F1200 
G1 X69.70 Y55.00 Z42.00 E0 F1200 
G1 X70.30 Y55.00 Z42.00 E0 F1200 
G1 X69.70 Y55.00 Z42.00 E0 F1200 
G1 X70.30 Y55.00 Z42.00 E0 F1200 
G1 X69.70 Y55.00 Z42.00 E0 F1200 
G1 X70.30 Y55.00 Z42.00 E0 F1200 
G1 X69.70 Y55.00 Z42.00 E0 F1200 
G1 X70.30 Y55.00 Z42.00 E0 F1200 
G1 X69.70 Y55.00 Z42.00 E0 F1200 
G1 X70.30 Y55.00 Z42.00 E0 F1200 
G1 X69.70 Y55.00 Z42.00 E0 F1200 
G1 X70.30 Y55.00 Z42.00 E0 F1200 
G1 X69.70 Y55.00 Z42.00 E0 F1200 
G1 X70.30 Y55.00 Z42.00 E0 F1200 
G1 X69.70 Y55.00 Z42.00 E0 F1200 
G1 X70.30 Y55.00 Z42.00 E0 F1200 
G1 X69.70 Y55.00 Z42.00 E0 F1200 
G1 X70.30 Y55.00 Z42.00 E0 F1200 
G1 X69.70 Y55.00 Z42.00 E0 F1200 
G1 X70.30 Y55.00 Z42.00 E0 F1200 
G1 X69.70 Y55.00 Z42.00 E0 F1200 
G1 X70.30 Y55.00 Z42.00 E0 F1200 
G1 X69.70 Y55.00 Z42.00 E0 F1200 
G1 X70.30 Y55.00 Z42.00 E0 F1200 
G1 X69.70 Y55.00 Z42.00 E0 F1200 
G1 X70.30 Y55.00 Z42.00 E0 F1200 
G1 X69.70 Y55.00 Z42.00 E0 F1200 
G1 X70.30 Y55.00 Z42.00 E0 F1200 
G1 X69.70 Y55.00 Z42.00 E0 F1200 
G1 X70.30 Y55.00 Z42.00 E0 F1200 
G1 X69.70 Y55.00 Z42.00 E0 F1200 
G1 X70.30 Y55.00 Z42.00 E0 F1200 
G1 X69.70 Y55.00 Z42.00 E0 F1200 
G1 X70.30 Y55.00 Z42.00 E0 F1200 
G1 X69.70 Y55.00 Z42.00 E0 F1200 
G1 X70.30 Y55.00 Z42.00 E0 F1200 
G1 X69.70 Y55.00 Z42.00 E0 F1200 
G1 X70.30 Y55.00 Z42.00 E0 F1200 
G1 X69.70 Y55.00 Z42.00 E0 F1200 
G1 X70.30 Y55.00 Z42.00 E0 F1200 
G1 X69.70 Y55.00 Z42.00 E0 F1200 
G1 X70.30 Y55.00 Z42.00 E0 F1200 
G1 X70.00 Y55.00 Z62.00 E0 F1200 
G1 X70.00 Y54.70 Z42.00 E0 F1200 
G1 X70.00 Y55.30 Z42.00 E0 F1200 
G1 X70.00 Y54.70 Z42.00 E0 F1200 
G1 X70.00 Y55.30 Z42.00 E0 F1200 
G1 X70.00 Y54.70 Z42.00 E0 F1200 
G1 X70.00 Y55.30 Z42.00 E0 F1200 
G1 X70.00 Y54.70 Z42.00 E0 F1200 
G1 X70.00 Y55.30 Z42.00 E0 F1200 
G1 X70.00 Y54.70 Z42.00 E0 F1200 
G1 X70.00 Y55.30 Z42.00 E0 F1200 
G1 X70.00 Y54.70 Z42.00 E0 F1200 
G1 X70.00 Y55.30 Z42.00 E0 F1200 
G1 X70.00 Y54.70 Z42.00 E0 F1200 
G1 X70.00 Y55.30 Z42.00 E0 F1200 
G1 X70.00 Y54.70 Z42.00 E0 F1200 
G1 X70.00 Y55.30 Z42.00 E0 F1200 
G1 X70.00 Y54.70 Z42.00 E0 F1200 
G1 X70.00 Y55.30 Z42.00 E0 F1200 
G1 X70.00 Y54.70 Z42.00 E0 F1200 
G1 X70.00 Y55.30 Z42.00 E0 F1200 
G1 X70.00 Y54.70 Z42.00 E0 F1200 
G1 X70.00 Y55.30 Z42.00 E0 F1200 
G1 X70.00 Y54.70 Z42.00 E0 F1200 
G1 X70.00 Y55.30 Z42.00 E0 F1200 
G1 X70.00 Y54.70 Z42.00 E0 F1200 
G1 X70.00 Y55.30 Z42.00 E0 F1200 
G1 X70.00 Y54.70 Z42.00 E0 F1200 
G1 X70.00 Y55.30 Z42.00 E0 F1200 
G1 X70.00 Y54.70 Z42.00 E0 F1200 
G1 X70.00 Y55.30 Z42.00 E0 F1200 
G1 X70.00 Y54.70 Z42.00 E0 F1200 
G1 X70.00 Y55.30 Z42.00 E0 F1200 
G1 X70.00 Y54.70 Z42.00 E0 F1200 
G1 X70.00 Y55.30 Z42.00 E0 F1200 
G1 X70.00 Y54.70 Z42.00 E0 F1200 
G1 X70.00 Y55.30 Z42.00 E0 F1200 
G1 X70.00 Y54.70 Z42.00 E0 F1200 
G1 X70.00 Y55.30 Z42.00 E0 F1200 
G1 X70.00 Y54.70 Z42.00 E0 F1200 
G1 X70.00 Y55.30 Z42.00 E0 F1200 
G1 X70.00 Y54.70 Z42.00 E0 F1200 
G1 X70.00 Y55.30 Z42.00 E0 F1200 
G1 X70.00 Y54.70 Z42.00 E0 F1200 
G1 X70.00 Y55.30 Z42.00 E0 F1200 
G1 X70.00 Y54.70 Z42.00 E0 F1200 
G1 X70.00 Y55.30 Z42.00 E0 F1200 
G1 X70.00 Y54.70 Z42.00 E0 F1200 
G1 X70.00 Y55.30 Z42.00 E0 F1200 
G1 X70.00 Y54.70 Z42.00 E0 F1200 
G1 X70.00 Y55.30 Z42.00 E0 F1200 
G1 X70.00 Y54.70 Z42.00 E0 F1200 
G1 X70.00 Y55.30 Z42.00 E0 F1200 
G1 X70.00 Y54.70 Z42.00 E0 F1200 
G1 X70.00 Y55.30 Z42.00 E0 F1200 
G1 X70.00 Y54.70 Z42.00 E0 F1200 
G1 X70.00 Y55.30 Z42.00 E0 F1200 
G1 X70.00 Y54.70 Z42.00 E0 F1200 
G1 X70.00 Y55.30 Z42.00 E0 F1200 
G1 X70.00 Y54.70 Z42.00 E0 F1200 
G1 X70.00 Y55.30 Z42.00 E0 F1200 
G1 X70.00 Y54.70 Z42.00 E0 F1200 
G1 X70.00 Y55.30 Z42.00 E0 F1200 
G1 X70.00 Y54.70 Z42.00 E0 F1200 
G1 X70.00 Y55.30 Z42.00 E0 F1200 
G1 X70.00 Y54.70 Z42.00 E0 F1200 
G1 X70.00 Y55.30 Z42.00 E0 F1200 
G1 X70.00 Y54.70 Z42.00 E0 F1200 
G1 X70.00 Y55.30 Z42.00 E0 F1200 
G1 X70.00 Y54.70 Z42.00 E0 F1200 
G1 X70.00 Y55.30 Z42.00 E0 F1200 
G1 X70.00 Y54.70 Z42.00 E0 F1200 
G1 X70.00 Y55.30 Z42.00 E0 F1200 
G1 X70.00 Y54.70 Z42.00 E0 F1200 
G1 X70.00 Y55.30 Z42.00 E0 F1200 
G1 X70.00 Y54.70 Z42.00 E0 F1200 
G1 X70.00 Y55.30 Z42.00 E0 F1200 
G1 X70.00 Y54.70 Z42.00 E0 F1200 
G1 X70.00 Y55.30 Z42.00 E0 F1200 
G1 X70.00 Y54.70 Z42.00 E0 F1200 
G1 X70.00 Y55.30 Z42.00 E0 F1200 
G1 X70.00 Y54.70 Z42.00 E0 F1200 
G1 X70.00 Y55.30 Z42.00 E0 F1200 
G1 X70.00 Y54.70 Z42.00 E0 F1200 
G1 X70.00 Y55.30 Z42.00 E0 F1200 
G1 X70.00 Y54.70 Z42.00 E0 F1200 
G1 X70.00 Y55.30 Z42.00 E0 F1200 
G1 X70.00 Y54.70 Z42.00 E0 F1200 
G1 X70.00 Y55.30 Z42.00 E0 F1200 
G1 X70.00 Y54.70 Z42.00 E0 F1200 
G1 X70.00 Y55.30 Z42.00 E0 F1200 
G1 X70.00 Y54.70 Z42.00 E0 F1200 
G1 X70.00 Y55.30 Z42.00 E0 F1200 
G1 X70.00 Y54.70 Z42.00 E0 F1200 
G1 X70.00 Y55.30 Z42.00 E0 F1200 
G1 X70.00 Y54.70 Z42.00 E0 F1200 
G1 X70.00 Y55.30 Z42.00 E0 F1200 
G1 X70.00 Y54.70 Z42.00 E0 F1200 
G1 X70.00 Y55.30 Z42.00 E0 F1200 
G1 X70.00 Y54.70 Z42.00 E0 F1200 
G1 X70.00 Y55.30 Z42.00 E0 F1200 
G1 X69.70 Y55.00 Z42.00 E0 F1200 
G1 X70.30 Y55.00 Z42.00 E0 F1200 
G1 X69.70 Y55.00 Z42.00 E0 F1200 
G1 X70.30 Y55.00 Z42.00 E0 F1200 
G1 X69.70 Y55.00 Z42.00 E0 F1200 
G1 X70.30 Y55.00 Z42.00 E0 F1200 
G1 X69.70 Y55.00 Z42.00 E0 F1200 
G1 X70.30 Y55.00 Z42.00 E0 F1200 
G1 X69.70 Y55.00 Z42.00 E0 F1200 
G1 X70.30 Y55.00 Z42.00 E0 F1200 
G1 X69.70 Y55.00 Z42.00 E0 F1200 
G1 X70.30 Y55.00 Z42.00 E0 F1200 
G1 X69.70 Y55.00 Z42.00 E0 F1200 
G1 X70.30 Y55.00 Z42.00 E0 F1200 
G1 X69.70 Y55.00 Z42.00 E0 F1200 
G1 X70.30 Y55.00 Z42.00 E0 F1200 
G1 X69.70 Y55.00 Z42.00 E0 F1200 
G1 X70.30 Y55.00 Z42.00 E0 F1200 
G1 X69.70 Y55.00 Z42.00 E0 F1200 
G1 X70.30 Y55.00 Z42.00 E0 F1200 
G1 X69.70 Y55.00 Z42.00 E0 F1200 
G1 X70.30 Y55.00 Z42.00 E0 F1200 
G1 X69.70 Y55.00 Z42.00 E0 F1200 
G1 X70.30 Y55.00 Z42.00 E0 F1200 
G1 X69.70 Y55.00 Z42.00 E0 F1200 
G1 X70.30 Y55.00 Z42.00 E0 F1200 
G1 X69.70 Y55.00 Z42.00 E0 F1200 
G1 X70.30 Y55.00 Z42.00 E0 F1200 
G1 X69.70 Y55.00 Z42.00 E0 F1200 
G1 X70.30 Y55.00 Z42.00 E0 F1200 
G1 X69.70 Y55.00 Z42.00 E0 F1200 
G1 X70.30 Y55.00 Z42.00 E0 F1200 
G1 X69.70 Y55.00 Z42.00 E0 F1200 
G1 X70.30 Y55.00 Z42.00 E0 F1200 
G1 X69.70 Y55.00 Z42.00 E0 F1200 
G1 X70.30 Y55.00 Z42.00 E0 F1200 
G1 X69.70 Y55.00 Z42.00 E0 F1200 
G1 X70.30 Y55.00 Z42.00 E0 F1200 
G1 X69.70 Y55.00 Z42.00 E0 F1200 
G1 X70.30 Y55.00 Z42.00 E0 F1200 
G1 X69.70 Y55.00 Z42.00 E0 F1200 
G1 X70.30 Y55.00 Z42.00 E0 F1200 
G1 X69.70 Y55.00 Z42.00 E0 F1200 
G1 X70.30 Y55.00 Z42.00 E0 F1200 
G1 X69.70 Y55.00 Z42.00 E0 F1200 
G1 X70.30 Y55.00 Z42.00 E0 F1200 
G1 X69.70 Y55.00 Z42.00 E0 F1200 
G1 X70.30 Y55.00 Z42.00 E0 F1200 
G1 X69.70 Y55.00 Z42.00 E0 F1200 
G1 X70.30 Y55.00 Z42.00 E0 F1200 
G1 X69.70 Y55.00 Z42.00 E0 F1200 
G1 X70.30 Y55.00 Z42.00 E0 F1200 
G1 X69.70 Y55.00 Z42.00 E0 F1200 
G1 X70.30 Y55.00 Z42.00 E0 F1200 
G1 X69.70 Y55.00 Z42.00 E0 F1200 
G1 X70.30 Y55.00 Z42.00 E0 F1200 
G1 X69.70 Y55.00 Z42.00 E0 F1200 
G1 X70.30 Y55.00 Z42.00 E0 F1200 
G1 X69.70 Y55.00 Z42.00 E0 F1200 
G1 X70.30 Y55.00 Z42.00 E0 F1200 
G1 X69.70 Y55.00 Z42.00 E0 F1200 
G1 X70.30 Y55.00 Z42.00 E0 F1200 
G1 X69.70 Y55.00 Z42.00 E0 F1200 
G1 X70.30 Y55.00 Z42.00 E0 F1200 
G1 X69.70 Y55.00 Z42.00 E0 F1200 
G1 X70.30 Y55.00 Z42.00 E0 F1200 
G1 X69.70 Y55.00 Z42.00 E0 F1200 
G1 X70.30 Y55.00 Z42.00 E0 F1200 
G1 X69.70 Y55.00 Z42.00 E0 F1200 
G1 X70.30 Y55.00 Z42.00 E0 F1200 
G1 X69.70 Y55.00 Z42.00 E0 F1200 
G1 X70.30 Y55.00 Z42.00 E0 F1200 
G1 X69.70 Y55.00 Z42.00 E0 F1200 
G1 X70.30 Y55.00 Z42.00 E0 F1200 
G1 X69.70 Y55.00 Z42.00 E0 F1200 
G1 X70.30 Y55.00 Z42.00 E0 F1200 
G1 X69.70 Y55.00 Z42.00 E0 F1200 
G1 X70.30 Y55.00 Z42.00 E0 F1200 
G1 X69.70 Y55.00 Z42.00 E0 F1200 
G1 X70.30 Y55.00 Z42.00 E0 F1200 
G1 X69.70 Y55.00 Z42.00 E0 F1200 
G1 X70.30 Y55.00 Z42.00 E0 F1200 
G1 X69.70 Y55.00 Z42.00 E0 F1200 
G1 X70.30 Y55.00 Z42.00 E0 F1200 
G1 X69.70 Y55.00 Z42.00 E0 F1200 
G1 X70.30 Y55.00 Z42.00 E0 F1200 
G1 X69.70 Y55.00 Z42.00 E0 F1200 
G1 X70.30 Y55.00 Z42.00 E0 F1200 
G1 X69.70 Y55.00 Z42.00 E0 F1200 
G1 X70.30 Y55.00 Z42.00 E0 F1200 
G1 X69.70 Y55.00 Z42.00 E0 F1200 
G1 X70.30 Y55.00 Z42.00 E0 F1200 
G1 X69.70 Y55.00 Z42.00 E0 F1200 
G1 X70.30 Y55.00 Z42.00 E0 F1200 
G1 X69.70 Y55.00 Z42.00 E0 F1200 
G1 X70.30 Y55.00 Z42.00 E0 F1200 
G1 X69.70 Y55.00 Z42.00 E0 F1200 
G1 X70.30 Y55.00 Z42.00 E0 F1200 
G1 X69.70 Y55.00 Z42.00 E0 F1200 
G1 X70.30 Y55.00 Z42.00 E0 F1200 
G1 X70.00 Y54.70 Z42.00 E0 F1200 
G1 X70.00 Y55.30 Z42.00 E0 F1200 
G1 X70.00 Y54.70 Z42.00 E0 F1200 
G1 X70.00 Y55.30 Z42.00 E0 F1200 
G1 X70.00 Y54.70 Z42.00 E0 F1200 
G1 X70.00 Y55.30 Z42.00 E0 F1200 
G1 X70.00 Y54.70 Z42.00 E0 F1200 
G1 X70.00 Y55.30 Z42.00 E0 F1200 
G1 X70.00 Y54.70 Z42.00 E0 F1200 
G1 X70.00 Y55.30 Z42.00 E0 F1200 
G1 X70.00 Y54.70 Z42.00 E0 F1200 
G1 X70.00 Y55.30 Z42.00 E0 F1200 
G1 X70.00 Y54.70 Z42.00 E0 F1200 
G1 X70.00 Y55.30 Z42.00 E0 F1200 
G1 X70.00 Y54.70 Z42.00 E0 F1200 
G1 X70.00 Y55.30 Z42.00 E0 F1200 
G1 X70.00 Y54.70 Z42.00 E0 F1200 
G1 X70.00 Y55.30 Z42.00 E0 F1200 
G1 X70.00 Y54.70 Z42.00 E0 F1200 
G1 X70.00 Y55.30 Z42.00 E0 F1200 
G1 X70.00 Y54.70 Z42.00 E0 F1200 
G1 X70.00 Y55.30 Z42.00 E0 F1200 
G1 X70.00 Y54.70 Z42.00 E0 F1200 
G1 X70.00 Y55.30 Z42.00 E0 F1200 
G1 X70.00 Y54.70 Z42.00 E0 F1200 
G1 X70.00 Y55.30 Z42.00 E0 F1200 
G1 X70.00 Y54.70 Z42.00 E0 F1200 
G1 X70.00 Y55.30 Z42.00 E0 F1200 
G1 X70.00 Y54.70 Z42.00 E0 F1200 
G1 X70.00 Y55.30 Z42.00 E0 F1200 
G1 X70.00 Y54.70 Z42.00 E0 F1200 
G1 X70.00 Y55.30 Z42.00 E0 F1200 
G1 X70.00 Y54.70 Z42.00 E0 F1200 
G1 X70.00 Y55.30 Z42.00 E0 F1200 
G1 X70.00 Y54.70 Z42.00 E0 F1200 
G1 X70.00 Y55.30 Z42.00 E0 F1200 
G1 X70.00 Y54.70 Z42.00 E0 F1200 
G1 X70.00 Y55.30 Z42.00 E0 F1200 
G1 X70.00 Y54.70 Z42.00 E0 F1200 
G1 X70.00 Y55.30 Z42.00 E0 F1200 
G1 X70.00 Y54.70 Z42.00 E0 F1200 
G1 X70.00 Y55.30 Z42.00 E0 F1200 
G1 X70.00 Y54.70 Z42.00 E0 F1200 
G1 X70.00 Y55.30 Z42.00 E0 F1200 
G1 X70.00 Y54.70 Z42.00 E0 F1200 
G1 X70.00 Y55.30 Z42.00 E0 F1200 
G1 X70.00 Y54.70 Z42.00 E0 F1200 
G1 X70.00 Y55.30 Z42.00 E0 F1200 
G1 X70.00 Y54.70 Z42.00 E0 F1200 
G1 X70.00 Y55.30 Z42.00 E0 F1200 
G1 X70.00 Y54.70 Z42.00 E0 F1200 
G1 X70.00 Y55.30 Z42.00 E0 F1200 
G1 X70.00 Y54.70 Z42.00 E0 F1200 
G1 X70.00 Y55.30 Z42.00 E0 F1200 
G1 X70.00 Y54.70 Z42.00 E0 F1200 
G1 X70.00 Y55.30 Z42.00 E0 F1200 
G1 X70.00 Y54.70 Z42.00 E0 F1200 
G1 X70.00 Y55.30 Z42.00 E0 F1200 
G1 X70.00 Y54.70 Z42.00 E0 F1200 
G1 X70.00 Y55.30 Z42.00 E0 F1200 
G1 X70.00 Y54.70 Z42.00 E0 F1200 
G1 X70.00 Y55.30 Z42.00 E0 F1200 
G1 X70.00 Y54.70 Z42.00 E0 F1200 
G1 X70.00 Y55.30 Z42.00 E0 F1200 
G1 X70.00 Y54.70 Z42.00 E0 F1200 
G1 X70.00 Y55.30 Z42.00 E0 F1200 
G1 X70.00 Y54.70 Z42.00 E0 F1200 
G1 X70.00 Y55.30 Z42.00 E0 F1200 
G1 X70.00 Y54.70 Z42.00 E0 F1200 
G1 X70.00 Y55.30 Z42.00 E0 F1200 
G1 X70.00 Y54.70 Z42.00 E0 F1200 
G1 X70.00 Y55.30 Z42.00 E0 F1200 
G1 X70.00 Y54.70 Z42.00 E0 F1200 
G1 X70.00 Y55.30 Z42.00 E0 F1200 
G1 X70.00 Y54.70 Z42.00 E0 F1200 
G1 X70.00 Y55.30 Z42.00 E0 F1200 
G1 X70.00 Y54.70 Z42.00 E0 F1200 
G1 X70.00 Y55.30 Z42.00 E0 F1200 
G1 X70.00 Y54.70 Z42.00 E0 F1200 
G1 X70.00 Y55.30 Z42.00 E0 F1200 
G1 X70.00 Y54.70 Z42.00 E0 F1200 
G1 X70.00 Y55.30 Z42.00 E0 F1200 
G1 X70.00 Y54.70 Z42.00 E0 F1200 
G1 X70.00 Y55.30 Z42.00 E0 F1200 
G1 X70.00 Y54.70 Z42.00 E0 F1200 
G1 X70.00 Y55.30 Z42.00 E0 F1200 
G1 X70.00 Y54.70 Z42.00 E0 F1200 
G1 X70.00 Y55.30 Z42.00 E0 F1200 
G1 X70.00 Y54.70 Z42.00 E0 F1200 
G1 X70.00 Y55.30 Z42.00 E0 F1200 
G1 X70.00 Y54.70 Z42.00 E0 F1200 
G1 X70.00 Y55.30 Z42.00 E0 F1200 
G1 X70.00 Y54.70 Z42.00 E0 F1200 
G1 X70.00 Y55.30 Z42.00 E0 F1200 
G1 X70.00 Y54.70 Z42.00 E0 F1200 
G1 X70.00 Y55.30 Z42.00 E0 F1200 
G1 X70.00 Y54.70 Z42.00 E0 F1200 
G1 X70.00 Y55.30 Z42.00 E0 F1200 
G1 X70.00 Y54.70 Z42.00 E0 F1200 
G1 X70.00 Y55.30 Z42.00 E0 F1200 
G1 X69.70 Y55.00 Z42.00 E0 F1200 
G1 X70.30 Y55.00 Z42.00 E0 F1200 
G1 X69.70 Y55.00 Z42.00 E0 F1200 
G1 X70.30 Y55.00 Z42.00 E0 F1200 
G1 X69.70 Y55.00 Z42.00 E0 F1200 
G1 X70.30 Y55.00 Z42.00 E0 F1200 
G1 X69.70 Y55.00 Z42.00 E0 F1200 
G1 X70.30 Y55.00 Z42.00 E0 F1200 
G1 X69.70 Y55.00 Z42.00 E0 F1200 
G1 X70.30 Y55.00 Z42.00 E0 F1200 
G1 X69.70 Y55.00 Z42.00 E0 F1200 
G1 X70.30 Y55.00 Z42.00 E0 F1200 
G1 X69.70 Y55.00 Z42.00 E0 F1200 
G1 X70.30 Y55.00 Z42.00 E0 F1200 
G1 X69.70 Y55.00 Z42.00 E0 F1200 
G1 X70.30 Y55.00 Z42.00 E0 F1200 
G1 X69.70 Y55.00 Z42.00 E0 F1200 
G1 X70.30 Y55.00 Z42.00 E0 F1200 
G1 X69.70 Y55.00 Z42.00 E0 F1200 
G1 X70.30 Y55.00 Z42.00 E0 F1200 
G1 X69.70 Y55.00 Z42.00 E0 F1200 
G1 X70.30 Y55.00 Z42.00 E0 F1200 
G1 X69.70 Y55.00 Z42.00 E0 F1200 
G1 X70.30 Y55.00 Z42.00 E0 F1200 
G1 X69.70 Y55.00 Z42.00 E0 F1200 
G1 X70.30 Y55.00 Z42.00 E0 F1200 
G1 X69.70 Y55.00 Z42.00 E0 F1200 
G1 X70.30 Y55.00 Z42.00 E0 F1200 
G1 X69.70 Y55.00 Z42.00 E0 F1200 
G1 X70.30 Y55.00 Z42.00 E0 F1200 
G1 X69.70 Y55.00 Z42.00 E0 F1200 
G1 X70.30 Y55.00 Z42.00 E0 F1200 
G1 X69.70 Y55.00 Z42.00 E0 F1200 
G1 X70.30 Y55.00 Z42.00 E0 F1200 
G1 X69.70 Y55.00 Z42.00 E0 F1200 
G1 X70.30 Y55.00 Z42.00 E0 F1200 
G1 X69.70 Y55.00 Z42.00 E0 F1200 
G1 X70.30 Y55.00 Z42.00 E0 F1200 
G1 X69.70 Y55.00 Z42.00 E0 F1200 
G1 X70.30 Y55.00 Z42.00 E0 F1200 
G1 X69.70 Y55.00 Z42.00 E0 F1200 
G1 X70.30 Y55.00 Z42.00 E0 F1200 
G1 X69.70 Y55.00 Z42.00 E0 F1200 
G1 X70.30 Y55.00 Z42.00 E0 F1200 
G1 X69.70 Y55.00 Z42.00 E0 F1200 
G1 X70.30 Y55.00 Z42.00 E0 F1200 
G1 X69.70 Y55.00 Z42.00 E0 F1200 
G1 X70.30 Y55.00 Z42.00 E0 F1200 
G1 X69.70 Y55.00 Z42.00 E0 F1200 
G1 X70.30 Y55.00 Z42.00 E0 F1200 
G1 X69.70 Y55.00 Z42.00 E0 F1200 
G1 X70.30 Y55.00 Z42.00 E0 F1200 
G1 X69.70 Y55.00 Z42.00 E0 F1200 
G1 X70.30 Y55.00 Z42.00 E0 F1200 
G1 X69.70 Y55.00 Z42.00 E0 F1200 
G1 X70.30 Y55.00 Z42.00 E0 F1200 
G1 X69.70 Y55.00 Z42.00 E0 F1200 
G1 X70.30 Y55.00 Z42.00 E0 F1200 
G1 X69.70 Y55.00 Z42.00 E0 F1200 
G1 X70.30 Y55.00 Z42.00 E0 F1200 
G1 X69.70 Y55.00 Z42.00 E0 F1200 
G1 X70.30 Y55.00 Z42.00 E0 F1200 
G1 X69.70 Y55.00 Z42.00 E0 F1200 
G1 X70.30 Y55.00 Z42.00 E0 F1200 
G1 X69.70 Y55.00 Z42.00 E0 F1200 
G1 X70.30 Y55.00 Z42.00 E0 F1200 
G1 X69.70 Y55.00 Z42.00 E0 F1200 
G1 X70.30 Y55.00 Z42.00 E0 F1200 
G1 X69.70 Y55.00 Z42.00 E0 F1200 
G1 X70.30 Y55.00 Z42.00 E0 F1200 
G1 X69.70 Y55.00 Z42.00 E0 F1200 
G1 X70.30 Y55.00 Z42.00 E0 F1200 
G1 X69.70 Y55.00 Z42.00 E0 F1200 
G1 X70.30 Y55.00 Z42.00 E0 F1200 
G1 X69.70 Y55.00 Z42.00 E0 F1200 
G1 X70.30 Y55.00 Z42.00 E0 F1200 
G1 X69.70 Y55.00 Z42.00 E0 F1200 
G1 X70.30 Y55.00 Z42.00 E0 F1200 
G1 X69.70 Y55.00 Z42.00 E0 F1200 
G1 X70.30 Y55.00 Z42.00 E0 F1200 
G1 X69.70 Y55.00 Z42.00 E0 F1200 
G1 X70.30 Y55.00 Z42.00 E0 F1200 
G1 X69.70 Y55.00 Z42.00 E0 F1200 
G1 X70.30 Y55.00 Z42.00 E0 F1200 
G1 X69.70 Y55.00 Z42.00 E0 F1200 
G1 X70.30 Y55.00 Z42.00 E0 F1200 
G1 X69.70 Y55.00 Z42.00 E0 F1200 
G1 X70.30 Y55.00 Z42.00 E0 F1200 
G1 X69.70 Y55.00 Z42.00 E0 F1200 
G1 X70.30 Y55.00 Z42.00 E0 F1200 
G1 X69.70 Y55.00 Z42.00 E0 F1200 
G1 X70.30 Y55.00 Z42.00 E0 F1200 
G1 X69.70 Y55.00 Z42.00 E0 F1200 
G1 X70.30 Y55.00 Z42.00 E0 F1200 
G1 X69.70 Y55.00 Z42.00 E0 F1200 
G1 X70.30 Y55.00 Z42.00 E0 F1200 
G1 X69.70 Y55.00 Z42.00 E0 F1200 
G1 X70.30 Y55.00 Z42.00 E0 F1200 
G1 X69.70 Y55.00 Z42.00 E0 F1200 
G1 X70.30 Y55.00 Z42.00 E0 F1200 
G1 X70.00 Y54.70 Z42.00 E0 F1200 
G1 X70.00 Y55.30 Z42.00 E0 F1200 
G1 X70.00 Y54.70 Z42.00 E0 F1200 
G1 X70.00 Y55.30 Z42.00 E0 F1200 
G1 X70.00 Y54.70 Z42.00 E0 F1200 
G1 X70.00 Y55.30 Z42.00 E0 F1200 
G1 X70.00 Y54.70 Z42.00 E0 F1200 
G1 X70.00 Y55.30 Z42.00 E0 F1200 
G1 X70.00 Y54.70 Z42.00 E0 F1200 
G1 X70.00 Y55.30 Z42.00 E0 F1200 
G1 X70.00 Y54.70 Z42.00 E0 F1200 
G1 X70.00 Y55.30 Z42.00 E0 F1200 
G1 X70.00 Y54.70 Z42.00 E0 F1200 
G1 X70.00 Y55.30 Z42.00 E0 F1200 
G1 X70.00 Y54.70 Z42.00 E0 F1200 
G1 X70.00 Y55.30 Z42.00 E0 F1200 
G1 X70.00 Y54.70 Z42.00 E0 F1200 
G1 X70.00 Y55.30 Z42.00 E0 F1200 
G1 X70.00 Y54.70 Z42.00 E0 F1200 
G1 X70.00 Y55.30 Z42.00 E0 F1200 
G1 X70.00 Y54.70 Z42.00 E0 F1200 
G1 X70.00 Y55.30 Z42.00 E0 F1200 
G1 X70.00 Y54.70 Z42.00 E0 F1200 
G1 X70.00 Y55.30 Z42.00 E0 F1200 
G1 X70.00 Y54.70 Z42.00 E0 F1200 
G1 X70.00 Y55.30 Z42.00 E0 F1200 
G1 X70.00 Y54.70 Z42.00 E0 F1200 
G1 X70.00 Y55.30 Z42.00 E0 F1200 
G1 X70.00 Y54.70 Z42.00 E0 F1200 
G1 X70.00 Y55.30 Z42.00 E0 F1200 
G1 X70.00 Y54.70 Z42.00 E0 F1200 
G1 X70.00 Y55.30 Z42.00 E0 F1200 
G1 X70.00 Y54.70 Z42.00 E0 F1200 
G1 X70.00 Y55.30 Z42.00 E0 F1200 
G1 X70.00 Y54.70 Z42.00 E0 F1200 
G1 X70.00 Y55.30 Z42.00 E0 F1200 
G1 X70.00 Y54.70 Z42.00 E0 F1200 
G1 X70.00 Y55.30 Z42.00 E0 F1200 
G1 X70.00 Y54.70 Z42.00 E0 F1200 
G1 X70.00 Y55.30 Z42.00 E0 F1200 
G1 X70.00 Y54.70 Z42.00 E0 F1200 
G1 X70.00 Y55.30 Z42.00 E0 F1200 
G1 X70.00 Y54.70 Z42.00 E0 F1200 
G1 X70.00 Y55.30 Z42.00 E0 F1200 
G1 X70.00 Y54.70 Z42.00 E0 F1200 
G1 X70.00 Y55.30 Z42.00 E0 F1200 
G1 X70.00 Y54.70 Z42.00 E0 F1200 
G1 X70.00 Y55.30 Z42.00 E0 F1200 
G1 X70.00 Y54.70 Z42.00 E0 F1200 
G1 X70.00 Y55.30 Z42.00 E0 F1200 
G1 X70.00 Y54.70 Z42.00 E0 F1200 
G1 X70.00 Y55.30 Z42.00 E0 F1200 
G1 X70.00 Y54.70 Z42.00 E0 F1200 
G1 X70.00 Y55.30 Z42.00 E0 F1200 
G1 X70.00 Y54.70 Z42.00 E0 F1200 
G1 X70.00 Y55.30 Z42.00 E0 F1200 
G1 X70.00 Y54.70 Z42.00 E0 F1200 
G1 X70.00 Y55.30 Z42.00 E0 F1200 
G1 X70.00 Y54.70 Z42.00 E0 F1200 
G1 X70.00 Y55.30 Z42.00 E0 F1200 
G1 X70.00 Y54.70 Z42.00 E0 F1200 
G1 X70.00 Y55.30 Z42.00 E0 F1200 
G1 X70.00 Y54.70 Z42.00 E0 F1200 
G1 X70.00 Y55.30 Z42.00 E0 F1200 
G1 X70.00 Y54.70 Z42.00 E0 F1200 
G1 X70.00 Y55.30 Z42.00 E0 F1200 
G1 X70.00 Y54.70 Z42.00 E0 F1200 
G1 X70.00 Y55.30 Z42.00 E0 F1200 
G1 X70.00 Y54.70 Z42.00 E0 F1200 
G1 X70.00 Y55.30 Z42.00 E0 F1200 
G1 X70.00 Y54.70 Z42.00 E0 F1200 
G1 X70.00 Y55.30 Z42.00 E0 F1200 
G1 X70.00 Y54.70 Z42.00 E0 F1200 
G1 X70.00 Y55.30 Z42.00 E0 F1200 
G1 X70.00 Y54.70 Z42.00 E0 F1200 
G1 X70.00 Y55.30 Z42.00 E0 F1200 
G1 X70.00 Y54.70 Z42.00 E0 F1200 
G1 X70.00 Y55.30 Z42.00 E0 F1200 
G1 X70.00 Y54.70 Z42.00 E0 F1200 
G1 X70.00 Y55.30 Z42.00 E0 F1200 
G1 X70.00 Y54.70 Z42.00 E0 F1200 
G1 X70.00 Y55.30 Z42.00 E0 F1200 
G1 X70.00 Y54.70 Z42.00 E0 F1200 
G1 X70.00 Y55.30 Z42.00 E0 F1200 
G1 X70.00 Y54.70 Z42.00 E0 F1200 
G1 X70.00 Y55.30 Z42.00 E0 F1200 
G1 X70.00 Y54.70 Z42.00 E0 F1200 
G1 X70.00 Y55.30 Z42.00 E0 F1200 
G1 X70.00 Y54.70 Z42.00 E0 F1200 
G1 X70.00 Y55.30 Z42.00 E0 F1200 
G1 X70.00 Y54.70 Z42.00 E0 F1200 
G1 X70.00 Y55.30 Z42.00 E0 F1200 
G1 X70.00 Y54.70 Z42.00 E0 F1200 
G1 X70.00 Y55.30 Z42.00 E0 F1200 
G1 X70.00 Y54.70 Z42.00 E0 F1200 
G1 X70.00 Y55.30 Z42.00 E0 F1200 
G1 X70.00 Y54.70 Z42.00 E0 F1200 
G1 X70.00 Y55.30 Z42.00 E0 F1200 
G1 X70.00 Y54.70 Z42.00 E0 F1200 
G1 X70.00 Y55.30 Z42.00 E0 F1200 
G1 X69.70 Y55.00 Z42.00 E0 F1200 
G1 X70.30 Y55.00 Z42.00 E0 F1200 
G1 X69.70 Y55.00 Z42.00 E0 F1200 
G1 X70.30 Y55.00 Z42.00 E0 F1200 
G1 X69.70 Y55.00 Z42.00 E0 F1200 
G1 X70.30 Y55.00 Z42.00 E0 F1200 
G1 X69.70 Y55.00 Z42.00 E0 F1200 
G1 X70.30 Y55.00 Z42.00 E0 F1200 
G1 X69.70 Y55.00 Z42.00 E0 F1200 
G1 X70.30 Y55.00 Z42.00 E0 F1200 
G1 X69.70 Y55.00 Z42.00 E0 F1200 
G1 X70.30 Y55.00 Z42.00 E0 F1200 
G1 X69.70 Y55.00 Z42.00 E0 F1200 
G1 X70.30 Y55.00 Z42.00 E0 F1200 
G1 X69.70 Y55.00 Z42.00 E0 F1200 
G1 X70.30 Y55.00 Z42.00 E0 F1200 
G1 X69.70 Y55.00 Z42.00 E0 F1200 
G1 X70.30 Y55.00 Z42.00 E0 F1200 
G1 X69.70 Y55.00 Z42.00 E0 F1200 
G1 X70.30 Y55.00 Z42.00 E0 F1200 
G1 X69.70 Y55.00 Z42.00 E0 F1200 
G1 X70.30 Y55.00 Z42.00 E0 F1200 
G1 X69.70 Y55.00 Z42.00 E0 F1200 
G1 X70.30 Y55.00 Z42.00 E0 F1200 
G1 X69.70 Y55.00 Z42.00 E0 F1200 
G1 X70.30 Y55.00 Z42.00 E0 F1200 
G1 X69.70 Y55.00 Z42.00 E0 F1200 
G1 X70.30 Y55.00 Z42.00 E0 F1200 
G1 X69.70 Y55.00 Z42.00 E0 F1200 
G1 X70.30 Y55.00 Z42.00 E0 F1200 
G1 X69.70 Y55.00 Z42.00 E0 F1200 
G1 X70.30 Y55.00 Z42.00 E0 F1200 
G1 X69.70 Y55.00 Z42.00 E0 F1200 
G1 X70.30 Y55.00 Z42.00 E0 F1200 
G1 X69.70 Y55.00 Z42.00 E0 F1200 
G1 X70.30 Y55.00 Z42.00 E0 F1200 
G1 X69.70 Y55.00 Z42.00 E0 F1200 
G1 X70.30 Y55.00 Z42.00 E0 F1200 
G1 X69.70 Y55.00 Z42.00 E0 F1200 
G1 X70.30 Y55.00 Z42.00 E0 F1200 
G1 X69.70 Y55.00 Z42.00 E0 F1200 
G1 X70.30 Y55.00 Z42.00 E0 F1200 
G1 X69.70 Y55.00 Z42.00 E0 F1200 
G1 X70.30 Y55.00 Z42.00 E0 F1200 
G1 X69.70 Y55.00 Z42.00 E0 F1200 
G1 X70.30 Y55.00 Z42.00 E0 F1200 
G1 X69.70 Y55.00 Z42.00 E0 F1200 
G1 X70.30 Y55.00 Z42.00 E0 F1200 
G1 X69.70 Y55.00 Z42.00 E0 F1200 
G1 X70.30 Y55.00 Z42.00 E0 F1200 
G1 X69.70 Y55.00 Z42.00 E0 F1200 
G1 X70.30 Y55.00 Z42.00 E0 F1200 
G1 X69.70 Y55.00 Z42.00 E0 F1200 
G1 X70.30 Y55.00 Z42.00 E0 F1200 
G1 X69.70 Y55.00 Z42.00 E0 F1200 
G1 X70.30 Y55.00 Z42.00 E0 F1200 
G1 X69.70 Y55.00 Z42.00 E0 F1200 
G1 X70.30 Y55.00 Z42.00 E0 F1200 
G1 X69.70 Y55.00 Z42.00 E0 F1200 
G1 X70.30 Y55.00 Z42.00 E0 F1200 
G1 X69.70 Y55.00 Z42.00 E0 F1200 
G1 X70.30 Y55.00 Z42.00 E0 F1200 
