M201 X800.00 Y800.00 Z300.00 E5000.00 ;Setup machine max acceleration
M203 X1500.00 Y1500.00 Z80.00 E50.00 ;Setup machine max feedrate
M204 P500.00 R1000.00 T500.00 ;Setup Print/Retract/Travel acceleration
M205 X8.00 Y8.00 Z0.40 E5.00 ;Setup Jerk
M220 S100 ;Reset Feedrate
M221 S100 ;Reset Flowrate
G28 ;Home
M420 S1 Z2 ;Enable ABL using saved Mesh and Fade Height
G92 E0 ;Reset Extruder
G0 X100.60 Y100.00 Z70.00 E0 F1200 
G0 X180.00 Y100.00 Z40.00 E0 F1200 
M0; stop and wait for user input
G0 X180.00 Y100.00 Z70.00 E0 F1200 
G1 X10.00 Y85.00 Z120.00 E0 F1200 
G1 X10.00 Y55.00 Z120.00 E0 F1200 
G1 X10.00 Y55.00 Z42.00 E0 F1200 
G1 X6.00 Y51.00 Z42.00 E0 F1200 
G1 X6.00 Y59.00 Z42.00 E0 F1200 
G1 X14.00 Y51.00 Z42.00 E0 F1200 
G1 X14.00 Y59.00 Z42.00 E0 F1200 
G1 X6.00 Y51.00 Z42.00 E0 F1200 
G1 X6.00 Y59.00 Z42.00 E0 F1200 
G1 X14.00 Y51.00 Z42.00 E0 F1200 
G1 X14.00 Y59.00 Z42.00 E0 F1200 
G1 X10.00 Y55.00 Z120.00 E0 F1200 
G1 X10.00 Y85.00 Z120.00 E0 F1200 
G1 X108.63 Y100.00 Z58.00 E0 F1200 
G1 X108.63 Y100.00 Z58.00 E0 F1200 
G0 X98.90 Y100.00 Z40.00 E0 F1200 
G0 X98.90 Y100.00 Z40.00 E0 F1200 
G0 X97.20 Y100.00 Z40.00 E0 F1200 
G0 X97.20 Y100.00 Z40.00 E0 F1200 
G0 X95.49 Y100.00 Z40.00 E0 F1200 
G0 X95.49 Y100.00 Z40.00 E0 F1200 
G0 X93.79 Y100.00 Z40.00 E0 F1200 
G0 X93.79 Y100.00 Z40.00 E0 F1200 
G0 X92.09 Y100.00 Z40.00 E0 F1200 
G0 X92.09 Y100.00 Z40.00 E0 F1200 
G0 X90.39 Y100.00 Z40.00 E0 F1200 
G0 X90.39 Y100.00 Z40.00 E0 F1200 
G0 X88.68 Y100.00 Z40.00 E0 F1200 
G0 X88.68 Y100.00 Z40.00 E0 F1200 
G0 X86.98 Y100.00 Z40.00 E0 F1200 
G0 X86.41 Y100.00 Z40.00 E0 F1200 
G0 X85.28 Y100.00 Z40.00 E0 F1200 
G0 X84.14 Y100.00 Z40.00 E0 F1200 
G0 X83.57 Y100.00 Z40.00 E0 F1200 
G0 X53.49 Y100.00 Z40.00 E0 F1200 
G0 X52.92 Y100.00 Z40.00 E0 F1200 
G0 X52.35 Y100.00 Z40.00 E0 F1200 
G0 X50.08 Y100.00 Z40.00 E0 F1200 
G0 X50.08 Y100.00 Z40.00 E0 F1200 
G0 X49.51 Y100.00 Z40.00 E0 F1200 
G0 X49.51 Y100.00 Z40.00 E0 F1200 
G0 X48.94 Y100.00 Z40.00 E0 F1200 
G0 X48.94 Y100.00 Z40.00 E0 F1200 
G0 X48.94 Y100.00 Z40.00 E0 F1200 
G0 X49.51 Y100.00 Z40.00 E0 F1200 
G0 X49.51 Y100.00 Z40.00 E0 F1200 
G0 X50.08 Y100.00 Z40.00 E0 F1200 
G0 X50.08 Y100.00 Z40.00 E0 F1200 
G0 X51.78 Y100.00 Z40.00 E0 F1200 
G0 X52.92 Y100.00 Z40.00 E0 F1200 
G0 X53.49 Y100.00 Z40.00 E0 F1200 
G0 X83.57 Y100.00 Z40.00 E0 F1200 
G1 X83.57 Y100.00 Z40.00 E0 F1200 
G1 X53.49 Y100.00 Z40.00 E0 F1200 
G1 X52.92 Y100.00 Z40.00 E0 F1200 
G1 X51.78 Y100.00 Z40.00 E0 F1200 
G1 X50.08 Y100.00 Z40.00 E0 F1200 
G1 X50.08 Y100.00 Z40.00 E0 F1200 
G1 X50.08 Y100.00 Z40.00 E0 F1200 
G1 X51.78 Y100.00 Z40.00 E0 F1200 
G1 X50.08 Y100.00 Z40.00 E0 F1200 
G1 X83.57 Y100.00 Z40.00 E0 F1200 
G0 X84.14 Y100.00 Z40.00 E0 F1200 
G0 X85.84 Y100.00 Z40.00 E0 F1200 
G0 X86.98 Y100.00 Z40.00 E0 F1200 
G0 X87.55 Y100.00 Z40.00 E0 F1200 
G0 X88.68 Y100.00 Z40.00 E0 F1200 
G0 X88.68 Y100.00 Z40.00 E0 F1200 
G0 X90.39 Y100.00 Z40.00 E0 F1200 
G0 X90.39 Y100.00 Z40.00 E0 F1200 
G0 X92.09 Y100.00 Z40.00 E0 F1200 
G0 X92.09 Y100.00 Z40.00 E0 F1200 
G0 X93.79 Y100.00 Z40.00 E0 F1200 
G0 X93.79 Y100.00 Z40.00 E0 F1200 
G0 X95.49 Y100.00 Z40.00 E0 F1200 
G0 X95.49 Y100.00 Z40.00 E0 F1200 
G0 X97.20 Y100.00 Z40.00 E0 F1200 
G0 X97.20 Y100.00 Z40.00 E0 F1200 
G0 X98.90 Y100.00 Z40.00 E0 F1200 
G0 X98.90 Y100.00 Z40.00 E0 F1200 
G0 X101.17 Y100.00 Z40.00 E0 F1200 
G0 X102.87 Y100.00 Z40.00 E0 F1200 
G0 X102.87 Y100.00 Z40.00 E0 F1200 
G0 X106.28 Y100.00 Z40.00 E0 F1200 
G0 X106.28 Y100.00 Z40.00 E0 F1200 
G0 X109.69 Y100.00 Z40.00 E0 F1200 
G0 X109.69 Y100.00 Z40.00 E0 F1200 
G0 X113.09 Y100.00 Z40.00 E0 F1200 
G0 X113.09 Y100.00 Z40.00 E0 F1200 
G0 X115.36 Y100.00 Z40.00 E0 F1200 
G0 X115.36 Y100.00 Z40.00 E0 F1200 
G0 X114.80 Y100.00 Z40.00 E0 F1200 
G0 X114.80 Y100.00 Z40.00 E0 F1200 
G0 X114.23 Y100.00 Z40.00 E0 F1200 
G0 X114.23 Y100.00 Z40.00 E0 F1200 
G0 X113.66 Y100.00 Z40.00 E0 F1200 
G0 X113.66 Y100.00 Z40.00 E0 F1200 
G0 X113.09 Y100.00 Z40.00 E0 F1200 
G0 X113.09 Y100.00 Z40.00 E0 F1200 
G0 X112.53 Y100.00 Z40.00 E0 F1200 
G0 X112.53 Y100.00 Z40.00 E0 F1200 
G0 X111.96 Y100.00 Z40.00 E0 F1200 
G0 X111.96 Y100.00 Z40.00 E0 F1200 
G0 X111.39 Y100.00 Z40.00 E0 F1200 
G0 X111.39 Y100.00 Z40.00 E0 F1200 
G0 X110.82 Y100.00 Z40.00 E0 F1200 
G0 X110.82 Y100.00 Z40.00 E0 F1200 
G0 X110.25 Y100.00 Z40.00 E0 F1200 
G0 X110.25 Y100.00 Z40.00 E0 F1200 
G1 X110.25 Y100.00 Z40.00 E0 F1200 
G1 X110.25 Y100.00 Z40.00 E0 F1200 
G1 X110.82 Y100.00 Z40.00 E0 F1200 
G1 X110.82 Y100.00 Z40.00 E0 F1200 
G1 X111.39 Y100.00 Z40.00 E0 F1200 
G1 X111.39 Y100.00 Z40.00 E0 F1200 
G1 X111.39 Y100.00 Z40.00 E0 F1200 
G1 X110.82 Y100.00 Z40.00 E0 F1200 
G1 X111.39 Y100.00 Z40.00 E0 F1200 
G1 X110.25 Y100.00 Z40.00 E0 F1200 
G0 X109.69 Y100.00 Z40.00 E0 F1200 
G0 X109.69 Y100.26 Z40.00 E0 F1200 
G0 X110.25 Y100.83 Z40.00 E0 F1200 
G0 X110.25 Y101.96 Z40.00 E0 F1200 
G0 X110.82 Y102.53 Z40.00 E0 F1200 
G0 X110.82 Y103.10 Z40.00 E0 F1200 
G0 X113.09 Y105.37 Z40.00 E0 F1200 
G0 X113.09 Y104.80 Z40.00 E0 F1200 
G0 X110.82 Y102.53 Z40.00 E0 F1200 
G0 X110.82 Y101.96 Z40.00 E0 F1200 
G0 X110.25 Y101.39 Z40.00 E0 F1200 
G0 X110.25 Y100.83 Z40.00 E0 F1200 
G0 X109.69 Y100.26 Z40.00 E0 F1200 
G0 X109.69 Y100.00 Z40.00 E0 F1200 
G0 X110.25 Y100.00 Z40.00 E0 F1200 
G0 X110.25 Y100.00 Z40.00 E0 F1200 
G0 X110.82 Y100.00 Z40.00 E0 F1200 
G0 X110.82 Y100.00 Z40.00 E0 F1200 
G0 X111.39 Y100.00 Z40.00 E0 F1200 
G0 X111.39 Y100.00 Z40.00 E0 F1200 
G0 X111.96 Y100.00 Z40.00 E0 F1200 
G0 X111.96 Y100.00 Z40.00 E0 F1200 
G0 X112.53 Y100.00 Z40.00 E0 F1200 
G0 X112.53 Y100.00 Z40.00 E0 F1200 
G0 X113.09 Y100.00 Z40.00 E0 F1200 
G0 X113.09 Y100.00 Z40.00 E0 F1200 
G0 X113.66 Y100.00 Z40.00 E0 F1200 
G0 X113.66 Y100.00 Z40.00 E0 F1200 
G0 X114.23 Y100.00 Z40.00 E0 F1200 
G0 X114.23 Y100.00 Z40.00 E0 F1200 
G0 X114.80 Y100.00 Z40.00 E0 F1200 
G0 X114.80 Y100.00 Z40.00 E0 F1200 
G0 X115.36 Y100.00 Z40.00 E0 F1200 
G0 X115.36 Y100.00 Z40.00 E0 F1200 
G0 X113.09 Y100.00 Z40.00 E0 F1200 
G0 X113.09 Y100.00 Z40.00 E0 F1200 
G0 X109.69 Y100.00 Z40.00 E0 F1200 
G0 X109.69 Y100.00 Z40.00 E0 F1200 
G0 X106.28 Y100.00 Z40.00 E0 F1200 
G0 X106.28 Y100.00 Z40.00 E0 F1200 
G0 X102.87 Y100.00 Z40.00 E0 F1200 
G0 X102.87 Y100.00 Z40.00 E0 F1200 
G0 X101.74 Y100.00 Z40.00 E0 F1200 
G1 X96.14 Y100.00 Z58.00 E0 F1200 
G0 X87.55 Y100.00 Z40.00 E0 F1200 
G0 X86.98 Y100.00 Z40.00 E0 F1200 
G0 X85.28 Y100.00 Z40.00 E0 F1200 
G0 X85.28 Y100.00 Z40.00 E0 F1200 
G0 X84.14 Y100.00 Z40.00 E0 F1200 
G0 X84.14 Y100.00 Z40.00 E0 F1200 
G0 X82.44 Y100.00 Z40.00 E0 F1200 
G0 X82.44 Y100.00 Z40.00 E0 F1200 
G0 X81.30 Y100.00 Z40.00 E0 F1200 
G0 X81.30 Y100.00 Z40.00 E0 F1200 
G0 X79.60 Y100.00 Z40.00 E0 F1200 
G0 X79.60 Y100.00 Z40.00 E0 F1200 
G0 X78.46 Y100.00 Z40.00 E0 F1200 
G0 X78.46 Y100.00 Z40.00 E0 F1200 
G0 X76.76 Y100.00 Z40.00 E0 F1200 
G0 X53.49 Y100.00 Z40.00 E0 F1200 
G0 X52.92 Y100.00 Z40.00 E0 F1200 
G0 X51.78 Y100.00 Z40.00 E0 F1200 
G0 X50.08 Y100.00 Z40.00 E0 F1200 
G0 X50.08 Y100.00 Z40.00 E0 F1200 
G0 X49.51 Y100.00 Z40.00 E0 F1200 
G0 X49.51 Y100.00 Z40.00 E0 F1200 
G0 X48.94 Y100.00 Z40.00 E0 F1200 
G0 X48.94 Y100.00 Z40.00 E0 F1200 
G0 X48.94 Y100.00 Z40.00 E0 F1200 
G0 X50.08 Y100.00 Z40.00 E0 F1200 
G0 X50.08 Y100.00 Z40.00 E0 F1200 
G0 X52.35 Y100.00 Z40.00 E0 F1200 
G0 X52.92 Y100.00 Z40.00 E0 F1200 
G0 X53.49 Y100.00 Z40.00 E0 F1200 
G0 X77.33 Y100.00 Z40.00 E0 F1200 
G0 X78.46 Y100.00 Z40.00 E0 F1200 
G0 X78.46 Y100.00 Z40.00 E0 F1200 
G0 X79.60 Y100.00 Z40.00 E0 F1200 
G0 X79.60 Y100.00 Z40.00 E0 F1200 
G1 X79.60 Y100.00 Z40.00 E0 F1200 
G1 X79.60 Y100.00 Z40.00 E0 F1200 
G1 X78.46 Y100.00 Z40.00 E0 F1200 
G1 X78.46 Y100.00 Z40.00 E0 F1200 
G1 X77.33 Y100.00 Z40.00 E0 F1200 
G1 X53.49 Y100.00 Z40.00 E0 F1200 
G1 X77.33 Y100.00 Z40.00 E0 F1200 
G1 X78.46 Y100.00 Z40.00 E0 F1200 
G1 X77.33 Y100.00 Z40.00 E0 F1200 
G1 X79.60 Y100.00 Z40.00 E0 F1200 
G0 X81.30 Y100.00 Z40.00 E0 F1200 
G1 X81.30 Y100.00 Z40.00 E0 F1200 
G1 X79.60 Y100.00 Z40.00 E0 F1200 
G1 X79.60 Y100.00 Z40.00 E0 F1200 
G1 X78.46 Y100.00 Z40.00 E0 F1200 
G1 X78.46 Y100.00 Z40.00 E0 F1200 
G1 X77.33 Y100.00 Z40.00 E0 F1200 
G1 X78.46 Y100.00 Z40.00 E0 F1200 
G1 X78.46 Y100.00 Z40.00 E0 F1200 
G1 X78.46 Y100.00 Z40.00 E0 F1200 
G1 X81.30 Y100.00 Z40.00 E0 F1200 
G0 X81.30 Y100.00 Z40.00 E0 F1200 
G1 X81.30 Y100.00 Z40.00 E0 F1200 
G1 X81.30 Y100.00 Z40.00 E0 F1200 
G1 X79.60 Y100.00 Z40.00 E0 F1200 
G1 X79.60 Y100.00 Z40.00 E0 F1200 
G1 X78.46 Y100.00 Z40.00 E0 F1200 
G1 X78.46 Y100.00 Z40.00 E0 F1200 
G1 X78.46 Y100.00 Z40.00 E0 F1200 
G1 X79.60 Y100.00 Z40.00 E0 F1200 
G1 X78.46 Y100.00 Z40.00 E0 F1200 
G1 X81.30 Y100.00 Z40.00 E0 F1200 
G0 X82.44 Y100.00 Z40.00 E0 F1200 
G0 X82.44 Y100.00 Z40.00 E0 F1200 
G0 X84.14 Y100.00 Z40.00 E0 F1200 
G0 X84.14 Y100.00 Z40.00 E0 F1200 
G0 X85.28 Y100.00 Z40.00 E0 F1200 
G0 X85.28 Y100.00 Z40.00 E0 F1200 
G0 X88.11 Y100.00 Z40.00 E0 F1200 
G0 X115.93 Y100.00 Z40.00 E0 F1200 
G1 X10.00 Y85.00 Z120.00 E0 F1200 
G1 X10.00 Y55.00 Z120.00 E0 F1200 
G1 X10.00 Y55.00 Z42.00 E0 F1200 
G1 X6.00 Y51.00 Z42.00 E0 F1200 
G1 X6.00 Y59.00 Z42.00 E0 F1200 
G1 X14.00 Y51.00 Z42.00 E0 F1200 
G1 X14.00 Y59.00 Z42.00 E0 F1200 
G1 X6.00 Y51.00 Z42.00 E0 F1200 
G1 X6.00 Y59.00 Z42.00 E0 F1200 
G1 X14.00 Y51.00 Z42.00 E0 F1200 
G1 X14.00 Y59.00 Z42.00 E0 F1200 
G1 X10.00 Y55.00 Z120.00 E0 F1200 
G1 X10.00 Y85.00 Z120.00 E0 F1200 
G1 X127.85 Y100.00 Z58.00 E0 F1200 
G0 X117.07 Y100.00 Z40.00 E0 F1200 
G0 X117.63 Y100.00 Z40.00 E0 F1200 
G0 X117.63 Y100.00 Z40.00 E0 F1200 
G0 X120.47 Y100.00 Z40.00 E0 F1200 
G0 X120.47 Y100.00 Z40.00 E0 F1200 
G0 X123.31 Y100.00 Z40.00 E0 F1200 
G0 X123.31 Y100.00 Z40.00 E0 F1200 
G0 X126.15 Y100.00 Z40.00 E0 F1200 
G0 X126.15 Y100.00 Z40.00 E0 F1200 
G0 X127.85 Y100.00 Z40.00 E0 F1200 
G0 X127.85 Y100.00 Z40.00 E0 F1200 
G0 X128.99 Y100.00 Z40.00 E0 F1200 
G0 X128.99 Y100.00 Z40.00 E0 F1200 
G0 X129.56 Y100.00 Z40.00 E0 F1200 
G0 X129.56 Y100.00 Z40.00 E0 F1200 
G0 X128.99 Y100.00 Z40.00 E0 F1200 
G0 X128.99 Y100.00 Z40.00 E0 F1200 
G0 X128.42 Y100.00 Z40.00 E0 F1200 
G0 X128.42 Y100.00 Z40.00 E0 F1200 
G0 X127.85 Y100.00 Z40.00 E0 F1200 
G0 X127.85 Y100.00 Z40.00 E0 F1200 
G0 X127.28 Y100.00 Z40.00 E0 F1200 
G0 X127.28 Y100.00 Z40.00 E0 F1200 
G0 X126.72 Y100.00 Z40.00 E0 F1200 
G0 X126.72 Y100.00 Z40.00 E0 F1200 
G0 X126.15 Y100.00 Z40.00 E0 F1200 
G0 X126.15 Y100.00 Z40.00 E0 F1200 
G0 X125.58 Y100.00 Z40.00 E0 F1200 
G0 X125.58 Y100.00 Z40.00 E0 F1200 
G0 X125.01 Y100.00 Z40.00 E0 F1200 
G0 X125.01 Y100.00 Z40.00 E0 F1200 
G0 X124.45 Y100.00 Z40.00 E0 F1200 
G0 X124.45 Y100.00 Z40.00 E0 F1200 
G0 X123.88 Y100.00 Z40.00 E0 F1200 
G0 X123.88 Y100.00 Z40.00 E0 F1200 
G0 X123.31 Y100.00 Z40.00 E0 F1200 
G0 X123.31 Y100.00 Z40.00 E0 F1200 
G0 X122.74 Y100.00 Z40.00 E0 F1200 
G0 X122.74 Y100.00 Z40.00 E0 F1200 
G0 X122.18 Y100.00 Z40.00 E0 F1200 
G0 X122.18 Y100.00 Z40.00 E0 F1200 
G0 X121.61 Y100.00 Z40.00 E0 F1200 
G0 X121.61 Y100.83 Z40.00 E0 F1200 
G0 X121.04 Y101.39 Z40.00 E0 F1200 
G0 X121.04 Y101.96 Z40.00 E0 F1200 
G0 X118.20 Y104.80 Z40.00 E0 F1200 
G0 X118.20 Y105.37 Z40.00 E0 F1200 
G0 X121.04 Y102.53 Z40.00 E0 F1200 
G0 X121.04 Y101.39 Z40.00 E0 F1200 
G0 X121.61 Y100.83 Z40.00 E0 F1200 
G0 X121.61 Y100.00 Z40.00 E0 F1200 
G0 X122.18 Y100.00 Z40.00 E0 F1200 
G0 X122.18 Y100.00 Z40.00 E0 F1200 
G0 X122.74 Y100.00 Z40.00 E0 F1200 
G0 X122.74 Y100.00 Z40.00 E0 F1200 
G0 X123.31 Y100.00 Z40.00 E0 F1200 
G0 X123.31 Y100.00 Z40.00 E0 F1200 
G0 X123.88 Y100.00 Z40.00 E0 F1200 
G0 X123.88 Y100.00 Z40.00 E0 F1200 
G0 X124.45 Y100.00 Z40.00 E0 F1200 
G0 X124.45 Y100.00 Z40.00 E0 F1200 
G0 X125.01 Y100.00 Z40.00 E0 F1200 
G0 X125.01 Y100.00 Z40.00 E0 F1200 
G0 X125.58 Y100.00 Z40.00 E0 F1200 
G0 X125.58 Y100.00 Z40.00 E0 F1200 
G0 X126.15 Y100.00 Z40.00 E0 F1200 
G0 X126.15 Y100.00 Z40.00 E0 F1200 
G0 X126.72 Y100.00 Z40.00 E0 F1200 
G0 X126.72 Y100.00 Z40.00 E0 F1200 
G0 X127.28 Y100.00 Z40.00 E0 F1200 
G0 X127.28 Y100.00 Z40.00 E0 F1200 
G0 X127.85 Y100.00 Z40.00 E0 F1200 
G0 X127.85 Y100.00 Z40.00 E0 F1200 
G0 X128.42 Y100.00 Z40.00 E0 F1200 
G0 X128.42 Y100.00 Z40.00 E0 F1200 
G0 X128.99 Y100.00 Z40.00 E0 F1200 
G0 X128.99 Y100.00 Z40.00 E0 F1200 
G0 X129.56 Y100.00 Z40.00 E0 F1200 
G0 X129.56 Y100.00 Z40.00 E0 F1200 
G0 X128.99 Y100.00 Z40.00 E0 F1200 
G0 X128.99 Y100.00 Z40.00 E0 F1200 
G0 X127.85 Y100.00 Z40.00 E0 F1200 
G0 X127.85 Y100.00 Z40.00 E0 F1200 
G0 X126.15 Y100.00 Z40.00 E0 F1200 
G0 X126.15 Y100.00 Z40.00 E0 F1200 
G0 X123.31 Y100.00 Z40.00 E0 F1200 
G0 X123.31 Y100.00 Z40.00 E0 F1200 
G0 X120.47 Y100.00 Z40.00 E0 F1200 
G0 X120.47 Y100.00 Z40.00 E0 F1200 
G0 X117.63 Y100.00 Z40.00 E0 F1200 
G0 X117.63 Y100.00 Z40.00 E0 F1200 
G0 X116.50 Y100.00 Z40.00 E0 F1200 
G0 X115.93 Y100.00 Z40.00 E0 F1200 
G1 X161.35 Y100.00 Z58.00 E0 F1200 
G0 X161.35 Y100.00 Z40.00 E0 F1200 
G0 X161.91 Y100.00 Z40.00 E0 F1200 
G0 X161.35 Y100.00 Z40.00 E0 F1200 
G1 Z50 F3000 ;Move Z Axis up
G91 ;Relative positioning
G1 E-2 F2700 ;Retract a bit
G1 E-2 Z0.2 F2400 ;Retract and raise Z
G1 X5 Y5 F3000 ;Wipe out
G1 Z10 ;Raise Z more
G90 ;Absolute positioning
G1 X0 Y150 ;Present print
M106 S0 ;Turn-off fan
M104 S0 ;Turn-off hotend
M140 S0 ;Turn-off bed
M84 X Y E ;Disable all steppers but Z