M201 X800.00 Y800.00 Z300.00 E5000.00 ;Setup machine max acceleration
M203 X1500.00 Y1500.00 Z80.00 E50.00 ;Setup machine max feedrate
M204 P500.00 R1000.00 T500.00 ;Setup Print/Retract/Travel acceleration
M205 X8.00 Y8.00 Z0.40 E5.00 ;Setup Jerk
M220 S100 ;Reset Feedrate
M221 S100 ;Reset Flowrate
G28 ;Home
M420 S1 Z2 ;Enable ABL using saved Mesh and Fade Height
G92 E0 ;Reset Extruder
G1 Z2.0 F3000 ;Move Z Axis up
G1 X10.1 Y20 Z40 F5000.0 ;Move to start position
G92 E0 ;Reset Extruder
G1 X40 Y40 Z40 F3000 ;Move Z Axis up
M0; stop and wait for user input
G1 X40 Y40 Z50 F3000 ;Move Z Axis up
G0 X82.31 Y98.88 Z70.00 E0 F1800 
M0; stop and wait for user input
G0 X90.77 Y78.54 Z58.00 E0 F1800 
G1 X81.72 Y62.38 Z40.00 E0 F1800 
G1 X79.32 Y62.38 Z40.00 E0 F1800 
G1 X76.33 Y65.38 Z40.00 E0 F1800 
G1 X76.33 Y65.97 Z40.00 E0 F1800 
G1 X74.54 Y67.77 Z40.00 E0 F1800 
G1 X74.54 Y68.37 Z40.00 E0 F1800 
G1 X72.74 Y70.16 Z40.00 E0 F1800 
G1 X72.74 Y70.76 Z40.00 E0 F1800 
G1 X70.95 Y72.56 Z40.00 E0 F1800 
G1 X70.95 Y73.15 Z40.00 E0 F1800 
G1 X68.55 Y75.55 Z40.00 E0 F1800 
G1 X68.55 Y76.14 Z40.00 E0 F1800 
G1 X66.76 Y77.94 Z40.00 E0 F1800 
G1 X66.76 Y78.54 Z40.00 E0 F1800 
G1 X64.96 Y80.33 Z40.00 E0 F1800 
G1 X64.96 Y80.93 Z40.00 E0 F1800 
G1 X63.17 Y82.73 Z40.00 E0 F1800 
G1 X63.17 Y83.32 Z40.00 E0 F1800 
G1 X61.37 Y85.12 Z40.00 E0 F1800 
G1 X61.37 Y85.72 Z40.00 E0 F1800 
G1 X59.58 Y87.51 Z40.00 E0 F1800 
G1 X59.58 Y88.11 Z40.00 E0 F1800 
G1 X58.38 Y89.31 Z40.00 E0 F1800 
G1 X58.38 Y90.50 Z40.00 E0 F1800 
G1 X57.78 Y91.10 Z40.00 E0 F1800 
G1 X57.78 Y95.29 Z40.00 E0 F1800 
G1 X58.38 Y95.89 Z40.00 E0 F1800 
G1 X58.38 Y96.49 Z40.00 E0 F1800 
G1 X58.98 Y97.09 Z40.00 E0 F1800 
G1 X58.98 Y97.68 Z40.00 E0 F1800 
G1 X59.58 Y98.28 Z40.00 E0 F1800 
G1 X60.18 Y98.28 Z40.00 E0 F1800 
G1 X60.78 Y98.88 Z40.00 E0 F1800 
G1 X62.57 Y98.88 Z40.00 E0 F1800 
G1 X63.17 Y99.48 Z40.00 E0 F1800 
G1 X63.77 Y98.88 Z40.00 E0 F1800 
G1 X65.56 Y98.88 Z40.00 E0 F1800 
G1 X68.55 Y95.89 Z40.00 E0 F1800 
G1 X68.55 Y95.29 Z40.00 E0 F1800 
G1 X70.35 Y93.50 Z40.00 E0 F1800 
G1 X70.35 Y92.90 Z40.00 E0 F1800 
G1 X72.14 Y91.10 Z40.00 E0 F1800 
G1 X72.14 Y90.50 Z40.00 E0 F1800 
G1 X73.94 Y88.71 Z40.00 E0 F1800 
G1 X73.94 Y88.11 Z40.00 E0 F1800 
G1 X75.73 Y86.32 Z40.00 E0 F1800 
G1 X75.73 Y85.72 Z40.00 E0 F1800 
G1 X77.53 Y83.92 Z40.00 E0 F1800 
G1 X77.53 Y83.32 Z40.00 E0 F1800 
G1 X79.32 Y81.53 Z40.00 E0 F1800 
G1 X79.32 Y80.93 Z40.00 E0 F1800 
G1 X81.12 Y79.14 Z40.00 E0 F1800 
G1 X81.12 Y78.54 Z40.00 E0 F1800 
G1 X82.91 Y76.74 Z40.00 E0 F1800 
G1 X82.91 Y76.14 Z40.00 E0 F1800 
G1 X84.11 Y74.95 Z40.00 E0 F1800 
G1 X92.48 Y74.95 Z40.00 E0 F1800 
G1 X93.08 Y75.55 Z40.00 E0 F1800 
G1 X91.29 Y77.34 Z40.00 E0 F1800 
G1 X91.29 Y77.94 Z40.00 E0 F1800 
G1 X89.49 Y79.73 Z40.00 E0 F1800 
G1 X89.49 Y80.33 Z40.00 E0 F1800 
G1 X87.70 Y82.13 Z40.00 E0 F1800 
G1 X87.70 Y82.73 Z40.00 E0 F1800 
G1 X85.90 Y84.52 Z40.00 E0 F1800 
G1 X85.90 Y85.12 Z40.00 E0 F1800 
G1 X84.11 Y86.91 Z40.00 E0 F1800 
G1 X84.11 Y87.51 Z40.00 E0 F1800 
G1 X82.31 Y89.31 Z40.00 E0 F1800 
G1 X82.31 Y89.91 Z40.00 E0 F1800 
G1 X80.52 Y91.70 Z40.00 E0 F1800 
G1 X80.52 Y92.30 Z40.00 E0 F1800 
G1 X78.72 Y94.09 Z40.00 E0 F1800 
G1 X78.72 Y94.69 Z40.00 E0 F1800 
G1 X76.93 Y96.49 Z40.00 E0 F1800 
G1 X76.93 Y97.09 Z40.00 E0 F1800 
G1 X75.13 Y98.88 Z40.00 E0 F1800 
G1 X75.13 Y99.48 Z40.00 E0 F1800 
G1 X73.34 Y101.27 Z40.00 E0 F1800 
G1 X73.34 Y101.87 Z40.00 E0 F1800 
G1 X71.54 Y103.67 Z40.00 E0 F1800 
G1 X71.54 Y104.26 Z40.00 E0 F1800 
G1 X69.75 Y106.06 Z40.00 E0 F1800 
G1 X69.75 Y106.66 Z40.00 E0 F1800 
G1 X67.95 Y108.45 Z40.00 E0 F1800 
G1 X67.95 Y109.05 Z40.00 E0 F1800 
G1 X66.16 Y110.85 Z40.00 E0 F1800 
G1 X66.16 Y111.44 Z40.00 E0 F1800 
G1 X64.36 Y113.24 Z40.00 E0 F1800 
G1 X64.36 Y113.84 Z40.00 E0 F1800 
G1 X62.57 Y115.63 Z40.00 E0 F1800 
G1 X62.57 Y116.23 Z40.00 E0 F1800 
G1 X60.78 Y118.03 Z40.00 E0 F1800 
G1 X60.78 Y118.62 Z40.00 E0 F1800 
G1 X58.98 Y120.42 Z40.00 E0 F1800 
G1 X58.98 Y121.02 Z40.00 E0 F1800 
G1 X55.99 Y124.01 Z40.00 E0 F1800 
G1 X29.66 Y124.01 Z40.00 E0 F1800 
G1 X29.07 Y124.61 Z40.00 E0 F1800 
G1 X28.47 Y124.61 Z40.00 E0 F1800 
G1 X27.87 Y125.20 Z40.00 E0 F1800 
G1 X27.27 Y125.20 Z40.00 E0 F1800 
G1 X26.07 Y126.40 Z40.00 E0 F1800 
G1 X26.07 Y127.00 Z40.00 E0 F1800 
G1 X24.88 Y128.20 Z40.00 E0 F1800 
G1 X24.88 Y129.99 Z40.00 E0 F1800 
G1 X24.88 Y129.39 Z40.00 E0 F1800 
G1 X25.48 Y128.79 Z40.00 E0 F1800 
G1 X25.48 Y128.20 Z40.00 E0 F1800 
G1 X26.07 Y127.60 Z40.00 E0 F1800 
G1 X26.07 Y127.00 Z40.00 E0 F1800 
G1 X27.87 Y125.20 Z40.00 E0 F1800 
G1 X28.47 Y125.20 Z40.00 E0 F1800 
G1 X29.66 Y124.01 Z40.00 E0 F1800 
G1 X56.59 Y124.01 Z40.00 E0 F1800 
G1 X58.98 Y121.62 Z40.00 E0 F1800 
G1 X58.98 Y121.02 Z40.00 E0 F1800 
G1 X60.78 Y119.22 Z40.00 E0 F1800 
G1 X60.78 Y118.62 Z40.00 E0 F1800 
G1 X62.57 Y116.83 Z40.00 E0 F1800 
G1 X62.57 Y116.23 Z40.00 E0 F1800 
G1 X64.36 Y114.44 Z40.00 E0 F1800 
G1 X64.36 Y113.84 Z40.00 E0 F1800 
G1 X66.16 Y112.04 Z40.00 E0 F1800 
G1 X66.16 Y111.44 Z40.00 E0 F1800 
G1 X67.95 Y109.65 Z40.00 E0 F1800 
G1 X67.95 Y109.05 Z40.00 E0 F1800 
G1 X69.75 Y107.26 Z40.00 E0 F1800 
G1 X69.75 Y106.66 Z40.00 E0 F1800 
G1 X71.54 Y104.86 Z40.00 E0 F1800 
G1 X71.54 Y104.26 Z40.00 E0 F1800 
G1 X73.34 Y102.47 Z40.00 E0 F1800 
G1 X73.34 Y101.87 Z70.00 E0 F1800 
M0; stop and wait for user input
G0 X81.80 Y93.41 Z58.00 E0 F1800 
G1 X75.13 Y100.08 Z40.00 E0 F1800 
G1 X75.13 Y99.48 Z40.00 E0 F1800 
G1 X76.93 Y97.68 Z40.00 E0 F1800 
G1 X76.93 Y97.09 Z40.00 E0 F1800 
G1 X78.72 Y95.29 Z40.00 E0 F1800 
G1 X78.72 Y94.69 Z40.00 E0 F1800 
G1 X80.52 Y92.90 Z40.00 E0 F1800 
G1 X80.52 Y92.30 Z40.00 E0 F1800 
G1 X82.31 Y90.50 Z40.00 E0 F1800 
G1 X82.31 Y89.91 Z40.00 E0 F1800 
G1 X84.11 Y88.11 Z40.00 E0 F1800 
G1 X84.11 Y87.51 Z40.00 E0 F1800 
G1 X85.90 Y85.72 Z40.00 E0 F1800 
G1 X85.90 Y85.12 Z40.00 E0 F1800 
G1 X87.70 Y83.32 Z40.00 E0 F1800 
G1 X87.70 Y82.73 Z40.00 E0 F1800 
G1 X89.49 Y80.93 Z40.00 E0 F1800 
G1 X89.49 Y80.33 Z40.00 E0 F1800 
G1 X91.29 Y78.54 Z40.00 E0 F1800 
G1 X91.29 Y77.94 Z40.00 E0 F1800 
G1 X93.08 Y76.14 Z40.00 E0 F1800 
G1 X93.08 Y74.95 Z40.00 E0 F1800 
G1 X83.51 Y74.95 Z40.00 E0 F1800 
G1 X82.91 Y75.55 Z40.00 E0 F1800 
G1 X82.91 Y76.14 Z40.00 E0 F1800 
G1 X81.12 Y77.94 Z40.00 E0 F1800 
G1 X81.12 Y78.54 Z40.00 E0 F1800 
G1 X79.32 Y80.33 Z40.00 E0 F1800 
G1 X79.32 Y80.93 Z40.00 E0 F1800 
G1 X77.53 Y82.73 Z40.00 E0 F1800 
G1 X77.53 Y83.32 Z40.00 E0 F1800 
G1 X75.73 Y85.12 Z40.00 E0 F1800 
G1 X75.73 Y85.72 Z40.00 E0 F1800 
G1 X73.94 Y87.51 Z40.00 E0 F1800 
G1 X73.94 Y88.11 Z40.00 E0 F1800 
G1 X72.14 Y89.91 Z40.00 E0 F1800 
G1 X72.14 Y90.50 Z40.00 E0 F1800 
G1 X70.35 Y92.30 Z40.00 E0 F1800 
G1 X70.35 Y92.90 Z40.00 E0 F1800 
G1 X68.55 Y94.69 Z40.00 E0 F1800 
G1 X68.55 Y95.29 Z40.00 E0 F1800 
G1 X64.96 Y98.88 Z40.00 E0 F1800 
G1 X63.77 Y98.88 Z40.00 E0 F1800 
G1 X63.17 Y99.48 Z40.00 E0 F1800 
G1 X62.57 Y98.88 Z40.00 E0 F1800 
G1 X61.37 Y98.88 Z40.00 E0 F1800 
G1 X60.78 Y98.28 Z40.00 E0 F1800 
G1 X60.18 Y98.28 Z40.00 E0 F1800 
G1 X58.98 Y97.09 Z40.00 E0 F1800 
G1 X58.98 Y96.49 Z40.00 E0 F1800 
G1 X57.78 Y95.29 Z40.00 E0 F1800 
G1 X57.78 Y91.10 Z40.00 E0 F1800 
G1 X58.38 Y90.50 Z40.00 E0 F1800 
G1 X58.38 Y89.91 Z40.00 E0 F1800 
G1 X59.58 Y88.71 Z40.00 E0 F1800 
G1 X59.58 Y88.11 Z40.00 E0 F1800 
G1 X61.37 Y86.32 Z40.00 E0 F1800 
G1 X61.37 Y85.72 Z40.00 E0 F1800 
G1 X63.17 Y83.92 Z40.00 E0 F1800 
G1 X63.17 Y83.32 Z40.00 E0 F1800 
G1 X64.96 Y81.53 Z40.00 E0 F1800 
G1 X64.96 Y80.93 Z40.00 E0 F1800 
G1 X66.76 Y79.14 Z40.00 E0 F1800 
G1 X66.76 Y78.54 Z40.00 E0 F1800 
G1 X68.55 Y76.74 Z40.00 E0 F1800 
G1 X68.55 Y76.14 Z40.00 E0 F1800 
G1 X70.95 Y73.75 Z40.00 E0 F1800 
G1 X70.95 Y73.15 Z40.00 E0 F1800 
G1 X72.74 Y71.36 Z40.00 E0 F1800 
G1 X72.74 Y70.76 Z40.00 E0 F1800 
G1 X74.54 Y68.97 Z40.00 E0 F1800 
G1 X74.54 Y68.37 Z40.00 E0 F1800 
G1 X76.33 Y66.57 Z40.00 E0 F1800 
G1 X76.33 Y65.97 Z40.00 E0 F1800 
G1 X79.92 Y62.38 Z40.00 E0 F1800 
G1 X81.72 Y62.38 Z40.00 E0 F1800 
G1 X82.31 Y61.79 Z40.00 E0 F1800 
G1 X108.04 Y61.79 Z40.00 E0 F1800 
G1 X108.64 Y62.38 Z40.00 E0 F1800 
G1 X109.84 Y62.38 Z40.00 E0 F1800 
G1 X110.43 Y62.98 Z40.00 E0 F1800 
G1 X111.03 Y62.98 Z40.00 E0 F1800 
G1 X115.82 Y67.77 Z40.00 E0 F1800 
G1 X115.82 Y68.37 Z40.00 E0 F1800 
G1 X120.01 Y72.56 Z40.00 E0 F1800 
G1 X120.01 Y73.15 Z40.00 E0 F1800 
G1 X124.19 Y77.34 Z40.00 E0 F1800 
G1 X124.19 Y77.94 Z40.00 E0 F1800 
G1 X127.78 Y81.53 Z40.00 E0 F1800 
G1 X127.78 Y82.13 Z40.00 E0 F1800 
G1 X128.98 Y83.32 Z40.00 E0 F1800 
G1 X129.58 Y82.73 Z40.00 E0 F1800 
G1 X130.18 Y83.32 Z40.00 E0 F1800 
G1 X130.78 Y82.73 Z40.00 E0 F1800 
G1 X130.78 Y82.13 Z40.00 E0 F1800 
G1 X134.96 Y77.94 Z40.00 E0 F1800 
G1 X134.96 Y77.34 Z40.00 E0 F1800 
G1 X139.15 Y73.15 Z40.00 E0 F1800 
G1 X139.15 Y72.56 Z40.00 E0 F1800 
G1 X145.13 Y66.57 Z40.00 E0 F1800 
G1 X145.73 Y66.57 Z40.00 E0 F1800 
G1 X146.33 Y65.97 Z40.00 E0 F1800 
G1 X147.53 Y65.97 Z40.00 E0 F1800 
G1 X148.13 Y66.57 Z40.00 E0 F1800 
G1 X148.72 Y66.57 Z40.00 E0 F1800 
G1 X149.32 Y67.17 Z40.00 E0 F1800 
G1 X149.92 Y67.17 Z40.00 E0 F1800 
G1 X151.12 Y68.37 Z40.00 E0 F1800 
G1 X151.12 Y68.97 Z40.00 E0 F1800 
G1 X151.72 Y69.56 Z40.00 E0 F1800 
G1 X152.31 Y68.97 Z40.00 E0 F1800 
G1 X151.72 Y68.97 Z40.00 E0 F1800 
G1 X151.12 Y68.37 Z40.00 E0 F1800 
G1 X151.12 Y67.77 Z40.00 E0 F1800 
G1 X150.52 Y67.17 Z40.00 E0 F1800 
G1 X149.92 Y67.17 Z40.00 E0 F1800 
G1 X149.32 Y66.57 Z40.00 E0 F1800 
G1 X148.13 Y66.57 Z40.00 E0 F1800 
G1 X147.53 Y65.97 Z40.00 E0 F1800 
G1 X146.33 Y65.97 Z40.00 E0 F1800 
G1 X145.73 Y66.57 Z40.00 E0 F1800 
G1 X144.54 Y66.57 Z40.00 E0 F1800 
G1 X139.15 Y71.96 Z40.00 E0 F1800 
G1 X139.15 Y72.56 Z40.00 E0 F1800 
G1 X134.96 Y76.74 Z40.00 E0 F1800 
G1 X134.96 Y77.34 Z40.00 E0 F1800 
G1 X131.37 Y80.93 Z40.00 E0 F1800 
G1 X131.37 Y81.53 Z40.00 E0 F1800 
G1 X130.18 Y82.73 Z40.00 E0 F1800 
G1 X128.98 Y82.73 Z40.00 E0 F1800 
G1 X127.78 Y81.53 Z40.00 E0 F1800 
G1 X127.78 Y80.93 Z40.00 E0 F1800 
G1 X124.19 Y77.34 Z40.00 E0 F1800 
G1 X124.19 Y76.74 Z40.00 E0 F1800 
G1 X120.01 Y72.56 Z40.00 E0 F1800 
G1 X120.01 Y71.96 Z70.00 E0 F1800 
M0; stop and wait for user input
G0 X128.47 Y80.42 Z58.00 E0 F1800 
G1 X115.82 Y67.77 Z40.00 E0 F1800 
G1 X115.82 Y67.17 Z40.00 E0 F1800 
G1 X111.63 Y62.98 Z40.00 E0 F1800 
G1 X111.03 Y62.98 Z40.00 E0 F1800 
G1 X110.43 Y62.38 Z40.00 E0 F1800 
G1 X108.64 Y62.38 Z40.00 E0 F1800 
G1 X108.04 Y61.79 Z40.00 E0 F1800 
G0 X132.66 Y78.54 Z58.00 E0 F1800 
G1 X123.60 Y42.04 Z40.00 E0 F1800 
G1 X122.40 Y42.04 Z40.00 E0 F1800 
G1 X121.80 Y42.64 Z40.00 E0 F1800 
G1 X121.20 Y42.64 Z40.00 E0 F1800 
G1 X120.60 Y43.24 Z40.00 E0 F1800 
G1 X120.01 Y43.24 Z40.00 E0 F1800 
G1 X119.41 Y43.84 Z40.00 E0 F1800 
G1 X118.81 Y43.84 Z40.00 E0 F1800 
G1 X115.22 Y47.43 Z40.00 E0 F1800 
G1 X115.22 Y48.03 Z40.00 E0 F1800 
G1 X114.62 Y48.62 Z40.00 E0 F1800 
G1 X114.62 Y49.22 Z40.00 E0 F1800 
G1 X114.02 Y49.82 Z40.00 E0 F1800 
G1 X114.02 Y51.02 Z40.00 E0 F1800 
G1 X113.42 Y51.62 Z40.00 E0 F1800 
G1 X113.42 Y53.41 Z40.00 E0 F1800 
G1 X112.83 Y54.01 Z40.00 E0 F1800 
G1 X112.83 Y58.20 Z40.00 E0 F1800 
G1 X113.42 Y58.79 Z40.00 E0 F1800 
G1 X113.42 Y59.99 Z40.00 E0 F1800 
G1 X114.02 Y60.59 Z40.00 E0 F1800 
G1 X114.02 Y61.79 Z40.00 E0 F1800 
G1 X114.62 Y62.38 Z40.00 E0 F1800 
G1 X114.62 Y62.98 Z40.00 E0 F1800 
G1 X115.22 Y63.58 Z40.00 E0 F1800 
G1 X115.22 Y64.18 Z40.00 E0 F1800 
G1 X118.81 Y67.77 Z40.00 E0 F1800 
G1 X119.41 Y67.77 Z40.00 E0 F1800 
G1 X120.60 Y68.97 Z40.00 E0 F1800 
G1 X121.20 Y68.97 Z40.00 E0 F1800 
G1 X121.80 Y69.56 Z40.00 E0 F1800 
G1 X123.60 Y69.56 Z40.00 E0 F1800 
G1 X124.19 Y70.16 Z40.00 E0 F1800 
G1 X125.99 Y70.16 Z40.00 E0 F1800 
G1 X126.59 Y70.76 Z40.00 E0 F1800 
G1 X129.58 Y70.76 Z40.00 E0 F1800 
G1 X130.18 Y70.16 Z40.00 E0 F1800 
G1 X132.57 Y70.16 Z40.00 E0 F1800 
G1 X133.17 Y69.56 Z40.00 E0 F1800 
G1 X134.36 Y69.56 Z40.00 E0 F1800 
G1 X134.96 Y68.97 Z40.00 E0 F1800 
G1 X135.56 Y68.97 Z40.00 E0 F1800 
G1 X136.16 Y68.37 Z40.00 E0 F1800 
G1 X136.76 Y68.37 Z40.00 E0 F1800 
G1 X137.36 Y67.77 Z40.00 E0 F1800 
G1 X137.95 Y67.77 Z40.00 E0 F1800 
G1 X140.95 Y64.78 Z40.00 E0 F1800 
G1 X140.95 Y64.18 Z40.00 E0 F1800 
G1 X141.54 Y63.58 Z40.00 E0 F1800 
G1 X141.54 Y62.98 Z40.00 E0 F1800 
G1 X142.14 Y62.38 Z40.00 E0 F1800 
G1 X142.14 Y61.79 Z40.00 E0 F1800 
G1 X142.74 Y61.19 Z40.00 E0 F1800 
G1 X142.74 Y59.99 Z40.00 E0 F1800 
G1 X143.34 Y59.39 Z40.00 E0 F1800 
G1 X143.34 Y52.21 Z40.00 E0 F1800 
G1 X142.74 Y51.62 Z40.00 E0 F1800 
G1 X142.74 Y50.42 Z40.00 E0 F1800 
G1 X142.14 Y49.82 Z40.00 E0 F1800 
G1 X142.14 Y49.22 Z40.00 E0 F1800 
G1 X141.54 Y48.62 Z40.00 E0 F1800 
G1 X141.54 Y48.03 Z40.00 E0 F1800 
G1 X140.35 Y46.83 Z40.00 E0 F1800 
G1 X140.35 Y46.23 Z40.00 E0 F1800 
G1 X138.55 Y44.44 Z40.00 E0 F1800 
G1 X137.95 Y44.44 Z40.00 E0 F1800 
G1 X136.76 Y43.24 Z40.00 E0 F1800 
G1 X136.16 Y43.24 Z40.00 E0 F1800 
G1 X135.56 Y42.64 Z40.00 E0 F1800 
G1 X134.96 Y42.64 Z40.00 E0 F1800 
G1 X134.36 Y42.04 Z40.00 E0 F1800 
G1 X133.17 Y42.04 Z40.00 E0 F1800 
G1 X132.57 Y41.44 Z40.00 E0 F1800 
G1 X130.18 Y41.44 Z40.00 E0 F1800 
G1 X130.78 Y42.04 Z40.00 E0 F1800 
G1 X131.37 Y42.04 Z40.00 E0 F1800 
G1 X131.97 Y41.44 Z40.00 E0 F1800 
G1 X132.57 Y42.04 Z40.00 E0 F1800 
G1 X133.77 Y42.04 Z40.00 E0 F1800 
G1 X134.36 Y42.64 Z40.00 E0 F1800 
G1 X134.96 Y42.64 Z40.00 E0 F1800 
G1 X135.56 Y43.24 Z40.00 E0 F1800 
G1 X136.16 Y43.24 Z40.00 E0 F1800 
G1 X137.36 Y44.44 Z40.00 E0 F1800 
G1 X137.95 Y44.44 Z40.00 E0 F1800 
G1 X140.35 Y46.83 Z40.00 E0 F1800 
G1 X140.35 Y47.43 Z40.00 E0 F1800 
G1 X141.54 Y48.62 Z40.00 E0 F1800 
G1 X141.54 Y49.22 Z40.00 E0 F1800 
G1 X142.14 Y49.82 Z40.00 E0 F1800 
G1 X142.14 Y50.42 Z40.00 E0 F1800 
G1 X142.74 Y51.02 Z40.00 E0 F1800 
G1 X142.74 Y51.62 Z40.00 E0 F1800 
G1 X143.34 Y52.21 Z40.00 E0 F1800 
G1 X143.34 Y59.39 Z40.00 E0 F1800 
G1 X142.74 Y59.99 Z40.00 E0 F1800 
G1 X142.74 Y61.19 Z40.00 E0 F1800 
G1 X141.54 Y62.38 Z40.00 E0 F1800 
G1 X141.54 Y62.98 Z40.00 E0 F1800 
G1 X140.95 Y63.58 Z40.00 E0 F1800 
G1 X140.95 Y64.18 Z40.00 E0 F1800 
G1 X137.36 Y67.77 Z40.00 E0 F1800 
G1 X136.76 Y67.77 Z40.00 E0 F1800 
G1 X136.16 Y68.37 Z40.00 E0 F1800 
G1 X135.56 Y68.37 Z40.00 E0 F1800 
G1 X134.96 Y68.97 Z40.00 E0 F1800 
G1 X134.36 Y68.97 Z40.00 E0 F1800 
G1 X133.77 Y69.56 Z40.00 E0 F1800 
G1 X133.17 Y69.56 Z40.00 E0 F1800 
G1 X132.57 Y70.16 Z40.00 E0 F1800 
G1 X130.18 Y70.16 Z40.00 E0 F1800 
G1 X129.58 Y70.76 Z40.00 E0 F1800 
G1 X126.59 Y70.76 Z40.00 E0 F1800 
G1 X125.99 Y70.16 Z40.00 E0 F1800 
G1 X124.19 Y70.16 Z40.00 E0 F1800 
G1 X123.60 Y69.56 Z40.00 E0 F1800 
G1 X122.40 Y69.56 Z40.00 E0 F1800 
G1 X121.80 Y68.97 Z40.00 E0 F1800 
G1 X121.20 Y68.97 Z40.00 E0 F1800 
G1 X120.01 Y67.77 Z40.00 E0 F1800 
G1 X119.41 Y67.77 Z40.00 E0 F1800 
G1 X115.22 Y63.58 Z40.00 E0 F1800 
G1 X115.22 Y62.98 Z40.00 E0 F1800 
G1 X114.62 Y62.38 Z40.00 E0 F1800 
G1 X114.62 Y61.79 Z40.00 E0 F1800 
G1 X114.02 Y61.19 Z40.00 E0 F1800 
G1 X114.02 Y60.59 Z40.00 E0 F1800 
G1 X113.42 Y59.99 Z40.00 E0 F1800 
G1 X113.42 Y58.79 Z40.00 E0 F1800 
G1 X112.83 Y58.20 Z40.00 E0 F1800 
G1 X112.83 Y54.01 Z40.00 E0 F1800 
G1 X113.42 Y53.41 Z40.00 E0 F1800 
G1 X113.42 Y51.62 Z40.00 E0 F1800 
G1 X114.02 Y51.02 Z40.00 E0 F1800 
G1 X114.02 Y50.42 Z40.00 E0 F1800 
G1 X114.62 Y49.82 Z40.00 E0 F1800 
G1 X114.62 Y49.22 Z40.00 E0 F1800 
G1 X115.22 Y48.62 Z40.00 E0 F1800 
G1 X115.22 Y48.03 Z40.00 E0 F1800 
G1 X119.41 Y43.84 Z40.00 E0 F1800 
G1 X120.01 Y43.84 Z40.00 E0 F1800 
G1 X120.60 Y43.24 Z40.00 E0 F1800 
G1 X121.20 Y43.24 Z40.00 E0 F1800 
G1 X121.80 Y42.64 Z40.00 E0 F1800 
G1 X122.40 Y42.64 Z40.00 E0 F1800 
G1 X123.00 Y42.04 Z40.00 E0 F1800 
G1 X124.19 Y42.04 Z40.00 E0 F1800 
G1 X124.79 Y41.44 Z40.00 E0 F1800 
G1 X125.39 Y42.04 Z40.00 E0 F1800 
G1 X125.99 Y41.44 Z40.00 E0 F1800 
G0 X143.34 Y82.73 Z58.00 E0 F1800 
G1 X152.31 Y71.36 Z40.00 E0 F1800 
G0 X143.34 Y86.32 Z58.00 E0 F1800 
G1 X152.31 Y74.95 Z40.00 E0 F1800 
G1 X151.72 Y75.55 Z70.00 E0 F1800 
M0; stop and wait for user input
G0 X143.34 Y87.51 Z58.00 E0 F1800 
G1 X151.72 Y76.14 Z40.00 E0 F1800 
G1 X148.72 Y79.14 Z40.00 E0 F1800 
G1 X148.72 Y79.73 Z40.00 E0 F1800 
G1 X145.13 Y83.32 Z40.00 E0 F1800 
G1 X145.13 Y83.92 Z40.00 E0 F1800 
G1 X141.54 Y87.51 Z40.00 E0 F1800 
G1 X141.54 Y88.11 Z40.00 E0 F1800 
G1 X137.95 Y91.70 Z40.00 E0 F1800 
G1 X137.95 Y92.30 Z40.00 E0 F1800 
G1 X131.97 Y98.28 Z40.00 E0 F1800 
G1 X131.37 Y98.28 Z40.00 E0 F1800 
G1 X130.78 Y98.88 Z40.00 E0 F1800 
G1 X128.38 Y98.88 Z40.00 E0 F1800 
G1 X127.78 Y98.28 Z40.00 E0 F1800 
G1 X127.19 Y98.28 Z40.00 E0 F1800 
G1 X123.60 Y94.69 Z40.00 E0 F1800 
G1 X123.60 Y94.09 Z40.00 E0 F1800 
G1 X119.41 Y89.91 Z40.00 E0 F1800 
G1 X119.41 Y89.31 Z40.00 E0 F1800 
G1 X115.82 Y85.72 Z40.00 E0 F1800 
G1 X114.62 Y85.72 Z40.00 E0 F1800 
G1 X113.42 Y86.91 Z40.00 E0 F1800 
G1 X113.42 Y87.51 Z40.00 E0 F1800 
G1 X111.63 Y89.31 Z40.00 E0 F1800 
G1 X111.63 Y89.91 Z40.00 E0 F1800 
G1 X109.84 Y91.70 Z40.00 E0 F1800 
G1 X109.84 Y92.30 Z40.00 E0 F1800 
G1 X108.04 Y94.09 Z40.00 E0 F1800 
G1 X108.04 Y94.69 Z40.00 E0 F1800 
G1 X106.25 Y96.49 Z40.00 E0 F1800 
G1 X106.25 Y97.09 Z40.00 E0 F1800 
G1 X104.45 Y98.88 Z40.00 E0 F1800 
G1 X104.45 Y99.48 Z40.00 E0 F1800 
G1 X102.66 Y101.27 Z40.00 E0 F1800 
G1 X102.66 Y101.87 Z40.00 E0 F1800 
G1 X100.86 Y103.67 Z40.00 E0 F1800 
G1 X100.86 Y104.26 Z40.00 E0 F1800 
G1 X99.66 Y105.46 Z40.00 E0 F1800 
G1 X99.66 Y107.26 Z40.00 E0 F1800 
G1 X102.66 Y110.25 Z40.00 E0 F1800 
G1 X102.66 Y110.85 Z40.00 E0 F1800 
G1 X106.25 Y114.44 Z40.00 E0 F1800 
G1 X106.25 Y115.03 Z40.00 E0 F1800 
G1 X110.43 Y119.22 Z40.00 E0 F1800 
G1 X110.43 Y119.82 Z40.00 E0 F1800 
G1 X114.02 Y123.41 Z40.00 E0 F1800 
G1 X114.02 Y124.01 Z40.00 E0 F1800 
G1 X114.62 Y124.61 Z40.00 E0 F1800 
G1 X114.62 Y125.20 Z40.00 E0 F1800 
G1 X115.22 Y125.80 Z40.00 E0 F1800 
G1 X115.22 Y126.40 Z40.00 E0 F1800 
G1 X115.82 Y127.00 Z40.00 E0 F1800 
G1 X115.82 Y131.79 Z40.00 E0 F1800 
G1 X115.22 Y132.38 Z40.00 E0 F1800 
G1 X115.22 Y134.78 Z40.00 E0 F1800 
G1 X114.62 Y135.38 Z40.00 E0 F1800 
G1 X114.62 Y137.77 Z40.00 E0 F1800 
G1 X114.02 Y138.37 Z40.00 E0 F1800 
G1 X114.02 Y140.76 Z40.00 E0 F1800 
G1 X113.42 Y141.36 Z40.00 E0 F1800 
G1 X113.42 Y143.75 Z40.00 E0 F1800 
G1 X112.83 Y144.35 Z40.00 E0 F1800 
G1 X112.83 Y146.74 Z40.00 E0 F1800 
G1 X112.23 Y147.34 Z40.00 E0 F1800 
G1 X112.23 Y149.73 Z40.00 E0 F1800 
G1 X111.63 Y150.33 Z40.00 E0 F1800 
G1 X111.63 Y153.32 Z40.00 E0 F1800 
G1 X111.03 Y153.92 Z40.00 E0 F1800 
G1 X111.03 Y156.32 Z40.00 E0 F1800 
G1 X110.43 Y156.91 Z40.00 E0 F1800 
G1 X110.43 Y159.31 Z40.00 E0 F1800 
G1 X109.84 Y159.91 Z40.00 E0 F1800 
G1 X109.84 Y162.30 Z40.00 E0 F1800 
G1 X109.24 Y162.90 Z40.00 E0 F1800 
G1 X109.24 Y165.29 Z40.00 E0 F1800 
G1 X108.64 Y165.89 Z40.00 E0 F1800 
G1 X108.64 Y168.28 Z40.00 E0 F1800 
G1 X108.04 Y168.88 Z40.00 E0 F1800 
G1 X108.04 Y171.27 Z40.00 E0 F1800 
G1 X107.44 Y171.87 Z40.00 E0 F1800 
G1 X107.44 Y174.26 Z40.00 E0 F1800 
G1 X106.84 Y174.86 Z40.00 E0 F1800 
G1 X106.84 Y176.66 Z40.00 E0 F1800 
G1 X106.25 Y177.26 Z40.00 E0 F1800 
G1 X106.25 Y177.85 Z40.00 E0 F1800 
G1 X103.25 Y180.85 Z40.00 E0 F1800 
G1 X102.66 Y180.85 Z40.00 E0 F1800 
G1 X103.25 Y181.44 Z40.00 E0 F1800 
G1 X106.25 Y178.45 Z40.00 E0 F1800 
G1 X106.25 Y177.26 Z40.00 E0 F1800 
G1 X106.84 Y176.66 Z40.00 E0 F1800 
G1 X106.84 Y174.86 Z40.00 E0 F1800 
G1 X107.44 Y174.26 Z40.00 E0 F1800 
G1 X107.44 Y171.87 Z40.00 E0 F1800 
G1 X108.04 Y171.27 Z40.00 E0 F1800 
G1 X108.04 Y168.88 Z40.00 E0 F1800 
G1 X108.64 Y168.28 Z40.00 E0 F1800 
G1 X108.64 Y165.89 Z40.00 E0 F1800 
G1 X109.24 Y165.29 Z40.00 E0 F1800 
G1 X109.24 Y162.90 Z40.00 E0 F1800 
G1 X109.84 Y162.30 Z40.00 E0 F1800 
G1 X109.84 Y159.91 Z40.00 E0 F1800 
G1 X110.43 Y159.31 Z40.00 E0 F1800 
G1 X110.43 Y156.91 Z40.00 E0 F1800 
G1 X111.03 Y156.32 Z40.00 E0 F1800 
G1 X111.03 Y153.92 Z40.00 E0 F1800 
G1 X111.63 Y153.32 Z40.00 E0 F1800 
G1 X111.63 Y150.33 Z40.00 E0 F1800 
G1 X112.23 Y149.73 Z40.00 E0 F1800 
G1 X112.23 Y147.34 Z40.00 E0 F1800 
G1 X112.83 Y146.74 Z40.00 E0 F1800 
G1 X112.83 Y144.35 Z40.00 E0 F1800 
G1 X113.42 Y143.75 Z40.00 E0 F1800 
G1 X113.42 Y141.36 Z40.00 E0 F1800 
G1 X114.02 Y140.76 Z40.00 E0 F1800 
G1 X114.02 Y138.37 Z40.00 E0 F1800 
G1 X114.62 Y137.77 Z40.00 E0 F1800 
G1 X114.62 Y135.38 Z40.00 E0 F1800 
G1 X115.22 Y134.78 Z40.00 E0 F1800 
G1 X115.22 Y132.38 Z40.00 E0 F1800 
G1 X115.82 Y131.79 Z40.00 E0 F1800 
G1 X115.82 Y127.00 Z40.00 E0 F1800 
G1 X115.22 Y126.40 Z40.00 E0 F1800 
G1 X115.22 Y125.20 Z40.00 E0 F1800 
G1 X114.62 Y124.61 Z40.00 E0 F1800 
G1 X114.62 Y124.01 Z40.00 E0 F1800 
G1 X114.02 Y123.41 Z40.00 E0 F1800 
G1 X114.02 Y122.81 Z40.00 E0 F1800 
G1 X110.43 Y119.22 Z40.00 E0 F1800 
G1 X110.43 Y118.62 Z40.00 E0 F1800 
G1 X106.25 Y114.44 Z40.00 E0 F1800 
G1 X106.25 Y113.84 Z40.00 E0 F1800 
G1 X102.66 Y110.25 Z40.00 E0 F1800 
G1 X102.66 Y109.65 Z40.00 E0 F1800 
G1 X99.66 Y106.66 Z40.00 E0 F1800 
G1 X99.66 Y106.06 Z40.00 E0 F1800 
G1 X100.86 Y104.86 Z40.00 E0 F1800 
G1 X100.86 Y104.26 Z40.00 E0 F1800 
G1 X102.66 Y102.47 Z40.00 E0 F1800 
G1 X102.66 Y101.87 Z40.00 E0 F1800 
G1 X104.45 Y100.08 Z70.00 E0 F1800 
M0; stop and wait for user input
G0 X104.45 Y88.11 Z58.00 E0 F1800 
G1 X104.45 Y99.48 Z40.00 E0 F1800 
G1 X106.25 Y97.68 Z40.00 E0 F1800 
G1 X106.25 Y97.09 Z40.00 E0 F1800 
G1 X108.04 Y95.29 Z40.00 E0 F1800 
G1 X108.04 Y94.69 Z40.00 E0 F1800 
G1 X109.84 Y92.90 Z40.00 E0 F1800 
G1 X109.84 Y92.30 Z40.00 E0 F1800 
G1 X111.63 Y90.50 Z40.00 E0 F1800 
G1 X111.63 Y89.91 Z40.00 E0 F1800 
G1 X113.42 Y88.11 Z40.00 E0 F1800 
G1 X113.42 Y87.51 Z40.00 E0 F1800 
G1 X115.22 Y85.72 Z40.00 E0 F1800 
G1 X119.41 Y89.91 Z40.00 E0 F1800 
G1 X119.41 Y90.50 Z40.00 E0 F1800 
G1 X123.60 Y94.69 Z40.00 E0 F1800 
G1 X123.60 Y95.29 Z40.00 E0 F1800 
G1 X126.59 Y98.28 Z40.00 E0 F1800 
G1 X127.78 Y98.28 Z40.00 E0 F1800 
G1 X128.38 Y98.88 Z40.00 E0 F1800 
G1 X130.78 Y98.88 Z40.00 E0 F1800 
G1 X131.37 Y98.28 Z40.00 E0 F1800 
G1 X132.57 Y98.28 Z40.00 E0 F1800 
G1 X137.95 Y92.90 Z40.00 E0 F1800 
G1 X137.95 Y92.30 Z40.00 E0 F1800 
G1 X141.54 Y88.71 Z40.00 E0 F1800 
G1 X141.54 Y88.11 Z40.00 E0 F1800 
G1 X145.13 Y84.52 Z40.00 E0 F1800 
G1 X145.13 Y83.92 Z40.00 E0 F1800 
G1 X148.72 Y80.33 Z40.00 E0 F1800 
G1 X148.72 Y79.73 Z40.00 E0 F1800 
G1 X152.31 Y76.14 Z40.00 E0 F1800 
G1 X151.72 Y75.55 Z40.00 E0 F1800 
G1 X152.31 Y74.95 Z40.00 E0 F1800 
G0 X82.91 Y130.59 Z58.00 E0 F1800 
G1 X82.91 Y119.22 Z40.00 E0 F1800 
G1 X81.12 Y121.02 Z40.00 E0 F1800 
G1 X81.12 Y121.62 Z40.00 E0 F1800 
G1 X78.72 Y124.01 Z40.00 E0 F1800 
G1 X78.72 Y124.61 Z40.00 E0 F1800 
G1 X76.93 Y126.40 Z40.00 E0 F1800 
G1 X76.93 Y127.00 Z40.00 E0 F1800 
G1 X74.54 Y129.39 Z40.00 E0 F1800 
G1 X74.54 Y129.99 Z40.00 E0 F1800 
G1 X72.74 Y131.79 Z40.00 E0 F1800 
G1 X72.74 Y132.38 Z40.00 E0 F1800 
G1 X70.35 Y134.78 Z40.00 E0 F1800 
G1 X70.35 Y135.38 Z40.00 E0 F1800 
G1 X67.36 Y138.37 Z40.00 E0 F1800 
G1 X66.76 Y138.37 Z40.00 E0 F1800 
G1 X66.16 Y138.97 Z40.00 E0 F1800 
G1 X65.56 Y138.97 Z40.00 E0 F1800 
G1 X64.96 Y139.56 Z40.00 E0 F1800 
G1 X62.57 Y139.56 Z40.00 E0 F1800 
G1 X61.97 Y140.16 Z40.00 E0 F1800 
G1 X31.46 Y140.16 Z40.00 E0 F1800 
G1 X30.86 Y139.56 Z40.00 E0 F1800 
G1 X29.66 Y139.56 Z40.00 E0 F1800 
G1 X29.07 Y138.97 Z40.00 E0 F1800 
G1 X28.47 Y138.97 Z40.00 E0 F1800 
G1 X25.48 Y135.97 Z40.00 E0 F1800 
G1 X25.48 Y135.38 Z40.00 E0 F1800 
G1 X24.88 Y134.78 Z40.00 E0 F1800 
G1 X24.88 Y133.58 Z40.00 E0 F1800 
G1 X24.88 Y135.38 Z40.00 E0 F1800 
G1 X25.48 Y135.97 Z40.00 E0 F1800 
G1 X25.48 Y136.57 Z40.00 E0 F1800 
G1 X27.87 Y138.97 Z40.00 E0 F1800 
G1 X28.47 Y138.97 Z40.00 E0 F1800 
G1 X29.07 Y139.56 Z40.00 E0 F1800 
G1 X30.86 Y139.56 Z40.00 E0 F1800 
G1 X31.46 Y140.16 Z40.00 E0 F1800 
G1 X61.97 Y140.16 Z40.00 E0 F1800 
G1 X62.57 Y139.56 Z40.00 E0 F1800 
G1 X64.96 Y139.56 Z40.00 E0 F1800 
G1 X65.56 Y138.97 Z40.00 E0 F1800 
G1 X66.76 Y138.97 Z40.00 E0 F1800 
G1 X67.36 Y138.37 Z40.00 E0 F1800 
G1 X67.95 Y138.37 Z40.00 E0 F1800 
G1 X70.35 Y135.97 Z40.00 E0 F1800 
G1 X70.35 Y135.38 Z40.00 E0 F1800 
G1 X72.74 Y132.98 Z40.00 E0 F1800 
G1 X72.74 Y132.38 Z40.00 E0 F1800 
G1 X74.54 Y130.59 Z40.00 E0 F1800 
G1 X74.54 Y129.99 Z40.00 E0 F1800 
G1 X76.93 Y127.60 Z40.00 E0 F1800 
G1 X76.93 Y127.00 Z40.00 E0 F1800 
G1 X78.72 Y125.20 Z40.00 E0 F1800 
G1 X78.72 Y124.61 Z40.00 E0 F1800 
G1 X81.12 Y122.21 Z40.00 E0 F1800 
G1 X81.12 Y121.62 Z40.00 E0 F1800 
G1 X83.51 Y119.22 Z40.00 E0 F1800 
G1 X84.11 Y119.22 Z40.00 E0 F1800 
G1 X85.31 Y120.42 Z40.00 E0 F1800 
G1 X85.31 Y121.02 Z40.00 E0 F1800 
G1 X90.69 Y126.40 Z40.00 E0 F1800 
G1 X90.69 Y127.00 Z40.00 E0 F1800 
G1 X95.48 Y131.79 Z40.00 E0 F1800 
G1 X95.48 Y132.38 Z40.00 E0 F1800 
G1 X99.66 Y136.57 Z40.00 E0 F1800 
G1 X99.66 Y137.17 Z40.00 E0 F1800 
G1 X100.26 Y137.77 Z40.00 E0 F1800 
G1 X99.66 Y138.37 Z40.00 E0 F1800 
G1 X99.66 Y141.36 Z40.00 E0 F1800 
G1 X99.07 Y141.96 Z40.00 E0 F1800 
G1 X99.07 Y144.35 Z40.00 E0 F1800 
G1 X98.47 Y144.95 Z70.00 E0 F1800 
M0; stop and wait for user input
G0 X98.47 Y156.91 Z58.00 E0 F1800 
G1 X98.47 Y147.34 Z40.00 E0 F1800 
G1 X97.87 Y147.94 Z40.00 E0 F1800 
G1 X97.87 Y150.33 Z40.00 E0 F1800 
G1 X97.27 Y150.93 Z40.00 E0 F1800 
G1 X97.27 Y153.32 Z40.00 E0 F1800 
G1 X96.67 Y153.92 Z40.00 E0 F1800 
G1 X96.67 Y156.32 Z40.00 E0 F1800 
G1 X96.07 Y156.91 Z40.00 E0 F1800 
G1 X96.07 Y159.31 Z40.00 E0 F1800 
G1 X95.48 Y159.91 Z40.00 E0 F1800 
G1 X95.48 Y162.30 Z40.00 E0 F1800 
G1 X94.88 Y162.90 Z40.00 E0 F1800 
G1 X94.88 Y165.89 Z40.00 E0 F1800 
G1 X94.28 Y166.49 Z40.00 E0 F1800 
G1 X94.28 Y168.88 Z40.00 E0 F1800 
G1 X93.68 Y169.48 Z40.00 E0 F1800 
G1 X93.68 Y171.87 Z40.00 E0 F1800 
G1 X93.08 Y172.47 Z40.00 E0 F1800 
G1 X93.08 Y174.86 Z40.00 E0 F1800 
G1 X93.68 Y175.46 Z40.00 E0 F1800 
G1 X93.68 Y176.66 Z40.00 E0 F1800 
G1 X94.28 Y177.26 Z40.00 E0 F1800 
G1 X94.28 Y178.45 Z40.00 E0 F1800 
G1 X97.27 Y181.44 Z40.00 E0 F1800 
G1 X97.27 Y180.85 Z40.00 E0 F1800 
G1 X94.28 Y177.85 Z40.00 E0 F1800 
G1 X94.28 Y177.26 Z40.00 E0 F1800 
G1 X93.68 Y176.66 Z40.00 E0 F1800 
G1 X93.68 Y175.46 Z40.00 E0 F1800 
G1 X93.08 Y174.86 Z40.00 E0 F1800 
G1 X93.08 Y172.47 Z40.00 E0 F1800 
G1 X93.68 Y171.87 Z40.00 E0 F1800 
G1 X93.68 Y169.48 Z40.00 E0 F1800 
G1 X94.28 Y168.88 Z40.00 E0 F1800 
G1 X94.28 Y166.49 Z40.00 E0 F1800 
G1 X94.88 Y165.89 Z40.00 E0 F1800 
G1 X94.88 Y162.90 Z40.00 E0 F1800 
G1 X95.48 Y162.30 Z40.00 E0 F1800 
G1 X95.48 Y159.91 Z40.00 E0 F1800 
G1 X96.07 Y159.31 Z40.00 E0 F1800 
G1 X96.07 Y156.91 Z40.00 E0 F1800 
G1 X96.67 Y156.32 Z40.00 E0 F1800 
G1 X96.67 Y153.92 Z40.00 E0 F1800 
G1 X97.27 Y153.32 Z40.00 E0 F1800 
G1 X97.27 Y150.93 Z40.00 E0 F1800 
G1 X97.87 Y150.33 Z40.00 E0 F1800 
G1 X97.87 Y147.94 Z40.00 E0 F1800 
G1 X98.47 Y147.34 Z40.00 E0 F1800 
G1 X98.47 Y144.95 Z40.00 E0 F1800 
G1 X99.07 Y144.35 Z40.00 E0 F1800 
G1 X99.07 Y141.96 Z40.00 E0 F1800 
G1 X99.66 Y141.36 Z40.00 E0 F1800 
G1 X99.66 Y138.37 Z40.00 E0 F1800 
G1 X100.26 Y137.77 Z40.00 E0 F1800 
G1 X99.66 Y137.17 Z40.00 E0 F1800 
G1 X99.66 Y135.97 Z40.00 E0 F1800 
G1 X95.48 Y131.79 Z40.00 E0 F1800 
G1 X95.48 Y131.19 Z40.00 E0 F1800 
G1 X90.69 Y126.40 Z40.00 E0 F1800 
G1 X90.69 Y125.80 Z40.00 E0 F1800 
G1 X85.31 Y120.42 Z40.00 E0 F1800 
G1 X85.31 Y119.82 Z40.00 E0 F1800 
G1 X84.11 Y118.62 Z40.00 E0 F1800 
G1 X83.51 Y119.22 Z40.00 E0 F1800 
G1 X98.47 Y181.44 Z70.00 E0 F1800 
G1 X98.47 Y181.44 Z40.00 E0 F1800 
G1 Z50 F3000 ;Move Z Axis up
G91 ;Relative positioning
G1 E-2 F2700 ;Retract a bit
G1 E-2 Z0.2 F2400 ;Retract and raise Z
G1 X5 Y5 F3000 ;Wipe out
G1 Z10 ;Raise Z more
G90 ;Absolute positioning
G1 X0 Y150 ;Present print
M106 S0 ;Turn-off fan
M104 S0 ;Turn-off hotend
M140 S0 ;Turn-off bed
M84 X Y E ;Disable all steppers but Z